LUTs/AgX_Formation.cube
TITLE "AgX_Formation"
# AgX Formation LUT
# This LUT expects input to be Log2 encoding from -10 stops to +15 stops
# But the end image formation will be from -10 to 6.5
# The image formed has 30% per-channel shifts
LUT_3D_SIZE 36
0.0000000 0.0000000 0.0000000
0.0073479 0.0000000 0.0000000
0.0158973 0.0000000 0.0000000
0.0259276 0.0000000 0.0000000
0.0378019 0.0000000 0.0000000
0.0519977 0.0000000 0.0000000
0.0691488 0.0000000 0.0000000
0.0901050 0.0000000 0.0000000
0.1160109 0.0000000 0.0000000
0.1484082 0.0000000 0.0000000
0.1893460 0.0000000 0.0000000
0.2414407 0.0000000 0.0000000
0.3077051 0.0000000 0.0000000
0.3906587 0.0000000 0.0000000
0.4894371 0.0000000 0.0000000
0.5896668 0.0000000 0.0000000
0.6780216 0.0000000 0.0000000
0.7527733 0.0000000 0.0000000
0.8148935 0.0000000 0.0000000
0.8661976 0.0000000 0.0000000
0.9085847 0.0000000 0.0000000
0.9437472 0.0000000 0.0000000
0.9730927 0.0000000 0.0000000
0.9977549 0.0000000 0.0000000
1.0186336 0.0000000 0.0000000
1.0364388 0.0000000 0.0000000
1.0517313 0.0000000 0.0000000
1.0649551 0.0000000 0.0000000
1.0764638 0.0000000 0.0000000
1.0865403 0.0000000 0.0000000
1.0954130 0.0000000 0.0000000
1.1032672 0.0000000 0.0000000
1.1102541 0.0000000 0.0000000
1.1164983 0.0000000 0.0000000
1.1221027 0.0000000 0.0000000
1.1271533 0.0000000 0.0000000
0.0000000 0.0073479 0.0000000
0.0073479 0.0073479 0.0000000
0.0158973 0.0108944 0.0000000
0.0259276 0.0136992 0.0000000
0.0378019 0.0161617 0.0000000
0.0519977 0.0184870 0.0000000
0.0691488 0.0208241 0.0000000
0.0901050 0.0233009 0.0000000
0.1160109 0.0260371 0.0000000
0.1484082 0.0291504 0.0000000
0.1893460 0.0327588 0.0000000
0.2414407 0.0369755 0.0000000
0.3077051 0.0418872 0.0000000
0.3906587 0.0474940 0.0000000
0.4894371 0.0535590 0.0000000
0.5896668 0.0591166 0.0000000
0.6780216 0.0635964 0.0000000
0.7527733 0.0671609 0.0000000
0.8148935 0.0700126 0.0000000
0.8661976 0.0723178 0.0000000
0.9085847 0.0742018 0.0000000
0.9437472 0.0757572 0.0000000
0.9730927 0.0770530 0.0000000
0.9977549 0.0781414 0.0000000
1.0186336 0.0790625 0.0000000
1.0364388 0.0798477 0.0000000
1.0517313 0.0805214 0.0000000
1.0649551 0.0811034 0.0000000
1.0764638 0.0816091 0.0000000
1.0865403 0.0820511 0.0000000
1.0954130 0.0824396 0.0000000
1.1032672 0.0827828 0.0000000
1.1102541 0.0830876 0.0000000
1.1164983 0.0833595 0.0000000
1.1221027 0.0836030 0.0000000
1.1271533 0.0838222 0.0000000
0.0000000 0.0158973 0.0000000
0.0108944 0.0158973 0.0000000
0.0158973 0.0158973 0.0000000
0.0259276 0.0199103 0.0000000
0.0378019 0.0233840 0.0000000
0.0519977 0.0266187 0.0000000
0.0691488 0.0298319 0.0000000
0.0901050 0.0332106 0.0000000
0.1160109 0.0369291 0.0000000
0.1484082 0.0411579 0.0000000
0.1893460 0.0460657 0.0000000
0.2414407 0.0518125 0.0000000
0.3077051 0.0585191 0.0000000
0.3906587 0.0661833 0.0000000
0.4894371 0.0744713 0.0000000
0.5896668 0.0820356 0.0000000
0.6780216 0.0881001 0.0000000
0.7527733 0.0929117 0.0000000
0.8148935 0.0967603 0.0000000
0.8661976 0.0998769 0.0000000
0.9085847 0.1024310 0.0000000
0.9437472 0.1045460 0.0000000
0.9730927 0.1063131 0.0000000
0.9977549 0.1078012 0.0000000
1.0186336 0.1090633 0.0000000
1.0364388 0.1101409 0.0000000
1.0517313 0.1110669 0.0000000
1.0649551 0.1118674 0.0000000
1.0764638 0.1125636 0.0000000
1.0865403 0.1131724 0.0000000
1.0954130 0.1137077 0.0000000
1.1032672 0.1141808 0.0000000
1.1102541 0.1146010 0.0000000
1.1164983 0.1149758 0.0000000
1.1221027 0.1153117 0.0000000
1.1271533 0.1156140 0.0000000
0.0000000 0.0259276 0.0000000
0.0136992 0.0259276 0.0000000
0.0199103 0.0259276 0.0000000
0.0259276 0.0259276 0.0000000
0.0378019 0.0303125 0.0000000
0.0519977 0.0343314 0.0000000
0.0691488 0.0382679 0.0000000
0.0901050 0.0423655 0.0000000
0.1160109 0.0468510 0.0000000
0.1484082 0.0519447 0.0000000
0.1893460 0.0578627 0.0000000
0.2414407 0.0648073 0.0000000
0.3077051 0.0729285 0.0000000
0.3906587 0.0822203 0.0000000
0.4894371 0.0922623 0.0000000
0.5896668 0.1013778 0.0000000
0.6780216 0.1086319 0.0000000
0.7527733 0.1143640 0.0000000
0.8148935 0.1189471 0.0000000
0.8661976 0.1226670 0.0000000
0.9085847 0.1257269 0.0000000
0.9437472 0.1282712 0.0000000
0.9730927 0.1304054 0.0000000
0.9977549 0.1322088 0.0000000
1.0186336 0.1337426 0.0000000
1.0364388 0.1350552 0.0000000
1.0517313 0.1361851 0.0000000
1.0649551 0.1371631 0.0000000
1.0764638 0.1380146 0.0000000
1.0865403 0.1387597 0.0000000
1.0954130 0.1394152 0.0000000
1.1032672 0.1399948 0.0000000
1.1102541 0.1405096 0.0000000
1.1164983 0.1409690 0.0000000
1.1221027 0.1413807 0.0000000
1.1271533 0.1417512 0.0000000
0.0000000 0.0378019 0.0000000
0.0161617 0.0378019 0.0000000
0.0233840 0.0378019 0.0000000
0.0303125 0.0378019 0.0000000
0.0378019 0.0378019 0.0000000
0.0519977 0.0425968 0.0000000
0.0691488 0.0472173 0.0000000
0.0901050 0.0519665 0.0000000
0.1160109 0.0571264 0.0000000
0.1484082 0.0629699 0.0000000
0.1893460 0.0697627 0.0000000
0.2414407 0.0777502 0.0000000
0.3077051 0.0871110 0.0000000
0.3906587 0.0978331 0.0000000
0.4894371 0.1094089 0.0000000
0.5896668 0.1198384 0.0000000
0.6780216 0.1280532 0.0000000
0.7527733 0.1345064 0.0000000
0.8148935 0.1396621 0.0000000
0.8661976 0.1438596 0.0000000
0.9085847 0.1473298 0.0000000
0.9437472 0.1502318 0.0000000
0.9730927 0.1526791 0.0000000
0.9977549 0.1547566 0.0000000
1.0186336 0.1565304 0.0000000
1.0364388 0.1580530 0.0000000
1.0517313 0.1593666 0.0000000
1.0649551 0.1605058 0.0000000
1.0764638 0.1614988 0.0000000
1.0865403 0.1623686 0.0000000
1.0954130 0.1631344 0.0000000
1.1032672 0.1638117 0.0000000
1.1102541 0.1644136 0.0000000
1.1164983 0.1649509 0.0000000
1.1221027 0.1654325 0.0000000
1.1271533 0.1658659 0.0000000
0.0000000 0.0519977 0.0000000
0.0184870 0.0519977 0.0000000
0.0266187 0.0519977 0.0000000
0.0343314 0.0519977 0.0000000
0.0425968 0.0519977 0.0000000
0.0519977 0.0519977 0.0000000
0.0691488 0.0573206 0.0000000
0.0901050 0.0627090 0.0000000
0.1160109 0.0685055 0.0000000
0.1484082 0.0750407 0.0000000
0.1893460 0.0826340 0.0000000
0.2414407 0.0915776 0.0000000
0.3077051 0.1020797 0.0000000
0.3906587 0.1141198 0.0000000
0.4894371 0.1270951 0.0000000
0.5896668 0.1386661 0.0000000
0.6780216 0.1476488 0.0000000
0.7527733 0.1546440 0.0000000
0.8148935 0.1602246 0.0000000
0.8661976 0.1647865 0.0000000
0.9085847 0.1685848 0.0000000
0.9437472 0.1717862 0.0000000
0.9730927 0.1745060 0.0000000
0.9977549 0.1768296 0.0000000
1.0186336 0.1788239 0.0000000
1.0364388 0.1805426 0.0000000
1.0517313 0.1820302 0.0000000
1.0649551 0.1833233 0.0000000
1.0764638 0.1844523 0.0000000
1.0865403 0.1854427 0.0000000
1.0954130 0.1863153 0.0000000
1.1032672 0.1870877 0.0000000
1.1102541 0.1877744 0.0000000
1.1164983 0.1883875 0.0000000
1.1221027 0.1889373 0.0000000
1.1271533 0.1894321 0.0000000
0.0000000 0.0691488 0.0000000
0.0208241 0.0691488 0.0000000
0.0298319 0.0691488 0.0000000
0.0382679 0.0691488 0.0000000
0.0472173 0.0691488 0.0000000
0.0573206 0.0691488 0.0000000
0.0691488 0.0691488 0.0000000
0.0901050 0.0752067 0.0000000
0.1160109 0.0816419 0.0000000
0.1484082 0.0888490 0.0000000
0.1893460 0.0972076 0.0000000
0.2414407 0.1070609 0.0000000
0.3077051 0.1186487 0.0000000
0.3906587 0.1319384 0.0000000
0.4894371 0.1462180 0.0000000
0.5896668 0.1587725 0.0000000
0.6780216 0.1683190 0.0000000
0.7527733 0.1756556 0.0000000
0.8148935 0.1814918 0.0000000
0.8661976 0.1862892 0.0000000
0.9085847 0.1903237 0.0000000
0.9437472 0.1937621 0.0000000
0.9730927 0.1967137 0.0000000
0.9977549 0.1992577 0.0000000
1.0186336 0.2014567 0.0000000
1.0364388 0.2033624 0.0000000
1.0517313 0.2050187 0.0000000
1.0649551 0.2064631 0.0000000
1.0764638 0.2077271 0.0000000
1.0865403 0.2088378 0.0000000
1.0954130 0.2098176 0.0000000
1.1032672 0.2106856 0.0000000
1.1102541 0.2114579 0.0000000
1.1164983 0.2121477 0.0000000
1.1221027 0.2127663 0.0000000
1.1271533 0.2133232 0.0000000
0.0000000 0.0901050 0.0000000
0.0233009 0.0901050 0.0000000
0.0332106 0.0901050 0.0000000
0.0423655 0.0901050 0.0000000
0.0519665 0.0901050 0.0000000
0.0627090 0.0901050 0.0000000
0.0752067 0.0901050 0.0000000
0.0901050 0.0901050 0.0000000
0.1160109 0.0972198 0.0000000
0.1484082 0.1051160 0.0000000
0.1893460 0.1142400 0.0000000
0.2414407 0.1249916 0.0000000
0.3077051 0.1376440 0.0000000
0.3906587 0.1521460 0.0000000
0.4894371 0.1676557 0.0000000
0.5896668 0.1810267 0.0000000
0.6780216 0.1908937 0.0000000
0.7527733 0.1983203 0.0000000
0.8148935 0.2041957 0.0000000
0.8661976 0.2090621 0.0000000
0.9085847 0.2132145 0.0000000
0.9437472 0.2168110 0.0000000
0.9730927 0.2199444 0.0000000
0.9977549 0.2226789 0.0000000
1.0186336 0.2250657 0.0000000
1.0364388 0.2271500 0.0000000
1.0517313 0.2289719 0.0000000
1.0649551 0.2305673 0.0000000
1.0764638 0.2319679 0.0000000
1.0865403 0.2332013 0.0000000
1.0954130 0.2342912 0.0000000
1.1032672 0.2352579 0.0000000
1.1102541 0.2361186 0.0000000
1.1164983 0.2368879 0.0000000
1.1221027 0.2375780 0.0000000
1.1271533 0.2381995 0.0000000
0.0000000 0.1160109 0.0000000
0.0260371 0.1160109 0.0000000
0.0369291 0.1160109 0.0000000
0.0468510 0.1160109 0.0000000
0.0571264 0.1160109 0.0000000
0.0685055 0.1160109 0.0000000
0.0816419 0.1160109 0.0000000
0.0972198 0.1160109 0.0000000
0.1160109 0.1160109 0.0000000
0.1484082 0.1246540 0.0000000
0.1893460 0.1345833 0.0000000
0.2414407 0.1462608 0.0000000
0.3077051 0.1599933 0.0000000
0.3906587 0.1757018 0.0000000
0.4894371 0.1923843 0.0000000
0.5896668 0.2063824 0.0000000
0.6780216 0.2162651 0.0000000
0.7527733 0.2234534 0.0000000
0.8148935 0.2290782 0.0000000
0.8661976 0.2337877 0.0000000
0.9085847 0.2378963 0.0000000
0.9437472 0.2415427 0.0000000
0.9730927 0.2447897 0.0000000
0.9977549 0.2476739 0.0000000
1.0186336 0.2502266 0.0000000
1.0364388 0.2524790 0.0000000
1.0517313 0.2544631 0.0000000
1.0649551 0.2562106 0.0000000
1.0764638 0.2577510 0.0000000
1.0865403 0.2591116 0.0000000
1.0954130 0.2603164 0.0000000
1.1032672 0.2613867 0.0000000
1.1102541 0.2623406 0.0000000
1.1164983 0.2631938 0.0000000
1.1221027 0.2639597 0.0000000
1.1271533 0.2646497 0.0000000
0.0000000 0.1484082 0.0000000
0.0291504 0.1484082 0.0000000
0.0411579 0.1484082 0.0000000
0.0519447 0.1484082 0.0000000
0.0629699 0.1484082 0.0000000
0.0750407 0.1484082 0.0000000
0.0888490 0.1484082 0.0000000
0.1051160 0.1484082 0.0000000
0.1246540 0.1484082 0.0000000
0.1484082 0.1484082 0.0000000
0.1893460 0.1592295 0.0000000
0.2414407 0.1719070 0.0000000
0.3077051 0.1867802 0.0000000
0.3906587 0.2037277 0.0000000
0.4894371 0.2215450 0.0000000
0.5896668 0.2359513 0.0000000
0.6780216 0.2454638 0.0000000
0.7527733 0.2519820 0.0000000
0.8148935 0.2569647 0.0000000
0.8661976 0.2612056 0.0000000
0.9085847 0.2650443 0.0000000
0.9437472 0.2685875 0.0000000
0.9730927 0.2718505 0.0000000
0.9977549 0.2748262 0.0000000
1.0186336 0.2775123 0.0000000
1.0364388 0.2799171 0.0000000
1.0517313 0.2820581 0.0000000
1.0649551 0.2839582 0.0000000
1.0764638 0.2856425 0.0000000
1.0865403 0.2871360 0.0000000
1.0954130 0.2884623 0.0000000
1.1032672 0.2896428 0.0000000
1.1102541 0.2906965 0.0000000
1.1164983 0.2916399 0.0000000
1.1221027 0.2924873 0.0000000
1.1271533 0.2932511 0.0000000
0.0000000 0.1893460 0.0000000
0.0327588 0.1893460 0.0000000
0.0460657 0.1893460 0.0000000
0.0578627 0.1893460 0.0000000
0.0697627 0.1893460 0.0000000
0.0826340 0.1893460 0.0000000
0.0972076 0.1893460 0.0000000
0.1142400 0.1893460 0.0000000
0.1345833 0.1893460 0.0000000
0.1592295 0.1893460 0.0000000
0.1893460 0.1893460 0.0000000
0.2414407 0.2031531 0.0000000
0.3077051 0.2192828 0.0000000
0.3906587 0.2375497 0.0000000
0.4894371 0.2564895 0.0000000
0.5896668 0.2710505 0.0000000
0.6780216 0.2797071 0.0000000
0.7527733 0.2849899 0.0000000
0.8148935 0.2888032 0.0000000
0.8661976 0.2921466 0.0000000
0.9085847 0.2953979 0.0000000
0.9437472 0.2986196 0.0000000
0.9730927 0.3017572 0.0000000
0.9977549 0.3047380 0.0000000
1.0186336 0.3075084 0.0000000
1.0364388 0.3100406 0.0000000
1.0517313 0.3123282 0.0000000
1.0649551 0.3143797 0.0000000
1.0764638 0.3162116 0.0000000
1.0865403 0.3178446 0.0000000
1.0954130 0.3193001 0.0000000
1.1032672 0.3205990 0.0000000
1.1102541 0.3217605 0.0000000
1.1164983 0.3228017 0.0000000
1.1221027 0.3237378 0.0000000
1.1271533 0.3245821 0.0000000
0.0000000 0.2414407 0.0000000
0.0369755 0.2414407 0.0000000
0.0518125 0.2414407 0.0000000
0.0648073 0.2414407 0.0000000
0.0777502 0.2414407 0.0000000
0.0915776 0.2414407 0.0000000
0.1070609 0.2414407 0.0000000
0.1249916 0.2414407 0.0000000
0.1462608 0.2414407 0.0000000
0.1719070 0.2414407 0.0000000
0.2031531 0.2414407 0.0000000
0.2414407 0.2414407 0.0000000
0.3077051 0.2590053 0.0000000
0.3906587 0.2787280 0.0000000
0.4894371 0.2988081 0.0000000
0.5896668 0.3132286 0.0000000
0.6780216 0.3204203 0.0000000
0.7527733 0.3237325 0.0000000
0.8148935 0.3256706 0.0000000
0.8661976 0.3275270 0.0000000
0.9085847 0.3297456 0.0000000
0.9437472 0.3323334 0.0000000
0.9730927 0.3351395 0.0000000
0.9977549 0.3379968 0.0000000
1.0186336 0.3407756 0.0000000
1.0364388 0.3433939 0.0000000
1.0517313 0.3458089 0.0000000
1.0649551 0.3480057 0.0000000
1.0764638 0.3499870 0.0000000
1.0865403 0.3517654 0.0000000
1.0954130 0.3533583 0.0000000
1.1032672 0.3547846 0.0000000
1.1102541 0.3560631 0.0000000
1.1164983 0.3572111 0.0000000
1.1221027 0.3582444 0.0000000
1.1271533 0.3591770 0.0000000
0.0000001 0.3077051 0.0000000
0.0418872 0.3077051 0.0000000
0.0585191 0.3077051 0.0000000
0.0729285 0.3077051 0.0000000
0.0871110 0.3077051 0.0000000
0.1020797 0.3077051 0.0000000
0.1186487 0.3077051 0.0000000
0.1376440 0.3077051 0.0000000
0.1599933 0.3077051 0.0000000
0.1867802 0.3077051 0.0000000
0.2192828 0.3077051 0.0000000
0.2590053 0.3077051 0.0000000
0.3077051 0.3077051 0.0000000
0.3906587 0.3290753 0.0000000
0.4894371 0.3503382 0.0000000
0.5896668 0.3642612 0.0000000
0.6780216 0.3692173 0.0000000
0.7527733 0.3696009 0.0000000
0.8148935 0.3687169 0.0000000
0.8661976 0.3682748 0.0000000
0.9085847 0.3688321 0.0000000
0.9437472 0.3703354 0.0000000
0.9730927 0.3725058 0.0000000
0.9977549 0.3750444 0.0000000
1.0186336 0.3777129 0.0000000
1.0364388 0.3803490 0.0000000
1.0517313 0.3828553 0.0000000
1.0649551 0.3851814 0.0000000
1.0764638 0.3873082 0.0000000
1.0865403 0.3892350 0.0000000
1.0954130 0.3909720 0.0000000
1.1032672 0.3925344 0.0000000
1.1102541 0.3939391 0.0000000
1.1164983 0.3952032 0.0000000
1.1221027 0.3963427 0.0000000
1.1271533 0.3973722 0.0000000
0.0000000 0.3906587 0.0000000
0.0474940 0.3906587 0.0000000
0.0661833 0.3906587 0.0000000
0.0822203 0.3906587 0.0000000
0.0978331 0.3906587 0.0000000
0.1141198 0.3906587 0.0000000
0.1319384 0.3906587 0.0000000
0.1521460 0.3906587 0.0000000
0.1757018 0.3906587 0.0000000
0.2037277 0.3906587 0.0000000
0.2375497 0.3906587 0.0000000
0.2787280 0.3906587 0.0000000
0.3290753 0.3906587 0.0000000
0.3906587 0.3906587 0.0000000
0.4894371 0.4131439 0.0000000
0.5896668 0.4261020 0.0000000
0.6780216 0.4278169 0.0000000
0.7527733 0.4239983 0.0000000
0.8148935 0.4190011 0.0000000
0.8661976 0.4151225 0.0000000
0.9085847 0.4131131 0.0000000
0.9437472 0.4128658 0.0000000
0.9730927 0.4139396 0.0000000
0.9977549 0.4158556 0.0000000
1.0186336 0.4182214 0.0000000
1.0364388 0.4207586 0.0000000
1.0517313 0.4232886 0.0000000
1.0649551 0.4257077 0.0000000
1.0764638 0.4279627 0.0000000
1.0865403 0.4300323 0.0000000
1.0954130 0.4319145 0.0000000
1.1032672 0.4336176 0.0000000
1.1102541 0.4351553 0.0000000
1.1164983 0.4365430 0.0000000
1.1221027 0.4377963 0.0000000
1.1271533 0.4389303 0.0000000
0.0000000 0.4894371 0.0000000
0.0535590 0.4894371 0.0000000
0.0744713 0.4894371 0.0000000
0.0922623 0.4894371 0.0000000
0.1094089 0.4894371 0.0000000
0.1270951 0.4894371 0.0000000
0.1462180 0.4894371 0.0000000
0.1676557 0.4894371 0.0000000
0.1923843 0.4894371 0.0000000
0.2215450 0.4894371 0.0000000
0.2564895 0.4894371 0.0000000
0.2988081 0.4894371 0.0000000
0.3503382 0.4894371 0.0000000
0.4131439 0.4894371 0.0000000
0.4894371 0.4894371 0.0000000
0.5896668 0.5007454 0.0000000
0.6780216 0.4978324 0.0000000
0.7527733 0.4880452 0.0000000
0.8148935 0.4771027 0.0000000
0.8661976 0.4681248 0.0000000
0.9085847 0.4621848 0.0000000
0.9437472 0.4591534 0.0000000
0.9730927 0.4583940 0.0000000
0.9977549 0.4591863 0.0000000
1.0186336 0.4609203 0.0000000
1.0364388 0.4631483 0.0000000
1.0517313 0.4655710 0.0000000
1.0649551 0.4680031 0.0000000
1.0764638 0.4703390 0.0000000
1.0865403 0.4725243 0.0000000
1.0954130 0.4745371 0.0000000
1.1032672 0.4763741 0.0000000
1.1102541 0.4780422 0.0000000
1.1164983 0.4795536 0.0000000
1.1221027 0.4809224 0.0000000
1.1271533 0.4821631 0.0000000
0.0000000 0.5896668 0.0000000
0.0591166 0.5896668 0.0000000
0.0820356 0.5896668 0.0000000
0.1013778 0.5896668 0.0000000
0.1198384 0.5896668 0.0000000
0.1386661 0.5896668 0.0000000
0.1587725 0.5896668 0.0000000
0.1810267 0.5896668 0.0000000
0.2063824 0.5896668 0.0000000
0.2359513 0.5896668 0.0000000
0.2710505 0.5896668 0.0000000
0.3132286 0.5896668 0.0000000
0.3642612 0.5896668 0.0000000
0.4261020 0.5896668 0.0000000
0.5007454 0.5896668 0.0000000
0.5896668 0.5896668 0.0000000
0.6780216 0.5800033 0.0000000
0.7527733 0.5615622 0.0000000
0.8148935 0.5418274 0.0000000
0.8661976 0.5250773 0.0000000
0.9085847 0.5129302 0.0000000
0.9437472 0.5053246 0.0000000
0.9730927 0.5014099 0.0000000
0.9977549 0.5001464 0.0000000
1.0186336 0.5006121 0.0000000
1.0364388 0.5021044 0.0000000
1.0517313 0.5041368 0.0000000
1.0649551 0.5063944 0.0000000
1.0764638 0.5086859 0.0000000
1.0865403 0.5109022 0.0000000
1.0954130 0.5129871 0.0000000
1.1032672 0.5149162 0.0000000
1.1102541 0.5166844 0.0000000
1.1164983 0.5182964 0.0000000
1.1221027 0.5197625 0.0000000
1.1271533 0.5210953 0.0000000
0.0000003 0.6780216 0.0000000
0.0635964 0.6780216 0.0000000
0.0881001 0.6780216 0.0000000
0.1086319 0.6780216 0.0000000
0.1280532 0.6780216 0.0000000
0.1476488 0.6780216 0.0000000
0.1683190 0.6780216 0.0000000
0.1908937 0.6780216 0.0000000
0.2162651 0.6780216 0.0000000
0.2454638 0.6780216 0.0000000
0.2797071 0.6780216 0.0000000
0.3204203 0.6780216 0.0000000
0.3692173 0.6780216 0.0000000
0.4278169 0.6780216 0.0000000
0.4978324 0.6780216 0.0000000
0.5800033 0.6780216 0.0000000
0.6780216 0.6780216 0.0000000
0.7527733 0.6475802 0.0000000
0.8148935 0.6153375 0.0000000
0.8661976 0.5871440 0.0000000
0.9085847 0.5654990 0.0000000
0.9437472 0.5506115 0.0000000
0.9730927 0.5414674 0.0000000
0.9977549 0.5366452 0.0000000
1.0186336 0.5347957 0.0000000
1.0364388 0.5348417 0.0000000
1.0517313 0.5360076 0.0000000
1.0649551 0.5377727 0.0000000
1.0764638 0.5398064 0.0000000
1.0865403 0.5419084 0.0000000
1.0954130 0.5439644 0.0000000
1.1032672 0.5459138 0.0000000
1.1102541 0.5477289 0.0000000
1.1164983 0.5494010 0.0000000
1.1221027 0.5509326 0.0000000
1.1271533 0.5523314 0.0000000
0.0000000 0.7527733 0.0000000
0.0671609 0.7527733 0.0000000
0.0929117 0.7527733 0.0000000
0.1143640 0.7527733 0.0000000
0.1345064 0.7527733 0.0000000
0.1546440 0.7527733 0.0000000
0.1756556 0.7527733 0.0000000
0.1983203 0.7527733 0.0000000
0.2234534 0.7527733 0.0000000
0.2519820 0.7527733 0.0000000
0.2849899 0.7527733 0.0000000
0.3237325 0.7527733 0.0000000
0.3696009 0.7527733 0.0000000
0.4239983 0.7527733 0.0000000
0.4880452 0.7527733 0.0000000
0.5615622 0.7527733 0.0000000
0.6475802 0.7527733 0.0000000
0.7527733 0.7527733 0.0000000
0.8148935 0.7039225 0.0000000
0.8661976 0.6599920 0.0000000
0.9085847 0.6247538 0.0000000
0.9437472 0.5990094 0.0000000
0.9730927 0.5817599 0.0000000
0.9977549 0.5712193 0.0000000
1.0186336 0.5655168 0.0000000
1.0364388 0.5630618 0.0000000
1.0517313 0.5626553 0.0000000
1.0649551 0.5634617 0.0000000
1.0764638 0.5649307 0.0000000
1.0865403 0.5667158 0.0000000
1.0954130 0.5686075 0.0000000
1.1032672 0.5704849 0.0000000
1.1102541 0.5722826 0.0000000
1.1164983 0.5739686 0.0000000
1.1221027 0.5755310 0.0000000
1.1271533 0.5769691 0.0000000
0.0000003 0.8148935 0.0000000
0.0700126 0.8148935 0.0000000
0.0967603 0.8148935 0.0000000
0.1189471 0.8148935 0.0000000
0.1396621 0.8148935 0.0000000
0.1602246 0.8148935 0.0000000
0.1814918 0.8148935 0.0000000
0.2041957 0.8148935 0.0000000
0.2290782 0.8148935 0.0000000
0.2569647 0.8148935 0.0000000
0.2888032 0.8148935 0.0000000
0.3256706 0.8148935 0.0000000
0.3687169 0.8148935 0.0000000
0.4190011 0.8148935 0.0000000
0.4771027 0.8148935 0.0000000
0.5418274 0.8148935 0.0000000
0.6153375 0.8148935 0.0000000
0.7039225 0.8148935 0.0000000
0.8148935 0.8148935 0.0000000
0.8661976 0.7505013 0.0000000
0.9085847 0.6968992 0.0000000
0.9437472 0.6558532 0.0000000
0.9730927 0.6266922 0.0000000
0.9977549 0.6074233 0.0000000
1.0186336 0.5956423 0.0000000
1.0364388 0.5891237 0.0000000
1.0517313 0.5860868 0.0000000
1.0649551 0.5852349 0.0000000
1.0764638 0.5856830 0.0000000
1.0865403 0.5868551 0.0000000
1.0954130 0.5883901 0.0000000
1.1032672 0.5900694 0.0000000
1.1102541 0.5917657 0.0000000
1.1164983 0.5934084 0.0000000
1.1221027 0.5949617 0.0000000
1.1271533 0.5964102 0.0000000
0.0000003 0.8661976 0.0000000
0.0723178 0.8661976 0.0000000
0.0998769 0.8661976 0.0000000
0.1226670 0.8661976 0.0000000
0.1438596 0.8661976 0.0000000
0.1647865 0.8661976 0.0000000
0.1862892 0.8661976 0.0000000
0.2090621 0.8661976 0.0000000
0.2337877 0.8661976 0.0000000
0.2612056 0.8661976 0.0000000
0.2921466 0.8661976 0.0000000
0.3275270 0.8661976 0.0000000
0.3682748 0.8661976 0.0000000
0.4151225 0.8661976 0.0000000
0.4681248 0.8661976 0.0000000
0.5250773 0.8661976 0.0000000
0.5871440 0.8661976 0.0000000
0.6599920 0.8661976 0.0000000
0.7505013 0.8661976 0.0000000
0.8661976 0.8661976 0.0000000
0.9085847 0.7889741 0.0000000
0.9437472 0.7274440 0.0000000
0.9730927 0.6816234 0.0000000
0.9977549 0.6496186 0.0000000
1.0186336 0.6286319 0.0000000
1.0364388 0.6157652 0.0000000
1.0517313 0.6085112 0.0000000
1.0649551 0.6049373 0.0000000
1.0764638 0.6036681 0.0000000
1.0865403 0.6037773 0.0000000
1.0954130 0.6046669 0.0000000
1.1032672 0.6059630 0.0000000
1.1102541 0.6074385 0.0000000
1.1164983 0.6089600 0.0000000
1.1221027 0.6104525 0.0000000
1.1271533 0.6118762 0.0000000
0.0000000 0.9085847 0.0000000
0.0742018 0.9085847 0.0000000
0.1024310 0.9085847 0.0000000
0.1257269 0.9085847 0.0000000
0.1473298 0.9085847 0.0000000
0.1685848 0.9085847 0.0000000
0.1903237 0.9085847 0.0000000
0.2132145 0.9085847 0.0000000
0.2378963 0.9085847 0.0000000
0.2650443 0.9085847 0.0000000
0.2953979 0.9085847 0.0000000
0.3297456 0.9085847 0.0000000
0.3688321 0.9085847 0.0000000
0.4131131 0.9085847 0.0000000
0.4621848 0.9085847 0.0000000
0.5129302 0.9085847 0.0000000
0.5654990 0.9085847 0.0000000
0.6247538 0.9085847 0.0000000
0.6968992 0.9085847 0.0000000
0.7889741 0.9085847 0.0000000
0.9085847 0.9085847 0.0000000
0.9437472 0.8208589 0.0000000
0.9730927 0.7528405 0.0000000
0.9977549 0.7030882 0.0000000
1.0186336 0.6687125 0.0000000
1.0364388 0.6462672 0.0000000
1.0517313 0.6324582 0.0000000
1.0649551 0.6245522 0.0000000
1.0764638 0.6204944 0.0000000
1.0865403 0.6188445 0.0000000
1.0954130 0.6186424 0.0000000
1.1032672 0.6192712 0.0000000
1.1102541 0.6203455 0.0000000
1.1164983 0.6216310 0.0000000
1.1221027 0.6229889 0.0000000
1.1271533 0.6243398 0.0000000
0.0000000 0.9437472 0.0000000
0.0757572 0.9437472 0.0000000
0.1045460 0.9437472 0.0000000
0.1282712 0.9437472 0.0000000
0.1502318 0.9437472 0.0000000
0.1717862 0.9437472 0.0000000
0.1937621 0.9437472 0.0000000
0.2168110 0.9437472 0.0000000
0.2415427 0.9437472 0.0000000
0.2685875 0.9437472 0.0000000
0.2986196 0.9437472 0.0000000
0.3323334 0.9437472 0.0000000
0.3703354 0.9437472 0.0000000
0.4128658 0.9437472 0.0000000
0.4591534 0.9437472 0.0000000
0.5053246 0.9437472 0.0000000
0.5506115 0.9437472 0.0000000
0.5990094 0.9437472 0.0000000
0.6558532 0.9437472 0.0000000
0.7274440 0.9437472 0.0000000
0.8208589 0.9437472 0.0000000
0.9437472 0.9437472 0.0000000
0.9730927 0.8474340 0.0000000
0.9977549 0.7740909 0.0000000
1.0186336 0.7210872 0.0000000
1.0364388 0.6847277 0.0000000
1.0517313 0.6610427 0.0000000
1.0649551 0.6464191 0.0000000
1.0764638 0.6379403 0.0000000
1.0865403 0.6334517 0.0000000
1.0954130 0.6314602 0.0000000
1.1032672 0.6309769 0.0000000
1.1102541 0.6313688 0.0000000
1.1164983 0.6322409 0.0000000
1.1221027 0.6333522 0.0000000
1.1271533 0.6345594 0.0000000
