LUTs/AgX_Formation.cube
TITLE "AgX_Formation"
# AgX Formation LUT
# This LUT expects input to be Log2 encoding from -10 stops to +15 stops
# But the end image formation will be from -10 to 6.5
# The image formed has 30% per-channel shifts
LUT_3D_SIZE 6
0.0000000 0.0000000 0.0000000
0.0901050 0.0000000 0.0000000
0.4894371 0.0000000 0.0000000
0.9437472 0.0000000 0.0000000
1.0764638 0.0000000 0.0000000
1.1271533 0.0000000 0.0000000
0.0000000 0.0901050 0.0000000
0.0901050 0.0901050 0.0000000
0.4894371 0.1676557 0.0000000
0.9437472 0.2168110 0.0000000
1.0764638 0.2319679 0.0000000
1.1271533 0.2381995 0.0000000
0.0000000 0.4894371 0.0000000
0.1676557 0.4894371 0.0000000
0.4894371 0.4894371 0.0000000
0.9437472 0.4591534 0.0000000
1.0764638 0.4703390 0.0000000
1.1271533 0.4821631 0.0000000
0.0000000 0.9437472 0.0000000
0.2168110 0.9437472 0.0000000
0.4591534 0.9437472 0.0000000
0.9437472 0.9437472 0.0000000
1.0764638 0.6379403 0.0000000
1.1271533 0.6345594 0.0000000
0.0000000 1.0764638 0.0000000
0.2319679 1.0764638 0.0000000
0.4703390 1.0764638 0.0000000
0.6379403 1.0764638 0.0000000
1.0764638 1.0764638 0.0000000
1.1271533 0.6904057 0.0000000
0.0000005 1.1271533 0.0000000
0.2381995 1.1271533 0.0000000
0.4821631 1.1271533 0.0000000
0.6345594 1.1271533 0.0000000
0.6904057 1.1271533 0.0000000
1.1271533 1.1271533 0.0000000
0.0000000 0.0000000 0.0901050
0.0901050 0.0000000 0.0901050
0.4894371 0.0000000 0.1676557
0.9437472 0.0000000 0.2168110
1.0764638 0.0000000 0.2319679
1.1271533 0.0000000 0.2381995
0.0000000 0.0901050 0.0901050
0.0901050 0.0901050 0.0901050
0.4894371 0.0901050 0.0901050
0.9437472 0.0901050 0.0901050
1.0764638 0.0901050 0.0901050
1.1271533 0.0901050 0.0901050
0.0000000 0.4894371 0.1676557
0.0901050 0.4894371 0.0901050
0.4894371 0.4894371 0.0901050
0.9437472 0.4449389 0.0901050
1.0764638 0.4516896 0.0901050
1.1271533 0.4620080 0.0901050
0.0000000 0.9437472 0.2168110
0.0901050 0.9437472 0.0901050
0.4449389 0.9437472 0.0901050
0.9437472 0.9437472 0.0901050
1.0764638 0.6365083 0.0901050
1.1271533 0.6319360 0.0901050
0.0000000 1.0764638 0.2319679
0.0901050 1.0764638 0.0901050
0.4516896 1.0764638 0.0901050
0.6365083 1.0764638 0.0901050
1.0764638 1.0764638 0.0901050
1.1271533 0.6908147 0.0901050
0.0000000 1.1271533 0.2381995
0.0901050 1.1271533 0.0901050
0.4620080 1.1271533 0.0901050
0.6319360 1.1271533 0.0901050
0.6908147 1.1271533 0.0901050
1.1271533 1.1271533 0.0901050
0.0000000 0.0000000 0.4894371
0.1676557 0.0000000 0.4894371
0.4894371 0.0000000 0.4894371
0.9437472 0.0000000 0.4591534
1.0764638 0.0000000 0.4703390
1.1271533 0.0000000 0.4821631
0.0000000 0.1676557 0.4894371
0.0901050 0.0901050 0.4894371
0.4894371 0.0901050 0.4894371
0.9437472 0.0901050 0.4449389
1.0764638 0.0901050 0.4516896
1.1271533 0.0901050 0.4620080
0.0000000 0.4894371 0.4894371
0.0901050 0.4894371 0.4894371
0.4894371 0.4894371 0.4894371
0.9437472 0.4894371 0.4894371
1.0764638 0.4894371 0.4894371
1.1271533 0.4894371 0.4894371
0.0000000 0.9437472 0.4591534
0.0901050 0.9437472 0.4449389
0.4894371 0.9437472 0.4894371
0.9437472 0.9437472 0.4894371
1.0764638 0.7081320 0.4894371
1.1271533 0.7015676 0.4894371
0.0000000 1.0764638 0.4703390
0.0901050 1.0764638 0.4516896
0.4894371 1.0764638 0.4894371
0.7081320 1.0764638 0.4894371
1.0764638 1.0764638 0.4894371
1.1271533 0.7636518 0.4894371
0.0000000 1.1271533 0.4821631
0.0901050 1.1271533 0.4620080
0.4894371 1.1271533 0.4894371
0.7015676 1.1271533 0.4894371
0.7636518 1.1271533 0.4894371
1.1271533 1.1271533 0.4894371
0.0000000 0.0000000 0.9437472
0.2168110 0.0000000 0.9437472
0.4591534 0.0000000 0.9437472
0.9437472 0.0000000 0.9437472
1.0764638 0.0000000 0.6379403
1.1271533 0.0000000 0.6345594
0.0000000 0.2168110 0.9437472
0.0901050 0.0901050 0.9437472
0.4449389 0.0901050 0.9437472
0.9437472 0.0901050 0.9437472
1.0764638 0.0901050 0.6365083
1.1271533 0.0901050 0.6319360
0.0000000 0.4591534 0.9437472
0.0901050 0.4449389 0.9437472
0.4894371 0.4894371 0.9437472
0.9437472 0.4894371 0.9437472
1.0764638 0.4894371 0.7081320
1.1271533 0.4894371 0.7015676
0.0000000 0.9437472 0.9437472
0.0901050 0.9437472 0.9437472
0.4894371 0.9437472 0.9437472
0.9437472 0.9437472 0.9437472
1.0764638 0.9437472 0.9437472
1.1271533 0.9437472 0.9437472
0.0000000 1.0764638 0.6379403
0.0901050 1.0764638 0.6365083
0.4894371 1.0764638 0.7081320
0.9437472 1.0764638 0.9437472
1.0764638 1.0764638 0.9437472
1.1271533 0.9918221 0.9437472
0.0000000 1.1271533 0.6345594
0.0901050 1.1271533 0.6319360
0.4894371 1.1271533 0.7015676
0.9437472 1.1271533 0.9437472
0.9918221 1.1271533 0.9437472
1.1271533 1.1271533 0.9437472
0.0000000 0.0000000 1.0764638
0.2319679 0.0000000 1.0764638
0.4703390 0.0000000 1.0764638
0.6379403 0.0000000 1.0764638
1.0764638 0.0000000 1.0764638
1.1271533 0.0000000 0.6904057
0.0000000 0.2319679 1.0764638
0.0901050 0.0901050 1.0764638
0.4516896 0.0901050 1.0764638
0.6365083 0.0901050 1.0764638
1.0764638 0.0901050 1.0764638
1.1271533 0.0901050 0.6908147
0.0000000 0.4703390 1.0764638
0.0901050 0.4516896 1.0764638
0.4894371 0.4894371 1.0764638
0.7081320 0.4894371 1.0764638
1.0764638 0.4894371 1.0764638
1.1271533 0.4894371 0.7636518
0.0000000 0.6379403 1.0764638
0.0901050 0.6365083 1.0764638
0.4894371 0.7081320 1.0764638
0.9437472 0.9437472 1.0764638
1.0764638 0.9437472 1.0764638
1.1271533 0.9437472 0.9918221
0.0000000 1.0764638 1.0764638
0.0901050 1.0764638 1.0764638
0.4894371 1.0764638 1.0764638
0.9437472 1.0764638 1.0764638
1.0764638 1.0764638 1.0764638
1.1271533 1.0764638 1.0764638
0.0000000 1.1271533 0.6904057
0.0901050 1.1271533 0.6908147
0.4894371 1.1271533 0.7636518
0.9437472 1.1271533 0.9918221
1.0764638 1.1271533 1.0764638
1.1271533 1.1271533 1.0764638
0.0000000 0.0000000 1.1271533
0.2381995 0.0000000 1.1271533
0.4821631 0.0000000 1.1271533
0.6345594 0.0000000 1.1271533
0.6904057 0.0000000 1.1271533
1.1271533 0.0000000 1.1271533
0.0000000 0.2381995 1.1271533
0.0901050 0.0901050 1.1271533
0.4620080 0.0901050 1.1271533
0.6319360 0.0901050 1.1271533
0.6908147 0.0901050 1.1271533
1.1271533 0.0901050 1.1271533
0.0000000 0.4821631 1.1271533
0.0901050 0.4620080 1.1271533
0.4894371 0.4894371 1.1271533
0.7015676 0.4894371 1.1271533
0.7636518 0.4894371 1.1271533
1.1271533 0.4894371 1.1271533
0.0000000 0.6345594 1.1271533
0.0901050 0.6319360 1.1271533
0.4894371 0.7015676 1.1271533
0.9437472 0.9437472 1.1271533
0.9918221 0.9437472 1.1271533
1.1271533 0.9437472 1.1271533
0.0000000 0.6904057 1.1271533
0.0901050 0.6908147 1.1271533
0.4894371 0.7636518 1.1271533
0.9437472 0.9918221 1.1271533
1.0764638 1.0764638 1.1271533
1.1271533 1.0764638 1.1271533
0.0000000 1.1271533 1.1271533
0.0901050 1.1271533 1.1271533
0.4894371 1.1271533 1.1271533
0.9437472 1.1271533 1.1271533
1.0764638 1.1271533 1.1271533
1.1271533 1.1271533 1.1271533
