LUTs/AgX_Formation.cube
TITLE "AgX_Formation"
# AgX Formation LUT
# This LUT expects input to be Log2 encoding from -10 stops to +15 stops
# But the end image formation will be from -10 to 6.5
# The image formed has 30% per-channel shifts
LUT_3D_SIZE 8
0.0000000 0.0000000 0.0000000
0.0519977 0.0000000 0.0000000
0.1893460 0.0000000 0.0000000
0.5896668 0.0000000 0.0000000
0.9085847 0.0000000 0.0000000
1.0364388 0.0000000 0.0000000
1.0954130 0.0000000 0.0000000
1.1271533 0.0000000 0.0000000
0.0000000 0.0519977 0.0000000
0.0519977 0.0519977 0.0000000
0.1893460 0.0826340 0.0000000
0.5896668 0.1386661 0.0000000
0.9085847 0.1685848 0.0000000
1.0364388 0.1805426 0.0000000
1.0954130 0.1863153 0.0000000
1.1271533 0.1894321 0.0000000
0.0000000 0.1893460 0.0000000
0.0826340 0.1893460 0.0000000
0.1893460 0.1893460 0.0000000
0.5896668 0.2710505 0.0000000
0.9085847 0.2953979 0.0000000
1.0364388 0.3100406 0.0000000
1.0954130 0.3193001 0.0000000
1.1271533 0.3245821 0.0000000
0.0000000 0.5896668 0.0000000
0.1386661 0.5896668 0.0000000
0.2710505 0.5896668 0.0000000
0.5896668 0.5896668 0.0000000
0.9085847 0.5129302 0.0000000
1.0364388 0.5021044 0.0000000
1.0954130 0.5129871 0.0000000
1.1271533 0.5210953 0.0000000
0.0000000 0.9085847 0.0000000
0.1685848 0.9085847 0.0000000
0.2953979 0.9085847 0.0000000
0.5129302 0.9085847 0.0000000
0.9085847 0.9085847 0.0000000
1.0364388 0.6462672 0.0000000
1.0954130 0.6186424 0.0000000
1.1271533 0.6243398 0.0000000
0.0000000 1.0364388 0.0000000
0.1805426 1.0364388 0.0000000
0.3100406 1.0364388 0.0000000
0.5021044 1.0364388 0.0000000
0.6462672 1.0364388 0.0000000
1.0364388 1.0364388 0.0000000
1.0954130 0.7011466 0.0000000
1.1271533 0.6639787 0.0000000
0.0000004 1.0954130 0.0000000
0.1863153 1.0954130 0.0000000
0.3193001 1.0954130 0.0000000
0.5129871 1.0954130 0.0000000
0.6186424 1.0954130 0.0000000
0.7011466 1.0954130 0.0000000
1.0954130 1.0954130 0.0000000
1.1271533 0.7281758 0.0000000
0.0000005 1.1271533 0.0000000
0.1894321 1.1271533 0.0000000
0.3245821 1.1271533 0.0000000
0.5210953 1.1271533 0.0000000
0.6243398 1.1271533 0.0000000
0.6639787 1.1271533 0.0000000
0.7281758 1.1271533 0.0000000
1.1271533 1.1271533 0.0000000
0.0000000 0.0000000 0.0519977
0.0519977 0.0000000 0.0519977
0.1893460 0.0000000 0.0826340
0.5896668 0.0000000 0.1386661
0.9085847 0.0000000 0.1685848
1.0364388 0.0000000 0.1805426
1.0954130 0.0000000 0.1863153
1.1271533 0.0000000 0.1894321
0.0000000 0.0519977 0.0519977
0.0519977 0.0519977 0.0519977
0.1893460 0.0519977 0.0519977
0.5896668 0.0519977 0.0519977
0.9085847 0.0519977 0.0519977
1.0364388 0.0519977 0.0519977
1.0954130 0.0519977 0.0519977
1.1271533 0.0519977 0.0519977
0.0000000 0.1893460 0.0826340
0.0519977 0.1893460 0.0519977
0.1893460 0.1893460 0.0519977
0.5896668 0.2548207 0.0519977
0.9085847 0.2685057 0.0519977
1.0364388 0.2792614 0.0519977
1.0954130 0.2869675 0.0519977
1.1271533 0.2914590 0.0519977
0.0000000 0.5896668 0.1386661
0.0519977 0.5896668 0.0519977
0.2548207 0.5896668 0.0519977
0.5896668 0.5896668 0.0519977
0.9085847 0.5078747 0.0519977
1.0364388 0.4946046 0.0519977
1.0954130 0.5045163 0.0519977
1.1271533 0.5121492 0.0519977
0.0000000 0.9085847 0.1685848
0.0519977 0.9085847 0.0519977
0.2685057 0.9085847 0.0519977
0.5078747 0.9085847 0.0519977
0.9085847 0.9085847 0.0519977
1.0364388 0.6450383 0.0519977
1.0954130 0.6165513 0.0519977
1.1271533 0.6218189 0.0519977
0.0000000 1.0364388 0.1805426
0.0519977 1.0364388 0.0519977
0.2792614 1.0364388 0.0519977
0.4946046 1.0364388 0.0519977
0.6450383 1.0364388 0.0519977
1.0364388 1.0364388 0.0519977
1.0954130 0.7008318 0.0519977
1.1271533 0.6632688 0.0519977
0.0000000 1.0954130 0.1863153
0.0519977 1.0954130 0.0519977
0.2869675 1.0954130 0.0519977
0.5045163 1.0954130 0.0519977
0.6165513 1.0954130 0.0519977
0.7008318 1.0954130 0.0519977
1.0954130 1.0954130 0.0519977
1.1271533 0.7281717 0.0519977
0.0000000 1.1271533 0.1894321
0.0519977 1.1271533 0.0519977
0.2914590 1.1271533 0.0519977
0.5121492 1.1271533 0.0519977
0.6218189 1.1271533 0.0519977
0.6632688 1.1271533 0.0519977
0.7281717 1.1271533 0.0519977
1.1271533 1.1271533 0.0519977
0.0000000 0.0000000 0.1893460
0.0826340 0.0000000 0.1893460
0.1893460 0.0000000 0.1893460
0.5896668 0.0000000 0.2710505
0.9085847 0.0000000 0.2953979
1.0364388 0.0000000 0.3100406
1.0954130 0.0000000 0.3193001
1.1271533 0.0000000 0.3245821
0.0000000 0.0826340 0.1893460
0.0519977 0.0519977 0.1893460
0.1893460 0.0519977 0.1893460
0.5896668 0.0519977 0.2548207
0.9085847 0.0519977 0.2685057
1.0364388 0.0519977 0.2792614
1.0954130 0.0519977 0.2869675
1.1271533 0.0519977 0.2914590
0.0000000 0.1893460 0.1893460
0.0519977 0.1893460 0.1893460
0.1893460 0.1893460 0.1893460
0.5896668 0.1893460 0.1893460
0.9085847 0.1893460 0.1893460
1.0364388 0.1893460 0.1893460
1.0954130 0.1893460 0.1893460
1.1271533 0.1893460 0.1893460
0.0000000 0.5896668 0.2710505
0.0519977 0.5896668 0.2548207
0.1893460 0.5896668 0.1893460
0.5896668 0.5896668 0.1893460
0.9085847 0.5007605 0.1893460
1.0364388 0.4839178 0.1893460
1.0954130 0.4910224 0.1893460
1.1271533 0.4970413 0.1893460
0.0000000 0.9085847 0.2953979
0.0519977 0.9085847 0.2685057
0.1893460 0.9085847 0.1893460
0.5007605 0.9085847 0.1893460
0.9085847 0.9085847 0.1893460
1.0364388 0.6487379 0.1893460
1.0954130 0.6191296 0.1893460
1.1271533 0.6231460 0.1893460
0.0000000 1.0364388 0.3100406
0.0519977 1.0364388 0.2792614
0.1893460 1.0364388 0.1893460
0.4839178 1.0364388 0.1893460
0.6487379 1.0364388 0.1893460
1.0364388 1.0364388 0.1893460
1.0954130 0.7065512 0.1893460
1.1271533 0.6690085 0.1893460
0.0000000 1.0954130 0.3193001
0.0519977 1.0954130 0.2869675
0.1893460 1.0954130 0.1893460
0.4910224 1.0954130 0.1893460
0.6191296 1.0954130 0.1893460
0.7065512 1.0954130 0.1893460
1.0954130 1.0954130 0.1893460
1.1271533 0.7344541 0.1893460
0.0000000 1.1271533 0.3245821
0.0519977 1.1271533 0.2914590
0.1893460 1.1271533 0.1893460
0.4970413 1.1271533 0.1893460
0.6231460 1.1271533 0.1893460
0.6690085 1.1271533 0.1893460
0.7344541 1.1271533 0.1893460
1.1271533 1.1271533 0.1893460
0.0000000 0.0000000 0.5896668
0.1386661 0.0000000 0.5896668
0.2710505 0.0000000 0.5896668
0.5896668 0.0000000 0.5896668
0.9085847 0.0000000 0.5129302
1.0364388 0.0000000 0.5021044
1.0954130 0.0000000 0.5129871
1.1271533 0.0000000 0.5210953
0.0000000 0.1386661 0.5896668
0.0519977 0.0519977 0.5896668
0.2548207 0.0519977 0.5896668
0.5896668 0.0519977 0.5896668
0.9085847 0.0519977 0.5078747
1.0364388 0.0519977 0.4946046
1.0954130 0.0519977 0.5045163
1.1271533 0.0519977 0.5121492
0.0000000 0.2710505 0.5896668
0.0519977 0.2548207 0.5896668
0.1893460 0.1893460 0.5896668
0.5896668 0.1893460 0.5896668
0.9085847 0.1893460 0.5007605
1.0364388 0.1893460 0.4839178
1.0954130 0.1893460 0.4910224
1.1271533 0.1893460 0.4970413
0.0000000 0.5896668 0.5896668
0.0519977 0.5896668 0.5896668
0.1893460 0.5896668 0.5896668
0.5896668 0.5896668 0.5896668
0.9085847 0.5896668 0.5896668
1.0364388 0.5896668 0.5896668
1.0954130 0.5896668 0.5896668
1.1271533 0.5896668 0.5896668
0.0000000 0.9085847 0.5129302
0.0519977 0.9085847 0.5078747
0.1893460 0.9085847 0.5007605
0.5896668 0.9085847 0.5896668
0.9085847 0.9085847 0.5896668
1.0364388 0.7481908 0.5896668
1.0954130 0.7288110 0.5896668
1.1271533 0.7294534 0.5896668
0.0000000 1.0364388 0.5021044
0.0519977 1.0364388 0.4946046
0.1893460 1.0364388 0.4839178
0.5896668 1.0364388 0.5896668
0.7481908 1.0364388 0.5896668
1.0364388 1.0364388 0.5896668
1.0954130 0.8043574 0.5896668
1.1271533 0.7788030 0.5896668
0.0000000 1.0954130 0.5129871
0.0519977 1.0954130 0.5045163
0.1893460 1.0954130 0.4910224
0.5896668 1.0954130 0.5896668
0.7288110 1.0954130 0.5896668
0.8043574 1.0954130 0.5896668
1.0954130 1.0954130 0.5896668
1.1271533 0.8303774 0.5896668
0.0000000 1.1271533 0.5210953
0.0519977 1.1271533 0.5121492
0.1893460 1.1271533 0.4970413
0.5896668 1.1271533 0.5896668
0.7294534 1.1271533 0.5896668
0.7788030 1.1271533 0.5896668
0.8303774 1.1271533 0.5896668
1.1271533 1.1271533 0.5896668
0.0000000 0.0000000 0.9085847
0.1685848 0.0000000 0.9085847
0.2953979 0.0000000 0.9085847
0.5129302 0.0000000 0.9085847
0.9085847 0.0000000 0.9085847
1.0364388 0.0000000 0.6462672
1.0954130 0.0000000 0.6186424
1.1271533 0.0000000 0.6243398
0.0000000 0.1685848 0.9085847
0.0519977 0.0519977 0.9085847
0.2685057 0.0519977 0.9085847
0.5078747 0.0519977 0.9085847
0.9085847 0.0519977 0.9085847
1.0364388 0.0519977 0.6450383
1.0954130 0.0519977 0.6165513
1.1271533 0.0519977 0.6218189
0.0000000 0.2953979 0.9085847
0.0519977 0.2685057 0.9085847
0.1893460 0.1893460 0.9085847
0.5007605 0.1893460 0.9085847
0.9085847 0.1893460 0.9085847
1.0364388 0.1893460 0.6487379
1.0954130 0.1893460 0.6191296
1.1271533 0.1893460 0.6231460
0.0000000 0.5129302 0.9085847
0.0519977 0.5078747 0.9085847
0.1893460 0.5007605 0.9085847
0.5896668 0.5896668 0.9085847
0.9085847 0.5896668 0.9085847
1.0364388 0.5896668 0.7481908
1.0954130 0.5896668 0.7288110
1.1271533 0.5896668 0.7294534
0.0000000 0.9085847 0.9085847
0.0519977 0.9085847 0.9085847
0.1893460 0.9085847 0.9085847
0.5896668 0.9085847 0.9085847
0.9085847 0.9085847 0.9085847
1.0364388 0.9085847 0.9085847
1.0954130 0.9085847 0.9085847
1.1271533 0.9085847 0.9085847
0.0000000 1.0364388 0.6462672
0.0519977 1.0364388 0.6450383
0.1893460 1.0364388 0.6487379
0.5896668 1.0364388 0.7481908
0.9085847 1.0364388 0.9085847
1.0364388 1.0364388 0.9085847
1.0954130 0.9620374 0.9085847
1.1271533 0.9532195 0.9085847
0.0000000 1.0954130 0.6186424
0.0519977 1.0954130 0.6165513
0.1893460 1.0954130 0.6191296
0.5896668 1.0954130 0.7288110
0.9085847 1.0954130 0.9085847
0.9620374 1.0954130 0.9085847
1.0954130 1.0954130 0.9085847
1.1271533 0.9848408 0.9085847
0.0000000 1.1271533 0.6243398
0.0519977 1.1271533 0.6218189
0.1893460 1.1271533 0.6231460
0.5896668 1.1271533 0.7294534
0.9085847 1.1271533 0.9085847
0.9532195 1.1271533 0.9085847
0.9848408 1.1271533 0.9085847
1.1271533 1.1271533 0.9085847
0.0000000 0.0000000 1.0364388
0.1805426 0.0000000 1.0364388
0.3100406 0.0000000 1.0364388
0.5021044 0.0000000 1.0364388
0.6462672 0.0000000 1.0364388
1.0364388 0.0000000 1.0364388
1.0954130 0.0000000 0.7011466
1.1271533 0.0000000 0.6639787
0.0000000 0.1805426 1.0364388
0.0519977 0.0519977 1.0364388
0.2792614 0.0519977 1.0364388
0.4946046 0.0519977 1.0364388
0.6450383 0.0519977 1.0364388
1.0364388 0.0519977 1.0364388
1.0954130 0.0519977 0.7008318
1.1271533 0.0519977 0.6632688
0.0000000 0.3100406 1.0364388
0.0519977 0.2792614 1.0364388
0.1893460 0.1893460 1.0364388
0.4839178 0.1893460 1.0364388
0.6487379 0.1893460 1.0364388
1.0364388 0.1893460 1.0364388
1.0954130 0.1893460 0.7065512
1.1271533 0.1893460 0.6690085
0.0000000 0.5021044 1.0364388
0.0519977 0.4946046 1.0364388
0.1893460 0.4839178 1.0364388
0.5896668 0.5896668 1.0364388
0.7481908 0.5896668 1.0364388
1.0364388 0.5896668 1.0364388
1.0954130 0.5896668 0.8043574
1.1271533 0.5896668 0.7788030
0.0000000 0.6462672 1.0364388
0.0519977 0.6450383 1.0364388
0.1893460 0.6487379 1.0364388
0.5896668 0.7481908 1.0364388
0.9085847 0.9085847 1.0364388
1.0364388 0.9085847 1.0364388
1.0954130 0.9085847 0.9620374
1.1271533 0.9085847 0.9532195
0.0000000 1.0364388 1.0364388
0.0519977 1.0364388 1.0364388
0.1893460 1.0364388 1.0364388
0.5896668 1.0364388 1.0364388
0.9085847 1.0364388 1.0364388
1.0364388 1.0364388 1.0364388
1.0954130 1.0364388 1.0364388
1.1271533 1.0364388 1.0364388
0.0000000 1.0954130 0.7011466
0.0519977 1.0954130 0.7008318
0.1893460 1.0954130 0.7065512
0.5896668 1.0954130 0.8043574
0.9085847 1.0954130 0.9620374
1.0364388 1.0954130 1.0364388
1.0954130 1.0954130 1.0364388
1.1271533 1.0600813 1.0364388
0.0000000 1.1271533 0.6639787
0.0519977 1.1271533 0.6632688
0.1893460 1.1271533 0.6690085
0.5896668 1.1271533 0.7788030
0.9085847 1.1271533 0.9532195
1.0364388 1.1271533 1.0364388
1.0600813 1.1271533 1.0364388
1.1271533 1.1271533 1.0364388
0.0000000 0.0000000 1.0954130
0.1863153 0.0000000 1.0954130
0.3193001 0.0000000 1.0954130
0.5129871 0.0000000 1.0954130
0.6186424 0.0000000 1.0954130
0.7011466 0.0000000 1.0954130
1.0954130 0.0000000 1.0954130
1.1271533 0.0000000 0.7281758
0.0000000 0.1863153 1.0954130
0.0519977 0.0519977 1.0954130
0.2869675 0.0519977 1.0954130
0.5045163 0.0519977 1.0954130
0.6165513 0.0519977 1.0954130
0.7008318 0.0519977 1.0954130
1.0954130 0.0519977 1.0954130
1.1271533 0.0519977 0.7281717
0.0000000 0.3193001 1.0954130
0.0519977 0.2869675 1.0954130
0.1893460 0.1893460 1.0954130
0.4910224 0.1893460 1.0954130
0.6191296 0.1893460 1.0954130
0.7065512 0.1893460 1.0954130
1.0954130 0.1893460 1.0954130
1.1271533 0.1893460 0.7344541
0.0000000 0.5129871 1.0954130
0.0519977 0.5045163 1.0954130
0.1893460 0.4910224 1.0954130
0.5896668 0.5896668 1.0954130
0.7288110 0.5896668 1.0954130
0.8043574 0.5896668 1.0954130
1.0954130 0.5896668 1.0954130
1.1271533 0.5896668 0.8303774
0.0000000 0.6186424 1.0954130
0.0519977 0.6165513 1.0954130
0.1893460 0.6191296 1.0954130
0.5896668 0.7288110 1.0954130
0.9085847 0.9085847 1.0954130
0.9620374 0.9085847 1.0954130
1.0954130 0.9085847 1.0954130
1.1271533 0.9085847 0.9848408
0.0000000 0.7011466 1.0954130
0.0519977 0.7008318 1.0954130
0.1893460 0.7065512 1.0954130
0.5896668 0.8043574 1.0954130
0.9085847 0.9620374 1.0954130
1.0364388 1.0364388 1.0954130
1.0954130 1.0364388 1.0954130
1.1271533 1.0364388 1.0600813
0.0000000 1.0954130 1.0954130
0.0519977 1.0954130 1.0954130
0.1893460 1.0954130 1.0954130
0.5896668 1.0954130 1.0954130
0.9085847 1.0954130 1.0954130
1.0364388 1.0954130 1.0954130
1.0954130 1.0954130 1.0954130
1.1271533 1.0954130 1.0954130
0.0000000 1.1271533 0.7281758
0.0519977 1.1271533 0.7281717
0.1893460 1.1271533 0.7344541
0.5896668 1.1271533 0.8303774
0.9085847 1.1271533 0.9848408
1.0364388 1.1271533 1.0600813
1.0954130 1.1271533 1.0954130
1.1271533 1.1271533 1.0954130
0.0000000 0.0000000 1.1271533
0.1894321 0.0000000 1.1271533
0.3245821 0.0000000 1.1271533
0.5210953 0.0000000 1.1271533
0.6243398 0.0000000 1.1271533
0.6639787 0.0000000 1.1271533
0.7281758 0.0000000 1.1271533
1.1271533 0.0000000 1.1271533
0.0000000 0.1894321 1.1271533
0.0519977 0.0519977 1.1271533
0.2914590 0.0519977 1.1271533
0.5121492 0.0519977 1.1271533
0.6218189 0.0519977 1.1271533
0.6632688 0.0519977 1.1271533
0.7281717 0.0519977 1.1271533
1.1271533 0.0519977 1.1271533
0.0000000 0.3245821 1.1271533
0.0519977 0.2914590 1.1271533
0.1893460 0.1893460 1.1271533
0.4970413 0.1893460 1.1271533
0.6231460 0.1893460 1.1271533
0.6690085 0.1893460 1.1271533
0.7344541 0.1893460 1.1271533
1.1271533 0.1893460 1.1271533
0.0000000 0.5210953 1.1271533
0.0519977 0.5121492 1.1271533
0.1893460 0.4970413 1.1271533
0.5896668 0.5896668 1.1271533
0.7294534 0.5896668 1.1271533
0.7788030 0.5896668 1.1271533
0.8303774 0.5896668 1.1271533
1.1271533 0.5896668 1.1271533
0.0000000 0.6243398 1.1271533
0.0519977 0.6218189 1.1271533
0.1893460 0.6231460 1.1271533
0.5896668 0.7294534 1.1271533
0.9085847 0.9085847 1.1271533
0.9532195 0.9085847 1.1271533
0.9848408 0.9085847 1.1271533
1.1271533 0.9085847 1.1271533
0.0000000 0.6639787 1.1271533
0.0519977 0.6632688 1.1271533
0.1893460 0.6690085 1.1271533
0.5896668 0.7788030 1.1271533
0.9085847 0.9532195 1.1271533
1.0364388 1.0364388 1.1271533
1.0600813 1.0364388 1.1271533
1.1271533 1.0364388 1.1271533
0.0000000 0.7281758 1.1271533
0.0519977 0.7281717 1.1271533
0.1893460 0.7344541 1.1271533
0.5896668 0.8303774 1.1271533
0.9085847 0.9848408 1.1271533
1.0364388 1.0600813 1.1271533
1.0954130 1.0954130 1.1271533
1.1271533 1.0954130 1.1271533
0.0000000 1.1271533 1.1271533
0.0519977 1.1271533 1.1271533
0.1893460 1.1271533 1.1271533
0.5896668 1.1271533 1.1271533
0.9085847 1.1271533 1.1271533
1.0364388 1.1271533 1.1271533
1.0954130 1.1271533 1.1271533
1.1271533 1.1271533 1.1271533
