LUTs/guard_rail_bt2020.cube
TITLE "Guard Rail BT.2020"
# Guard Rail Formation for BT.2020 medium.
# The Guard Rail is designed to leaves valid value as-is, and only touch out of domain valuesModified from python script shared by Sakari Kapanen
# This LUT assumes E Gamut encoded in Power 0.4, then Log2 (-10 stop to +6.5 stop), then Power 1.2
# LUT resolution 45
LUT_3D_SIZE 45
0.0000000 0.0000000 0.0000000
0.0227273 0.0000000 0.0000000
0.0454545 0.0000000 0.0000000
0.0676132 0.0098092 0.0098081
0.0899215 0.0272106 0.0272085
0.1124367 0.0461905 0.0461878
0.1350468 0.0659926 0.0659896
0.1577021 0.0863023 0.0862991
0.1803801 0.1069574 0.1069540
0.2030701 0.1278636 0.1278601
0.2257668 0.1489616 0.1489580
0.2484678 0.1702113 0.1702076
0.2711715 0.1915845 0.1915807
0.2938773 0.2130603 0.2130565
0.3165846 0.2346232 0.2346192
0.3392932 0.2562606 0.2562566
0.3620029 0.2779629 0.2779589
0.3847135 0.2997222 0.2997181
0.4074250 0.3215319 0.3215278
0.4301371 0.3433867 0.3433825
0.4528499 0.3652818 0.3652776
0.4755633 0.3872135 0.3872093
0.4982773 0.4091784 0.4091741
0.5209917 0.4311736 0.4311693
0.5437066 0.4531966 0.4531923
0.5664220 0.4752452 0.4752408
0.5891377 0.4973174 0.4973130
0.6118538 0.5194115 0.5194070
0.6345702 0.5415259 0.5415214
0.6572869 0.5636593 0.5636548
0.6800040 0.5858105 0.5858059
0.7027213 0.6079782 0.6079736
0.7109221 0.6548405 0.6548359
0.7120903 0.6825703 0.6825656
0.7131113 0.6973674 0.6973627
0.7138457 0.7055546 0.7055499
0.7143038 0.7099870 0.7099823
0.7145651 0.7123319 0.7123272
0.7147068 0.7135543 0.7135496
0.7147817 0.7141871 0.7141824
0.7148207 0.7145137 0.7145090
0.7148410 0.7146823 0.7146775
0.7148515 0.7147694 0.7147647
0.7148570 0.7148145 0.7148098
0.7148598 0.7148379 0.7148332
0.0000000 0.0227273 0.0000000
0.0227273 0.0227273 0.0000000
0.0454548 0.0227308 0.0000031
0.0679144 0.0281322 0.0121125
0.0901750 0.0380413 0.0284909
0.1125832 0.0520579 0.0468460
0.1351233 0.0690340 0.0663201
0.1577408 0.0878505 0.0864645
0.1803996 0.1077423 0.1070372
0.2030799 0.1282627 0.1279022
0.2257718 0.1491656 0.1489795
0.2484703 0.1703163 0.1702186
0.2711728 0.1916389 0.1915864
0.2938780 0.2130888 0.2130595
0.3165850 0.2346381 0.2346208
0.3392934 0.2562685 0.2562575
0.3620030 0.2779671 0.2779593
0.3847136 0.2997245 0.2997184
0.4074250 0.3215331 0.3215279
0.4301371 0.3433873 0.3433826
0.4528500 0.3652822 0.3652776
0.4755634 0.3872137 0.3872093
0.4982773 0.4091785 0.4091742
0.5209917 0.4311737 0.4311693
0.5437066 0.4531967 0.4531923
0.5664220 0.4752452 0.4752408
0.5891377 0.4973174 0.4973130
0.6118538 0.5194115 0.5194070
0.6345702 0.5415259 0.5415214
0.6572869 0.5636593 0.5636548
0.6800040 0.5858105 0.5858059
0.7027213 0.6079782 0.6079736
0.7109221 0.6548405 0.6548359
0.7120903 0.6825703 0.6825656
0.7131113 0.6973674 0.6973627
0.7138457 0.7055546 0.7055499
0.7143038 0.7099870 0.7099823
0.7145651 0.7123319 0.7123272
0.7147068 0.7135543 0.7135496
0.7147817 0.7141871 0.7141824
0.7148207 0.7145137 0.7145090
0.7148410 0.7146823 0.7146775
0.7148515 0.7147694 0.7147647
0.7148570 0.7148145 0.7148098
0.7148598 0.7148379 0.7148332
0.0000000 0.0454545 0.0000000
0.0228286 0.0454771 0.0001493
0.0462187 0.0462187 0.0060743
0.0685757 0.0483799 0.0167132
0.0906726 0.0533009 0.0311607
0.1128869 0.0620972 0.0482705
0.1352887 0.0749475 0.0670516
0.1578265 0.0910907 0.0868351
0.1804431 0.1094506 0.1072246
0.2031020 0.1291486 0.1279974
0.2257831 0.1496232 0.1490281
0.2484761 0.1705531 0.1702437
0.2711758 0.1917620 0.1915994
0.2938795 0.2131531 0.2130663
0.3165858 0.2346719 0.2346244
0.3392939 0.2562864 0.2562593
0.3620033 0.2779767 0.2779603
0.3847137 0.2997296 0.2997189
0.4074251 0.3215359 0.3215282
0.4301372 0.3433888 0.3433827
0.4528500 0.3652830 0.3652777
0.4755634 0.3872142 0.3872093
0.4982773 0.4091788 0.4091742
0.5209917 0.4311738 0.4311693
0.5437066 0.4531968 0.4531923
0.5664220 0.4752453 0.4752408
0.5891377 0.4973174 0.4973130
0.6118538 0.5194115 0.5194070
0.6345702 0.5415259 0.5415214
0.6572869 0.5636593 0.5636548
0.6800040 0.5858105 0.5858059
0.7027213 0.6079782 0.6079736
0.7109221 0.6548405 0.6548359
0.7120903 0.6825703 0.6825656
0.7131113 0.6973674 0.6973627
0.7138457 0.7055546 0.7055499
0.7143038 0.7099870 0.7099823
0.7145651 0.7123319 0.7123272
0.7147068 0.7135543 0.7135496
0.7147817 0.7141871 0.7141824
0.7148207 0.7145137 0.7145090
0.7148410 0.7146823 0.7146775
0.7148515 0.7147694 0.7147647
0.7148570 0.7148145 0.7148098
0.7148598 0.7148379 0.7148332
0.0111775 0.0686050 0.0111764
0.0291014 0.0687441 0.0132557
0.0489267 0.0690953 0.0174217
0.0700096 0.0700096 0.0249266
0.0915945 0.0722327 0.0363348
0.1134752 0.0769170 0.0512224
0.1356311 0.0851697 0.0686343
0.1580118 0.0973814 0.0876562
0.1805398 0.1130166 0.1076451
0.2031516 0.1310750 0.1282122
0.2258085 0.1506397 0.1491382
0.2484892 0.1710849 0.1703004
0.2711826 0.1920400 0.1916288
0.2938830 0.2132989 0.2130816
0.3165876 0.2347487 0.2346325
0.3392948 0.2563271 0.2562636
0.3620038 0.2779983 0.2779626
0.3847140 0.2997412 0.2997201
0.4074252 0.3215421 0.3215289
0.4301373 0.3433922 0.3433831
0.4528500 0.3652848 0.3652779
0.4755634 0.3872152 0.3872094
0.4982773 0.4091793 0.4091742
0.5209918 0.4311741 0.4311694
0.5437066 0.4531969 0.4531923
0.5664220 0.4752454 0.4752408
0.5891377 0.4973175 0.4973130
0.6118538 0.5194115 0.5194070
0.6345702 0.5415260 0.5415214
0.6572869 0.5636593 0.5636548
0.6800040 0.5858105 0.5858059
0.7027213 0.6079782 0.6079736
0.7109221 0.6548405 0.6548359
0.7120903 0.6825703 0.6825656
0.7131113 0.6973674 0.6973627
0.7138457 0.7055546 0.7055499
0.7143038 0.7099870 0.7099823
0.7145651 0.7123319 0.7123272
0.7147068 0.7135543 0.7135496
0.7147817 0.7141871 0.7141824
0.7148207 0.7145137 0.7145090
0.7148410 0.7146823 0.7146775
0.7148515 0.7147694 0.7147647
0.7148570 0.7148145 0.7148098
0.7148598 0.7148379 0.7148332
0.0293640 0.0916169 0.0293621
0.0398140 0.0916882 0.0304311
0.0545894 0.0918560 0.0326998
0.0729250 0.0922636 0.0372161
0.0932415 0.0932416 0.0450577
0.1145044 0.0954676 0.0567216
0.1362699 0.0999949 0.0718000
0.1583821 0.1079025 0.0893737
0.1807418 0.1196838 0.1085470
0.2032581 0.1349502 0.1286793
0.2258638 0.1527740 0.1493793
0.2485178 0.1722278 0.1704251
0.2711974 0.1926448 0.1916936
0.2938908 0.2136180 0.2131155
0.3165917 0.2349174 0.2346503
0.3392970 0.2564165 0.2562731
0.3620049 0.2780460 0.2779676
0.3847146 0.2997667 0.2997228
0.4074255 0.3215559 0.3215303
0.4301374 0.3433996 0.3433838
0.4528501 0.3652889 0.3652783
0.4755634 0.3872174 0.3872097
0.4982773 0.4091805 0.4091744
0.5209918 0.4311748 0.4311694
0.5437067 0.4531973 0.4531923
0.5664220 0.4752456 0.4752409
0.5891377 0.4973176 0.4973130
0.6118538 0.5194116 0.5194070
0.6345702 0.5415260 0.5415214
0.6572869 0.5636594 0.5636548
0.6800040 0.5858105 0.5858059
0.7027213 0.6079782 0.6079736
0.7109221 0.6548405 0.6548359
0.7120903 0.6825703 0.6825656
0.7131113 0.6973674 0.6973627
0.7138457 0.7055546 0.7055499
0.7143038 0.7099870 0.7099823
0.7145651 0.7123319 0.7123272
0.7147068 0.7135543 0.7135496
0.7147817 0.7141871 0.7141824
0.7148207 0.7145137 0.7145090
0.7148410 0.7146823 0.7146775
0.7148515 0.7147694 0.7147647
0.7148570 0.7148145 0.7148098
0.7148598 0.7148379 0.7148332
0.0487893 0.1144868 0.0487869
0.0544077 0.1145218 0.0493153
0.0640570 0.1146022 0.0504752
0.0783362 0.1147910 0.0529375
0.0962171 0.1152299 0.0576800
0.1162382 0.1162382 0.0657222
0.1373531 0.1184521 0.0775296
0.1590536 0.1228607 0.0927124
0.1811338 0.1305150 0.1103814
0.2034744 0.1419673 0.1296541
0.2259792 0.1569355 0.1498895
0.2485784 0.1745576 0.1706910
0.2712291 0.1939086 0.1918323
0.2939074 0.2142937 0.2131881
0.3166004 0.2352770 0.2346885
0.3393016 0.2566080 0.2562933
0.3620074 0.2781482 0.2779784
0.3847159 0.2998215 0.2997286
0.4074262 0.3215854 0.3215334
0.4301378 0.3434156 0.3433855
0.4528503 0.3652975 0.3652793
0.4755636 0.3872221 0.3872102
0.4982774 0.4091831 0.4091746
0.5209918 0.4311762 0.4311696
0.5437067 0.4531981 0.4531924
0.5664220 0.4752460 0.4752409
0.5891377 0.4973179 0.4973130
0.6118538 0.5194117 0.5194071
0.6345702 0.5415261 0.5415214
0.6572869 0.5636594 0.5636548
0.6800040 0.5858105 0.5858059
0.7027213 0.6079782 0.6079736
0.7109221 0.6548405 0.6548359
0.7120903 0.6825703 0.6825656
0.7131113 0.6973674 0.6973627
0.7138457 0.7055546 0.7055499
0.7143038 0.7099870 0.7099823
0.7145651 0.7123319 0.7123272
0.7147068 0.7135543 0.7135496
0.7147817 0.7141871 0.7141824
0.7148207 0.7145137 0.7145090
0.7148410 0.7146823 0.7146775
0.7148515 0.7147694 0.7147647
0.7148570 0.7148145 0.7148098
0.7148598 0.7148379 0.7148332
0.0688659 0.1372930 0.0688632
0.0717657 0.1373100 0.0691238
0.0774196 0.1373490 0.0697053
0.0872243 0.1374388 0.0709830
0.1014743 0.1376426 0.0736071
0.1192264 0.1381022 0.0785275
0.1391276 0.1391277 0.0867182
0.1601686 0.1413257 0.0986213
0.1818290 0.1456384 0.1138659
0.2038845 0.1530904 0.1315919
0.2262082 0.1642720 0.1509309
0.2487019 0.1789832 0.1712415
0.2712947 0.1964223 0.1921217
0.2939419 0.2156732 0.2133403
0.3166187 0.2360216 0.2347688
0.3393112 0.2570074 0.2563358
0.3620125 0.2783623 0.2780011
0.3847187 0.2999365 0.2997407
0.4074277 0.3216474 0.3215400
0.4301386 0.3434492 0.3433891
0.4528507 0.3653158 0.3652812
0.4755638 0.3872321 0.3872112
0.4982775 0.4091886 0.4091752
0.5209919 0.4311792 0.4311699
0.5437067 0.4531997 0.4531926
0.5664220 0.4752469 0.4752410
0.5891377 0.4973184 0.4973131
0.6118538 0.5194120 0.5194071
0.6345702 0.5415262 0.5415215
0.6572869 0.5636595 0.5636548
0.6800040 0.5858106 0.5858059
0.7027213 0.6079782 0.6079736
0.7109221 0.6548405 0.6548359
0.7120903 0.6825703 0.6825656
0.7131113 0.6973674 0.6973627
0.7138457 0.7055546 0.7055499
0.7143038 0.7099870 0.7099823
0.7145651 0.7123319 0.7123272
0.7147068 0.7135543 0.7135496
0.7147817 0.7141871 0.7141824
0.7148207 0.7145137 0.7145090
0.7148410 0.7146823 0.7146775
0.7148515 0.7147694 0.7147647
0.7148570 0.7148145 0.7148098
0.7148598 0.7148379 0.7148332
0.0893614 0.1600690 0.0893585
0.0908338 0.1600774 0.0894878
0.0939207 0.1600965 0.0897787
0.0999298 0.1601401 0.0904289
0.1100103 0.1602376 0.0918116
0.1243705 0.1604533 0.0945739
0.1421116 0.1609281 0.0996420
0.1619648 0.1619649 0.1079501
0.1829653 0.1641471 0.1199212
0.2045984 0.1683790 0.1352023
0.2266338 0.1756613 0.1529612
0.2489425 0.1866100 0.1723440
0.2714258 0.2010919 0.1927100
0.2940122 0.2183600 0.2136522
0.3166561 0.2375120 0.2349340
0.3393311 0.2578190 0.2564236
0.3620231 0.2788009 0.2780479
0.3847243 0.3001732 0.2997658
0.4074308 0.3217753 0.3215535
0.4301403 0.3435185 0.3433964
0.4528516 0.3653535 0.3652851
0.4755643 0.3872527 0.3872134
0.4982778 0.4091999 0.4091764
0.5209920 0.4311855 0.4311706
0.5437068 0.4532032 0.4531930
0.5664220 0.4752488 0.4752412
0.5891377 0.4973194 0.4973132
0.6118538 0.5194126 0.5194071
0.6345702 0.5415266 0.5415215
0.6572869 0.5636597 0.5636548
0.6800040 0.5858107 0.5858059
0.7027213 0.6079783 0.6079736
0.7109221 0.6548405 0.6548359
0.7120903 0.6825703 0.6825656
0.7131113 0.6973674 0.6973627
0.7138457 0.7055546 0.7055499
0.7143038 0.7099870 0.7099823
0.7145651 0.7123319 0.7123272
0.7147068 0.7135543 0.7135496
0.7147817 0.7141871 0.7141824
0.7148207 0.7145137 0.7145090
0.7148410 0.7146823 0.7146775
0.7148515 0.7147694 0.7147647
0.7148570 0.7148145 0.7148098
0.7148598 0.7148379 0.7148332
0.1101537 0.1828300 0.1101507
0.1108990 0.1828342 0.1102154
0.1125228 0.1828436 0.1103615
0.1159184 0.1828651 0.1106910
0.1222841 0.1829129 0.1114042
0.1326557 0.1830171 0.1128803
0.1471650 0.1832426 0.1157630
0.1649386 0.1837297 0.1209563
0.1847747 0.1847748 0.1293603
0.2057508 0.1869422 0.1413813
0.2273634 0.1911044 0.1566825
0.2493819 0.1982400 0.1744582
0.2716769 0.2089830 0.1938692
0.2941505 0.2232559 0.2142761
0.3167308 0.2403623 0.2352673
0.3393712 0.2594158 0.2566014
0.3620446 0.2796777 0.2781429
0.3847358 0.3006503 0.2998168
0.4074370 0.3220343 0.3215809
0.4301436 0.3436592 0.3434112
0.4528535 0.3654302 0.3652932
0.4755653 0.3872946 0.3872178
0.4982783 0.4092229 0.4091788
0.5209923 0.4311981 0.4311719
0.5437070 0.4532102 0.4531937
0.5664221 0.4752527 0.4752416
0.5891378 0.4973216 0.4973134
0.6118538 0.5194138 0.5194073
0.6345702 0.5415272 0.5415216
0.6572869 0.5636601 0.5636549
0.6800040 0.5858109 0.5858059
0.7027213 0.6079784 0.6079736
0.7109221 0.6548406 0.6548359
0.7120903 0.6825703 0.6825656
0.7131113 0.6973674 0.6973627
0.7138457 0.7055546 0.7055499
0.7143038 0.7099870 0.7099823
0.7145651 0.7123319 0.7123272
0.7147068 0.7135543 0.7135496
0.7147817 0.7141871 0.7141824
0.7148207 0.7145137 0.7145090
0.7148410 0.7146823 0.7146775
0.7148515 0.7147694 0.7147647
0.7148570 0.7148145 0.7148098
0.7148598 0.7148379 0.7148332
0.1311687 0.2055830 0.1311656
0.1315473 0.2055851 0.1311983
0.1323883 0.2055898 0.1312723
0.1342186 0.2056006 0.1314397
0.1379076 0.2056244 0.1318053
0.1446058 0.2056759 0.1325761
0.1552534 0.2057859 0.1341360
0.1699159 0.2060199 0.1371248
0.1877367 0.2065174 0.1424264
0.2075692 0.2075693 0.1509102
0.2285289 0.2097232 0.1629683
0.2501252 0.2138242 0.1782786
0.2721288 0.2208304 0.1960603
0.2944113 0.2313885 0.2154882
0.3168758 0.2454687 0.2359249
0.3394502 0.2624211 0.2569553
0.3620872 0.2813769 0.2783329
0.3847588 0.3015906 0.2999190
0.4074494 0.3225494 0.3216360
0.4301503 0.3439405 0.3434411
0.4528571 0.3655838 0.3653095
0.4755673 0.3873787 0.3872267
0.4982794 0.4092691 0.4091837
0.5209929 0.4312236 0.4311746
0.5437073 0.4532243 0.4531952
0.5664223 0.4752605 0.4752424
0.5891379 0.4973259 0.4973139
0.6118539 0.5194163 0.5194075
0.6345702 0.5415286 0.5415217
0.6572870 0.5636608 0.5636550
0.6800040 0.5858113 0.5858060
0.7027213 0.6079787 0.6079737
0.7109221 0.6548406 0.6548359
0.7120903 0.6825703 0.6825656
0.7131113 0.6973674 0.6973627
0.7138457 0.7055546 0.7055499
0.7143038 0.7099870 0.7099823
0.7145651 0.7123319 0.7123272
0.7147068 0.7135543 0.7135496
0.7147817 0.7141871 0.7141824
0.7148207 0.7145137 0.7145090
0.7148410 0.7146823 0.7146775
0.7148515 0.7147694 0.7147647
0.7148570 0.7148145 0.7148098
0.7148598 0.7148379 0.7148332
0.1523577 0.2283315 0.1523545
0.1525512 0.2283325 0.1523712
0.1529851 0.2283349 0.1524089
0.1539497 0.2283403 0.1524944
0.1559771 0.2283523 0.1526822
0.1599380 0.2283782 0.1530816
0.1669401 0.2284332 0.1539053
0.1778406 0.2285485 0.1555410
0.1926481 0.2287901 0.1586244
0.2105193 0.2292967 0.1640207
0.2303541 0.2303542 0.1725722
0.2513019 0.2324959 0.1846581
0.2728843 0.2365426 0.1999702
0.2948746 0.2434329 0.2177501
0.3171457 0.2538231 0.2371866
0.3396016 0.2677242 0.2576450
0.3621704 0.2845294 0.2787066
0.3848041 0.3033885 0.3001209
0.4074739 0.3235516 0.3217452
0.4301636 0.3444930 0.3435003
0.4528643 0.3658872 0.3653417
0.4755712 0.3875452 0.3872443
0.4982816 0.4093607 0.4091933
0.5209941 0.4312741 0.4311799
0.5437079 0.4532522 0.4531981
0.5664227 0.4752760 0.4752441
0.5891381 0.4973346 0.4973148
0.6118540 0.5194211 0.5194080
0.6345703 0.5415313 0.5415220
0.6572870 0.5636624 0.5636551
0.6800040 0.5858122 0.5858061
0.7027213 0.6079792 0.6079737
0.7109221 0.6548407 0.6548359
0.7120903 0.6825703 0.6825656
0.7131113 0.6973674 0.6973627
0.7138457 0.7055546 0.7055499
0.7143038 0.7099870 0.7099823
0.7145651 0.7123319 0.7123272
0.7147068 0.7135543 0.7135496
0.7147817 0.7141871 0.7141824
0.7148207 0.7145137 0.7145090
0.7148410 0.7146823 0.7146775
0.7148515 0.7147694 0.7147647
0.7148570 0.7148145 0.7148098
0.7148598 0.7148379 0.7148332
0.1736864 0.2510771 0.1736831
0.1737859 0.2510776 0.1736917
0.1740103 0.2510788 0.1737111
0.1745146 0.2510816 0.1737551
0.1755988 0.2510877 0.1738519
0.1778117 0.2511009 0.1740589
0.1820237 0.2511288 0.1744900
0.1893024 0.2511868 0.1753627
0.2004321 0.2513070 0.1770676
0.2153727 0.2515555 0.1802361
0.2332930 0.2520703 0.1857163
0.2531327 0.2531327 0.1943260
0.2740710 0.2552633 0.2064331
0.2956413 0.2592612 0.2217415
0.3176195 0.2660469 0.2395142
0.3398799 0.2762832 0.2589533
0.3623278 0.2900169 0.2794269
0.3848912 0.3066811 0.3005136
0.4075216 0.3254447 0.3219587
0.4301896 0.3455555 0.3436163
0.4528785 0.3664765 0.3654049
0.4755790 0.3878705 0.3872788
0.4982859 0.4095401 0.4092123
0.5209964 0.4313732 0.4311903
0.5437092 0.4533071 0.4532039
0.5664234 0.4753065 0.4752473
0.5891385 0.4973516 0.4973166
0.6118542 0.5194306 0.5194090
0.6345704 0.5415366 0.5415226
0.6572871 0.5636654 0.5636554
0.6800040 0.5858139 0.5858063
0.7027213 0.6079801 0.6079738
0.7109221 0.6548410 0.6548360
0.7120903 0.6825704 0.6825656
0.7131113 0.6973674 0.6973627
0.7138457 0.7055546 0.7055499
0.7143038 0.7099870 0.7099823
0.7145651 0.7123319 0.7123272
0.7147068 0.7135543 0.7135496
0.7147817 0.7141871 0.7141824
0.7148207 0.7145137 0.7145090
0.7148410 0.7146823 0.7146775
0.7148515 0.7147694 0.7147647
0.7148570 0.7148145 0.7148098
0.7148598 0.7148379 0.7148332
0.1951299 0.2738208 0.1951266
0.1951815 0.2738210 0.1951310
0.1952981 0.2738217 0.1951410
0.1955615 0.2738231 0.1951639
0.1961348 0.2738262 0.1952141
0.1973336 0.2738330 0.1953218
0.1997208 0.2738473 0.1955471
0.2041650 0.2738770 0.1960080
0.2116958 0.2739381 0.1969261
0.2230328 0.2740628 0.1986948
0.2380948 0.2743175 0.2019407
0.2560611 0.2748398 0.2074959
0.2759066 0.2759066 0.2161562
0.2968370 0.2780271 0.2282794
0.3183965 0.2819807 0.2435806
0.3403637 0.2886711 0.2613423
0.3626141 0.2987655 0.2807794
0.3850543 0.3123421 0.3012632
0.4076125 0.3288711 0.3223698
0.4302397 0.3475407 0.3438410
0.4529060 0.3675980 0.3655277
0.4755940 0.3884960 0.3873461
0.4982941 0.4098871 0.4092492
0.5210010 0.4315655 0.4312107
0.5437118 0.4534137 0.4532151
0.5664248 0.4753658 0.4752535
0.5891393 0.4973846 0.4973200
0.6118546 0.5194491 0.5194110
0.6345707 0.5415470 0.5415236
0.6572872 0.5636712 0.5636560
0.6800041 0.5858171 0.5858066
0.7027214 0.6079820 0.6079740
0.7109221 0.6548415 0.6548362
0.7120903 0.6825705 0.6825657
0.7131113 0.6973675 0.6973627
0.7138457 0.7055546 0.7055499
0.7143038 0.7099870 0.7099823
0.7145651 0.7123319 0.7123272
0.7147068 0.7135543 0.7135496
0.7147817 0.7141871 0.7141824
0.7148207 0.7145137 0.7145090
0.7148410 0.7146823 0.7146775
0.7148515 0.7147694 0.7147647
0.7148570 0.7148145 0.7148098
0.7148598 0.7148379 0.7148332
0.2166695 0.2965631 0.2166661
0.2166964 0.2965632 0.2166684
0.2167574 0.2965635 0.2166737
0.2168955 0.2965643 0.2166856
0.2171978 0.2965659 0.2167118
0.2178382 0.2965694 0.2167681
0.2191465 0.2965768 0.2168863
0.2216981 0.2965922 0.2171291
0.2263576 0.2966237 0.2176181
0.2341190 0.2966875 0.2185789
0.2456442 0.2968163 0.2204064
0.2608164 0.2970770 0.2237231
0.2788253 0.2976061 0.2293461
0.2986769 0.2986770 0.2380511
0.3196005 0.3007882 0.2501866
0.3411501 0.3047014 0.2654780
0.3631071 0.3113043 0.2832259
0.3853482 0.3212671 0.3026575
0.4077811 0.3346958 0.3231474
0.4303343 0.3510951 0.3442700
0.4529584 0.3696722 0.3657634
0.4756229 0.3896752 0.3874755
0.4983100 0.4105484 0.4093204
0.5210098 0.4319341 0.4312499
0.5437166 0.4536189 0.4532369
0.5664275 0.4754801 0.4752656
0.5891408 0.4974484 0.4973268
0.6118555 0.5194847 0.5194147
0.6345711 0.5415670 0.5415257
0.6572875 0.5636824 0.5636572
0.6800043 0.5858235 0.5858073
0.7027215 0.6079856 0.6079744
0.7109221 0.6548424 0.6548365
0.7120903 0.6825708 0.6825659
0.7131113 0.6973675 0.6973628
0.7138457 0.7055546 0.7055499
0.7143038 0.7099870 0.7099823
0.7145651 0.7123319 0.7123272
0.7147068 0.7135543 0.7135496
0.7147817 0.7141871 0.7141824
0.7148207 0.7145137 0.7145090
0.7148410 0.7146823 0.7146775
0.7148515 0.7147694 0.7147647
0.7148570 0.7148145 0.7148098
0.7148598 0.7148379 0.7148332
0.2382908 0.3193043 0.2382874
0.2383050 0.3193043 0.2382886
0.2383370 0.3193045 0.2382913
0.2384097 0.3193049 0.2382976
0.2385694 0.3193058 0.2383114
0.2389101 0.3193076 0.2383410
0.2396157 0.3193115 0.2384032
0.2410291 0.3193195 0.2385315
0.2437359 0.3193359 0.2387911
0.2485959 0.3193690 0.2393068
0.2565692 0.3194355 0.2403075
0.2682657 0.3195682 0.2421899
0.2835385 0.3198343 0.2455719
0.3015868 0.3203698 0.2512566
0.3214443 0.3214444 0.2600013
0.3423619 0.3235471 0.2721461
0.3639025 0.3274233 0.2874260
0.3858498 0.3339455 0.3051582
0.4080823 0.3437858 0.3245816
0.4305082 0.3570747 0.3450745
0.4530565 0.3733493 0.3662096
0.4756775 0.3918358 0.3877218
0.4983403 0.4117840 0.4094563
0.5210265 0.4326306 0.4313250
0.5437259 0.4540089 0.4532784
0.5664327 0.4756980 0.4752886
0.5891436 0.4975702 0.4973396
0.6118571 0.5195530 0.5194219
0.6345720 0.5416053 0.5415298
0.6572880 0.5637040 0.5636595
0.6800046 0.5858357 0.5858085
0.7027216 0.6079925 0.6079751
0.7109221 0.6548441 0.6548372
0.7120904 0.6825713 0.6825661
0.7131113 0.6973677 0.6973629
0.7138457 0.7055547 0.7055499
0.7143038 0.7099870 0.7099823
0.7145651 0.7123319 0.7123272
0.7147068 0.7135543 0.7135496
0.7147817 0.7141871 0.7141824
0.7148207 0.7145137 0.7145090
0.7148410 0.7146823 0.7146775
0.7148515 0.7147694 0.7147647
0.7148570 0.7148145 0.7148098
0.7148598 0.7148379 0.7148332
0.2599825 0.3420446 0.2599790
0.2599900 0.3420446 0.2599796
0.2600069 0.3420447 0.2599811
0.2600454 0.3420449 0.2599844
0.2601301 0.3420454 0.2599917
0.2603114 0.3420464 0.2600074
0.2606897 0.3420484 0.2600403
0.2614587 0.3420526 0.2601083
0.2629729 0.3420613 0.2602464
0.2658270 0.3420786 0.2605221
0.2708743 0.3421134 0.2610631
0.2790431 0.3421822 0.2621017
0.2908967 0.3423188 0.2640354
0.3062614 0.3425900 0.2674778
0.3243460 0.3431313 0.2732191
0.3442093 0.3442094 0.2819994
0.3651214 0.3463043 0.2941514
0.3866536 0.3501462 0.3094184
0.4085920 0.3565936 0.3271335
0.4308162 0.3663193 0.3465468
0.4532355 0.3794761 0.3670401
0.4757791 0.3956307 0.3881848
0.4983972 0.4140283 0.4097131
0.5210582 0.4339214 0.4314673
0.5437435 0.4547402 0.4533574
0.5664424 0.4761093 0.4753325
0.5891491 0.4978010 0.4973641
0.6118601 0.5196825 0.5194356
0.6345738 0.5416781 0.5415374
0.6572889 0.5637450 0.5636638
0.6800051 0.5858588 0.5858110
0.7027219 0.6080056 0.6079765
0.7109222 0.6548474 0.6548384
0.7120904 0.6825722 0.6825666
0.7131114 0.6973680 0.6973631
0.7138457 0.7055548 0.7055500
0.7143038 0.7099871 0.7099823
0.7145651 0.7123319 0.7123272
0.7147068 0.7135543 0.7135496
0.7147817 0.7141871 0.7141824
0.7148207 0.7145137 0.7145090
0.7148410 0.7146823 0.7146775
0.7148515 0.7147694 0.7147647
0.7148570 0.7148145 0.7148098
0.7148598 0.7148379 0.7148332
0.2817354 0.3647842 0.2817319
0.2817394 0.3647842 0.2817322
0.2817484 0.3647843 0.2817330
0.2817689 0.3647844 0.2817347
0.2818140 0.3647846 0.2817386
0.2819108 0.3647851 0.2817470
0.2821135 0.3647862 0.2817645
0.2825289 0.3647884 0.2818007
0.2833595 0.3647930 0.2818744
0.2849709 0.3648022 0.2820220
0.2879647 0.3648206 0.2823132
0.2931878 0.3648568 0.2828785
0.3015379 0.3649280 0.2839528
0.3135359 0.3650681 0.2859347
0.3289851 0.3653441 0.2894334
0.3471033 0.3658910 0.2952269
0.3669722 0.3669723 0.3040395
0.3878793 0.3690599 0.3161968
0.4094036 0.3728700 0.3314500
0.4313337 0.3792478 0.3491471
0.4535500 0.3888661 0.3685487
0.4759630 0.4018973 0.3890403
0.4985020 0.4179365 0.4101924
0.5211172 0.4362471 0.4317343
0.5437765 0.4560850 0.4535059
0.5664609 0.4768749 0.4754152
0.5891594 0.4982334 0.4974102
0.6118659 0.5199260 0.5194614
0.6345770 0.5418152 0.5415519
0.6572907 0.5638223 0.5636720
0.6800061 0.5859025 0.5858156
0.7027225 0.6080303 0.6079791
0.7109222 0.6548536 0.6548407
0.7120904 0.6825739 0.6825676
0.7131114 0.6973685 0.6973634
0.7138457 0.7055549 0.7055501
0.7143038 0.7099871 0.7099824
0.7145651 0.7123319 0.7123272
0.7147068 0.7135544 0.7135496
0.7147817 0.7141871 0.7141824
0.7148207 0.7145137 0.7145090
0.7148410 0.7146823 0.7146775
0.7148515 0.7147694 0.7147647
0.7148570 0.7148145 0.7148098
0.7148598 0.7148379 0.7148332
0.3035422 0.3875231 0.3035386
0.3035443 0.3875231 0.3035388
0.3035491 0.3875232 0.3035392
0.3035601 0.3875232 0.3035401
0.3035843 0.3875233 0.3035422
0.3036361 0.3875236 0.3035467
0.3037450 0.3875242 0.3035561
0.3039691 0.3875254 0.3035755
0.3044209 0.3875278 0.3036149
0.3053116 0.3875327 0.3036941
0.3070165 0.3875425 0.3038509
0.3101435 0.3875618 0.3041571
0.3155320 0.3875994 0.3047456
0.3240510 0.3876730 0.3058539
0.3361825 0.3878163 0.3078813
0.3517098 0.3880969 0.3114327
0.3698592 0.3886491 0.3172745
0.3897333 0.3897334 0.3261166
0.4106357 0.3918142 0.3382777
0.4321528 0.3955947 0.3535167
0.4540749 0.4019074 0.3711951
0.4762837 0.4114246 0.3905838
0.4986906 0.4243365 0.4110720
