LUTs/guard_rail_srgb.cube
TITLE "Guard Rail sRGB"
# Guard Rail Formation for sRGB medium.
# The Guard Rail is designed to leaves valid value as-is, and only touch out of domain valuesModified from python script shared by Sakari Kapanen
# This LUT assumes E Gamut encoded in ST2084 (10) curve and then power 1.5
# LUT resolution 50
LUT_3D_SIZE 5
DOMAIN_MIN 0.000000 0.000000 0.000000
DOMAIN_MAX 0.816327 0.816327 0.816327
0.0000000 0.0000000 0.0000000
0.2000898 0.0880415 0.0880415
0.4020654 0.2135459 0.2135459
0.5789201 0.3990430 0.3990430
0.6223143 0.5812608 0.5812608
0.1591421 0.2229982 0.1591421
0.2168186 0.2168186 0.1291812
0.4060530 0.2596324 0.2131549
0.5788605 0.4006576 0.3917152
0.6223022 0.5812924 0.5810173
0.3374946 0.4366431 0.3374946
0.3274532 0.4279859 0.3053711
0.4274128 0.4274128 0.2874715
0.5895112 0.4738584 0.4203512
0.6238773 0.5860615 0.5838047
0.5334299 0.6275520 0.5334299
0.5308697 0.6269150 0.5275843
0.5077077 0.6209886 0.4568289
0.6319633 0.6319633 0.4691509
0.6324585 0.6096341 0.6013492
0.6306583 0.6463695 0.6306583
0.6305499 0.6463292 0.6304529
0.6296983 0.6460076 0.6287985
0.6263379 0.6444464 0.6199101
0.6479258 0.6479258 0.6279166
0.0807409 0.0807409 0.1707398
0.2028941 0.1209458 0.2028941
0.4021425 0.2232042 0.2641044
0.5793840 0.4004583 0.4087055
0.6223850 0.5813911 0.5816641
0.1738843 0.2290471 0.2290471
0.2040816 0.2040816 0.2040816
0.4071906 0.2170479 0.2170479
0.5791947 0.4010699 0.4010699
0.6223730 0.5814226 0.5814226
0.3405765 0.4377081 0.3564321
0.3309381 0.4290863 0.3309381
0.4192830 0.4192830 0.2809944
0.5884196 0.4676491 0.4178491
0.6236146 0.5852940 0.5832728
0.5339923 0.6278903 0.5370363
0.5314510 0.6272647 0.5314510
0.5084641 0.6214455 0.4647792
0.6316610 0.6316610 0.4638977
0.6322976 0.6092135 0.6010268
0.6306878 0.6463903 0.6307837
0.6305797 0.6463501 0.6305797
0.6297302 0.6460301 0.6289364
0.6260957 0.6443996 0.6197489
0.6479101 0.6479101 0.6278154
0.1995979 0.1995979 0.3561841
0.2470964 0.2139798 0.3691320
0.4063525 0.2732180 0.4063525
0.5828583 0.4107504 0.4657082
0.6229138 0.5823647 0.5846521
0.2391914 0.2680986 0.3829142
0.2254929 0.2254929 0.3928447
0.4071302 0.2738360 0.4071302
0.5827034 0.4112392 0.4615035
0.6229023 0.5823945 0.5844252
0.3611937 0.4456123 0.4456123
0.3537740 0.4373007 0.4373007
0.4081633 0.4081633 0.4081633
0.5842922 0.4345771 0.4345771
0.6228091 0.5826213 0.5826213
0.5381867 0.6304298 0.5618293
0.5357863 0.6298909 0.5578689
0.5141107 0.6248861 0.5141107
0.6182609 0.6182609 0.4462873
0.6310213 0.6058405 0.5984999
0.6309096 0.6465463 0.6317231
0.6308035 0.6465076 0.6315295
0.6299696 0.6461997 0.6299696
0.6252979 0.6443361 0.6198989
0.6477881 0.6477881 0.6270257
0.3425604 0.3425604 0.5485197
0.3578754 0.3470498 0.5523556
0.4422790 0.3741406 0.5727272
0.5979784 0.4504602 0.5979784
0.6252018 0.5865468 0.5970372
0.3564762 0.3668890 0.5581279
0.3506220 0.3506220 0.5587492
0.4398966 0.3761693 0.5766104
0.5980154 0.4507092 0.5980154
0.6251930 0.5865708 0.5968709
0.4235420 0.4777669 0.5944181
0.4197011 0.4709559 0.5938153
0.4081633 0.4081633 0.6122449
0.5982936 0.4525668 0.5982936
0.6251210 0.5867513 0.5955475
0.5561303 0.6416199 0.6416199
0.5543398 0.6414785 0.6414785
0.5385396 0.6397126 0.6397126
0.6122449 0.6122449 0.6122449
0.6285874 0.5979573 0.5979573
0.6318892 0.6472358 0.6358197
0.6317917 0.6472038 0.6356702
0.6310269 0.6469493 0.6344677
0.6267719 0.6454189 0.6267719
0.6471422 0.6471422 0.6227852
0.4996118 0.4996118 0.6239308
0.5022076 0.5010968 0.6241484
0.5200541 0.5117871 0.6257599
0.5720402 0.5459599 0.6316180
0.6327123 0.5999439 0.6327123
0.5041917 0.5052666 0.6245494
0.5016407 0.5016407 0.6241662
0.5195252 0.5121969 0.6257685
0.5717397 0.5461579 0.6316184
0.6327184 0.5999626 0.6327184
0.5317300 0.5383437 0.6286346
0.5299707 0.5359782 0.6283265
0.5154310 0.5154310 0.6258465
0.5693703 0.5476969 0.6316216
0.6327646 0.6001026 0.6327646
0.5892816 0.6032632 0.6393970
0.5886774 0.6025656 0.6392615
0.5838403 0.5968201 0.6381733
0.5704118 0.5704118 0.6340924
0.6329705 0.6007252 0.6329705
0.6353582 0.6496868 0.6496868
0.6352910 0.6496782 0.6496782
0.6347677 0.6496117 0.6496117
0.6319807 0.6492608 0.6492608
0.6518940 0.6518940 0.6518940
