LUTs/guard_rail_p3.cube
TITLE "Guard Rail P3"
# Guard Rail Formation for P3 medium.
# The Guard Rail is designed to leaves valid value as-is, and only touch out of domain valuesModified from python script shared by Sakari Kapanen
# This LUT assumes input and output to be E Gamut encoded in Power 0.4 and then Log2 (-10 stop to +6.5 stop)
# LUT resolution 45
LUT_3D_SIZE 8
DOMAIN_MIN 0.000000 0.000000 0.000000
DOMAIN_MAX 0.954545 0.954545 0.954545
-0.0000000 0.0000000 -0.0000000
0.1351455 0.0497666 0.0497666
0.2711388 0.1857598 0.1857598
0.4074949 0.3221159 0.3221159
0.5438584 0.4584794 0.4584794
0.6802220 0.5948430 0.5948430
0.7527481 0.7457959 0.7457959
0.7559595 0.7558922 0.7558922
0.0908611 0.1399692 0.0908611
0.1396323 0.1396323 0.0799450
0.2713085 0.1932199 0.1867580
0.4074984 0.3222836 0.3221365
0.5438584 0.4584828 0.4584798
0.6802220 0.5948431 0.5948430
0.7527481 0.7457959 0.7457959
0.7559595 0.7558922 0.7558922
0.2275253 0.2766334 0.2275253
0.2268150 0.2762779 0.2245359
0.2763781 0.2763781 0.2166908
0.4076689 0.3297104 0.3231346
0.5438620 0.4586505 0.4585004
0.6802221 0.5948465 0.5948434
0.7527481 0.7457959 0.7457959
0.7559595 0.7558922 0.7558922
0.3638950 0.4130031 0.3638950
0.3638808 0.4129959 0.3638376
0.3631703 0.4126405 0.3608428
0.4127495 0.4127495 0.3530622
0.5440324 0.4660766 0.4594985
0.6802256 0.5950142 0.5948640
0.7527482 0.7457961 0.7457961
0.7559595 0.7558922 0.7558922
0.5002588 0.5493668 0.5002588
0.5002585 0.5493667 0.5002576
0.5002443 0.5493595 0.5002002
0.4995338 0.5490041 0.4972052
0.5491133 0.5491133 0.4894260
0.6803961 0.6024403 0.5958622
0.7527512 0.7458080 0.7458048
0.7559595 0.7558922 0.7558922
0.6366224 0.6857305 0.6366224
0.6366224 0.6857305 0.6366224
0.6366221 0.6857303 0.6366212
0.6366079 0.6857231 0.6365638
0.6358974 0.6853677 0.6335688
0.6854769 0.6854769 0.6257896
0.7528966 0.7463690 0.7462203
0.7559596 0.7558924 0.7558923
0.7524364 0.7551898 0.7524364
0.7524364 0.7551898 0.7524364
0.7524364 0.7551898 0.7524364
0.7524363 0.7551898 0.7524363
0.7524352 0.7551893 0.7524340
0.7523786 0.7551681 0.7523185
0.7554696 0.7554696 0.7529032
0.7559616 0.7558985 0.7558972
0.7559629 0.7559881 0.7559629
0.7559629 0.7559881 0.7559629
0.7559629 0.7559881 0.7559629
0.7559629 0.7559881 0.7559629
0.7559629 0.7559881 0.7559629
0.7559629 0.7559881 0.7559629
0.7559624 0.7559879 0.7559619
0.7559909 0.7559909 0.7559679
0.0615698 0.0615698 0.1222399
0.1353192 0.0847369 0.1353192
0.2711193 0.1866268 0.1930780
0.4074989 0.3219549 0.3221029
0.5438584 0.4584761 0.4584791
0.6802220 0.5948430 0.5948430
0.7527481 0.7457959 0.7457959
0.7559595 0.7558922 0.7558922
0.1060305 0.1426914 0.1426914
0.1363636 0.1363636 0.1363636
0.2715092 0.1861302 0.1861302
0.4075024 0.3221235 0.3221235
0.5438585 0.4584795 0.4584795
0.6802220 0.5948430 0.5948430
0.7527481 0.7457959 0.7457959
0.7559595 0.7558922 0.7558922
0.2279223 0.2766882 0.2299676
0.2272248 0.2763328 0.2272248
0.2759960 0.2759960 0.2163087
0.4076721 0.3295836 0.3231217
0.5438621 0.4586473 0.4585001
0.6802221 0.5948464 0.5948434
0.7527481 0.7457959 0.7457959
0.7559595 0.7558922 0.7558922
0.3639031 0.4130042 0.3639463
0.3638889 0.4129970 0.3638889
0.3631787 0.4126416 0.3608995
0.4127418 0.4127418 0.3530545
0.5440325 0.4660740 0.4594982
0.6802256 0.5950141 0.5948640
0.7527482 0.7457961 0.7457961
0.7559595 0.7558922 0.7558922
0.5002589 0.5493668 0.5002598
0.5002586 0.5493667 0.5002586
0.5002445 0.5493595 0.5002012
0.4995339 0.5490041 0.4972064
0.5491131 0.5491131 0.4894258
0.6803961 0.6024402 0.5958621
0.7527512 0.7458080 0.7458048
0.7559595 0.7558922 0.7558922
0.6366224 0.6857305 0.6366224
0.6366224 0.6857305 0.6366224
0.6366221 0.6857303 0.6366212
0.6366079 0.6857231 0.6365638
0.6358974 0.6853677 0.6335689
0.6854769 0.6854769 0.6257896
0.7528966 0.7463690 0.7462203
0.7559596 0.7558924 0.7558923
0.7524364 0.7551898 0.7524364
0.7524364 0.7551898 0.7524364
0.7524364 0.7551898 0.7524364
0.7524363 0.7551898 0.7524363
0.7524352 0.7551893 0.7524340
0.7523786 0.7551681 0.7523185
0.7554696 0.7554696 0.7529032
0.7559616 0.7558985 0.7558972
0.7559629 0.7559881 0.7559629
0.7559629 0.7559881 0.7559629
0.7559629 0.7559881 0.7559629
0.7559629 0.7559881 0.7559629
0.7559629 0.7559881 0.7559629
0.7559629 0.7559881 0.7559629
0.7559624 0.7559879 0.7559619
0.7559909 0.7559909 0.7559679
0.1956486 0.1956486 0.2563187
0.1997908 0.1967147 0.2571488
0.2715849 0.2210026 0.2715849
0.4074748 0.3230098 0.3295726
0.5438625 0.4583151 0.4584661
0.6802221 0.5948397 0.5948428
0.7527481 0.7457959 0.7457959
0.7559595 0.7558922 0.7558922
0.1985478 0.2015612 0.2583640
0.1979334 0.1979334 0.2586036
0.2716828 0.2211006 0.2716828
0.4074829 0.3229905 0.3294416
0.5438625 0.4583185 0.4584665
0.6802221 0.5948398 0.5948428
0.7527481 0.7457959 0.7457959
0.7559595 0.7558922 0.7558922
0.2427403 0.2794013 0.2794013
0.2423941 0.2790551 0.2790551
0.2727273 0.2727273 0.2727273
0.4078728 0.3224938 0.3224938
0.5438661 0.4584871 0.4584871
0.6802221 0.5948432 0.5948432
0.7527481 0.7457959 0.7457959
0.7559595 0.7558922 0.7558922
0.3642998 0.4130590 0.3663840
0.3642859 0.4130518 0.3663312
0.3635884 0.4126964 0.3635884
0.4123596 0.4123596 0.3526723
0.5440358 0.4659472 0.4594853
0.6802257 0.5950109 0.5948637
0.7527482 0.7457961 0.7457961
0.7559595 0.7558922 0.7558922
0.5002670 0.5493679 0.5003111
0.5002667 0.5493678 0.5003099
0.5002526 0.5493606 0.5002526
0.4995423 0.5490052 0.4972632
0.5491054 0.5491054 0.4894181
0.6803961 0.6024377 0.5958619
0.7527512 0.7458080 0.7458048
0.7559595 0.7558922 0.7558922
0.6366226 0.6857305 0.6366235
0.6366226 0.6857305 0.6366234
0.6366223 0.6857303 0.6366223
0.6366081 0.6857232 0.6365648
0.6358976 0.6853677 0.6335700
0.6854768 0.6854768 0.6257895
0.7528966 0.7463690 0.7462203
0.7559596 0.7558924 0.7558923
0.7524364 0.7551898 0.7524364
0.7524364 0.7551898 0.7524364
0.7524364 0.7551898 0.7524364
0.7524363 0.7551898 0.7524363
0.7524352 0.7551893 0.7524340
0.7523786 0.7551681 0.7523185
0.7554696 0.7554696 0.7529032
0.7559616 0.7558985 0.7558972
0.7559629 0.7559881 0.7559629
0.7559629 0.7559881 0.7559629
0.7559629 0.7559881 0.7559629
0.7559629 0.7559881 0.7559629
0.7559629 0.7559881 0.7559629
0.7559629 0.7559881 0.7559629
0.7559624 0.7559879 0.7559619
0.7559909 0.7559909 0.7559679
0.3319643 0.3319643 0.3926345
0.3320371 0.3319714 0.3926497
0.3361886 0.3330546 0.3934837
0.4079465 0.3573643 0.4079465
0.5438383 0.4593738 0.4659389
0.6802261 0.5946787 0.5948297
0.7527481 0.7457957 0.7457957
0.7559595 0.7558922 0.7558922
0.3320281 0.3320936 0.3926807
0.3320122 0.3320122 0.3926824
0.3361544 0.3330783 0.3935124
0.4079485 0.3573663 0.4079485
0.5438385 0.4593735 0.4659362
0.6802261 0.5946788 0.5948297
0.7527481 0.7457957 0.7457957
0.7559595 0.7558922 0.7558922
0.3349251 0.3379940 0.3947246
0.3349115 0.3379248 0.3947276
0.3342970 0.3342970 0.3949672
0.4080465 0.3574642 0.4080465
0.5438465 0.4593541 0.4658053
0.6802262 0.5946822 0.5948302
0.7527481 0.7457957 0.7457957
0.7559595 0.7558922 0.7558922
0.3791109 0.4157719 0.4157719
0.3791039 0.4157649 0.4157649
0.3787578 0.4154187 0.4154187
0.4090909 0.4090909 0.4090909
0.5442364 0.4588575 0.4588575
0.6802297 0.5948507 0.5948507
0.7527481 0.7457959 0.7457959
0.7559595 0.7558922 0.7558922
0.5006637 0.5494228 0.5027487
0.5006635 0.5494226 0.5027476
0.5006495 0.5494155 0.5026948
0.4999520 0.5490601 0.4999520
0.5487232 0.5487232 0.4890359
0.6803994 0.6023108 0.5958489
0.7527512 0.7458078 0.7458047
0.7559595 0.7558922 0.7558922
0.6366307 0.6857316 0.6366747
0.6366307 0.6857316 0.6366747
0.6366304 0.6857314 0.6366736
0.6366162 0.6857243 0.6366162
0.6359059 0.6853688 0.6336268
0.6854691 0.6854691 0.6257818
0.7528966 0.7463689 0.7462202
0.7559596 0.7558924 0.7558923
0.7524364 0.7551898 0.7524364
0.7524364 0.7551898 0.7524364
0.7524364 0.7551898 0.7524364
0.7524363 0.7551898 0.7524363
0.7524352 0.7551894 0.7524341
0.7523786 0.7551681 0.7523185
0.7554696 0.7554696 0.7529032
0.7559616 0.7558985 0.7558972
0.7559629 0.7559881 0.7559629
0.7559629 0.7559881 0.7559629
0.7559629 0.7559881 0.7559629
0.7559629 0.7559881 0.7559629
0.7559629 0.7559881 0.7559629
0.7559629 0.7559881 0.7559629
0.7559624 0.7559879 0.7559619
0.7559909 0.7559909 0.7559679
0.4683270 0.4683270 0.5289972
0.4683267 0.4683253 0.5289972
0.4684015 0.4683346 0.5290128
0.4725529 0.4694177 0.5298468
0.5443101 0.4937279 0.5443101
0.6802019 0.5957375 0.6023026
0.7527457 0.7457862 0.7457894
0.7559595 0.7558922 0.7558922
0.4683283 0.4683296 0.5289981
0.4683280 0.4683280 0.5289981
0.4684007 0.4683351 0.5290134
0.4725522 0.4694182 0.5298474
0.5443102 0.4937279 0.5443102
0.6802019 0.5957375 0.6023025
0.7527457 0.7457862 0.7457894
0.7559595 0.7558922 0.7558922
0.4683920 0.4684589 0.5290443
0.4683917 0.4684573 0.5290443
0.4683758 0.4683758 0.5290460
0.4725181 0.4694420 0.5298760
0.5443122 0.4937299 0.5443122
0.6802021 0.5957371 0.6022999
0.7527457 0.7457862 0.7457894
0.7559595 0.7558922 0.7558922
0.4712890 0.4743590 0.5310882
0.4712887 0.4743576 0.5310882
0.4712751 0.4742884 0.5310912
0.4706607 0.4706607 0.5313309
0.5444101 0.4938278 0.5444101
0.6802102 0.5957177 0.6021689
0.7527458 0.7457865 0.7457896
0.7559595 0.7558922 0.7558922
0.5154747 0.5521356 0.5521356
0.5154746 0.5521355 0.5521355
0.5154676 0.5521285 0.5521285
0.5151214 0.5517823 0.5517823
0.5454545 0.5454545 0.5454545
0.6806001 0.5952211 0.5952211
0.7527488 0.7457984 0.7457984
0.7559595 0.7558922 0.7558922
0.6370274 0.6857864 0.6391124
0.6370274 0.6857864 0.6391123
0.6370271 0.6857863 0.6391113
0.6370132 0.6857791 0.6390585
0.6363157 0.6854237 0.6363157
0.6850869 0.6850869 0.6253996
0.7528944 0.7463602 0.7462143
0.7559596 0.7558924 0.7558923
0.7524368 0.7551900 0.7524379
0.7524368 0.7551900 0.7524379
0.7524368 0.7551900 0.7524379
0.7524367 0.7551900 0.7524379
0.7524356 0.7551896 0.7524356
0.7523790 0.7551684 0.7523201
0.7554695 0.7554695 0.7529023
0.7559616 0.7558985 0.7558972
0.7559629 0.7559881 0.7559629
0.7559629 0.7559881 0.7559629
0.7559629 0.7559881 0.7559629
0.7559629 0.7559881 0.7559629
0.7559629 0.7559881 0.7559629
0.7559629 0.7559881 0.7559629
0.7559624 0.7559879 0.7559619
0.7559909 0.7559909 0.7559679
0.6046906 0.6046906 0.6653608
0.6046906 0.6046906 0.6653608
0.6046903 0.6046889 0.6653608
0.6047652 0.6046982 0.6653764
0.6089166 0.6057814 0.6662104
0.6806738 0.6300915 0.6806738
0.7527807 0.7458475 0.7460025
0.7559595 0.7558921 0.7558922
0.6046906 0.6046907 0.6653608
0.6046906 0.6046906 0.6653608
0.6046903 0.6046890 0.6653608
0.6047651 0.6046982 0.6653764
0.6089166 0.6057814 0.6662104
0.6806738 0.6300915 0.6806738
0.7527807 0.7458475 0.7460025
0.7559595 0.7558921 0.7558922
0.6046919 0.6046933 0.6653617
0.6046919 0.6046932 0.6653617
0.6046916 0.6046916 0.6653618
0.6047643 0.6046987 0.6653770
0.6089159 0.6057819 0.6662110
0.6806738 0.6300915 0.6806738
0.7527807 0.7458475 0.7460025
0.7559595 0.7558921 0.7558922
0.6047557 0.6048226 0.6654079
0.6047557 0.6048226 0.6654079
0.6047554 0.6048209 0.6654079
0.6047395 0.6047395 0.6654096
0.6088817 0.6058056 0.6662397
0.6806758 0.6300935 0.6806758
0.7527807 0.7458475 0.7460025
0.7559595 0.7558921 0.7558922
0.6076527 0.6107227 0.6674518
0.6076526 0.6107227 0.6674518
0.6076524 0.6107213 0.6674519
0.6076387 0.6106521 0.6674549
0.6070243 0.6070243 0.6676945
0.6807737 0.6301915 0.6807737
0.7527806 0.7458483 0.7460003
0.7559595 0.7558921 0.7558922
0.6518383 0.6884993 0.6884993
0.6518383 0.6884993 0.6884993
0.6518382 0.6884991 0.6884991
0.6518312 0.6884922 0.6884922
0.6514850 0.6881460 0.6881460
0.6818182 0.6818182 0.6818182
0.7527830 0.7459170 0.7459170
0.7559596 0.7558923 0.7558923
0.7524557 0.7552028 0.7525136
0.7524557 0.7552028 0.7525136
0.7524557 0.7552028 0.7525136
0.7524557 0.7552027 0.7525135
0.7524546 0.7552023 0.7525113
0.7523985 0.7551815 0.7523985
0.7554626 0.7554626 0.7528603
0.7559615 0.7558984 0.7558971
0.7559629 0.7559881 0.7559630
0.7559629 0.7559881 0.7559630
0.7559629 0.7559881 0.7559630
0.7559629 0.7559881 0.7559630
0.7559629 0.7559881 0.7559630
0.7559629 0.7559881 0.7559629
0.7559624 0.7559879 0.7559619
0.7559909 0.7559909 0.7559679
0.7326811 0.7326811 0.7527626
0.7326811 0.7326811 0.7527626
0.7326811 0.7326811 0.7527626
0.7326806 0.7326804 0.7527625
0.7327043 0.7326932 0.7527643
0.7341715 0.7336558 0.7528869
0.7544046 0.7490078 0.7544046
0.7559599 0.7558928 0.7558942
0.7326811 0.7326811 0.7527626
0.7326811 0.7326811 0.7527626
0.7326811 0.7326811 0.7527626
0.7326806 0.7326804 0.7527625
0.7327043 0.7326932 0.7527643
0.7341715 0.7336558 0.7528869
0.7544046 0.7490078 0.7544046
0.7559599 0.7558928 0.7558942
0.7326812 0.7326812 0.7527626
0.7326812 0.7326812 0.7527626
0.7326812 0.7326812 0.7527626
0.7326806 0.7326804 0.7527625
0.7327043 0.7326932 0.7527643
0.7341715 0.7336558 0.7528869
0.7544046 0.7490078 0.7544046
0.7559599 0.7558928 0.7558942
0.7326823 0.7326825 0.7527627
0.7326823 0.7326825 0.7527627
0.7326823 0.7326825 0.7527627
0.7326817 0.7326817 0.7527626
0.7327042 0.7326933 0.7527643
0.7341714 0.7336560 0.7528869
0.7544046 0.7490078 0.7544046
0.7559599 0.7558928 0.7558942
0.7327376 0.7327487 0.7527690
0.7327376 0.7327487 0.7527690
0.7327376 0.7327487 0.7527690
0.7327371 0.7327479 0.7527689
0.7327098 0.7327098 0.7527655
0.7341683 0.7336631 0.7528871
0.7544047 0.7490082 0.7544047
0.7559599 0.7558928 0.7558942
0.7351852 0.7356547 0.7530562
0.7351852 0.7356547 0.7530562
0.7351852 0.7356546 0.7530562
0.7351847 0.7356540 0.7530562
0.7351626 0.7356235 0.7530532
0.7340220 0.7340220 0.7529020
0.7544094 0.7490305 0.7544094
0.7559599 0.7558928 0.7558942
0.7533028 0.7557694 0.7557694
0.7533028 0.7557694 0.7557694
0.7533028 0.7557694 0.7557694
0.7533028 0.7557694 0.7557694
0.7533021 0.7557694 0.7557694
0.7532695 0.7557667 0.7557667
0.7559958 0.7559958 0.7559958
0.7559600 0.7558936 0.7558936
0.7559631 0.7559882 0.7559636
0.7559631 0.7559882 0.7559636
0.7559631 0.7559882 0.7559636
0.7559631 0.7559882 0.7559636
0.7559631 0.7559882 0.7559636
0.7559631 0.7559882 0.7559636
0.7559626 0.7559880 0.7559626
0.7559908 0.7559908 0.7559675
0.7556907 0.7556907 0.7559407
0.7556907 0.7556907 0.7559407
0.7556907 0.7556907 0.7559407
0.7556907 0.7556907 0.7559407
0.7556907 0.7556907 0.7559407
0.7556911 0.7556910 0.7559407
0.7557138 0.7557090 0.7559443
0.7559790 0.7559273 0.7559790
0.7556907 0.7556907 0.7559407
0.7556907 0.7556907 0.7559407
0.7556907 0.7556907 0.7559407
0.7556907 0.7556907 0.7559407
0.7556907 0.7556907 0.7559407
0.7556911 0.7556910 0.7559407
0.7557138 0.7557090 0.7559443
0.7559790 0.7559273 0.7559790
0.7556907 0.7556907 0.7559407
0.7556907 0.7556907 0.7559407
0.7556907 0.7556907 0.7559407
0.7556907 0.7556907 0.7559407
0.7556907 0.7556907 0.7559407
0.7556911 0.7556910 0.7559407
0.7557138 0.7557090 0.7559443
0.7559790 0.7559273 0.7559790
0.7556907 0.7556907 0.7559407
0.7556907 0.7556907 0.7559407
0.7556907 0.7556907 0.7559407
0.7556907 0.7556907 0.7559407
0.7556907 0.7556907 0.7559407
0.7556911 0.7556910 0.7559407
0.7557138 0.7557090 0.7559443
0.7559790 0.7559273 0.7559790
0.7556908 0.7556908 0.7559407
0.7556908 0.7556908 0.7559407
0.7556908 0.7556908 0.7559407
0.7556908 0.7556908 0.7559407
0.7556907 0.7556907 0.7559407
0.7556911 0.7556910 0.7559407
0.7557138 0.7557090 0.7559443
0.7559790 0.7559273 0.7559790
0.7556918 0.7556919 0.7559409
0.7556918 0.7556919 0.7559409
0.7556918 0.7556919 0.7559409
0.7556918 0.7556919 0.7559409
0.7556918 0.7556919 0.7559409
0.7556912 0.7556912 0.7559408
0.7557138 0.7557091 0.7559443
0.7559790 0.7559273 0.7559790
0.7557362 0.7557405 0.7559493
0.7557362 0.7557405 0.7559493
0.7557362 0.7557405 0.7559493
0.7557362 0.7557405 0.7559493
0.7557362 0.7557405 0.7559493
0.7557358 0.7557400 0.7559492
0.7557141 0.7557141 0.7559449
0.7559791 0.7559275 0.7559791
0.7559711 0.7559937 0.7559937
0.7559711 0.7559937 0.7559937
0.7559711 0.7559937 0.7559937
0.7559711 0.7559937 0.7559937
0.7559711 0.7559937 0.7559937
0.7559711 0.7559937 0.7559937
0.7559708 0.7559937 0.7559937
0.7559958 0.7559958 0.7559958
