LUTs/guard_rail_p3.cube
TITLE "Guard Rail P3"
# Guard Rail Formation for P3 medium.
# The Guard Rail is designed to leaves valid value as-is, and only touch out of domain valuesModified from python script shared by Sakari Kapanen
# This LUT assumes input and output to be E Gamut encoded in Power 0.4 and then Log2 (-10 stop to +6.5 stop)
# LUT resolution 45
LUT_3D_SIZE 45
-0.0000000 0.0000000 -0.0000000
0.0227273 0.0000000 -0.0000000
0.0454545 0.0000000 -0.0000000
0.0681818 0.0000000 -0.0000000
0.0906801 0.0053012 0.0053012
0.1127607 0.0273818 0.0273818
0.1351455 0.0497666 0.0497666
0.1576926 0.0723137 0.0723137
0.1803255 0.0949465 0.0949465
0.2030033 0.1176244 0.1176244
0.2257048 0.1403258 0.1403258
0.2484186 0.1630396 0.1630396
0.2711388 0.1857598 0.1857598
0.2938624 0.2084834 0.2084834
0.3165877 0.2312088 0.2312088
0.3393140 0.2539350 0.2539350
0.3620407 0.2766618 0.2766618
0.3847677 0.2993888 0.2993888
0.4074949 0.3221159 0.3221159
0.4302221 0.3448431 0.3448431
0.4529493 0.3675703 0.3675703
0.4756766 0.3902976 0.3902976
0.4984038 0.4130249 0.4130249
0.5211311 0.4357521 0.4357521
0.5438584 0.4584794 0.4584794
0.5665856 0.4812067 0.4812067
0.5893129 0.5039339 0.5039339
0.6120402 0.5266612 0.5266612
0.6347674 0.5493885 0.5493885
0.6574947 0.5721157 0.5721157
0.6802220 0.5948430 0.5948430
0.7029493 0.6175703 0.6175703
0.7256765 0.6402976 0.6402976
0.7428891 0.6783028 0.6783028
0.7465295 0.7165332 0.7165332
0.7500903 0.7355169 0.7355169
0.7527481 0.7457959 0.7457959
0.7543561 0.7510990 0.7510990
0.7552073 0.7536979 0.7536979
0.7556260 0.7549304 0.7549304
0.7558245 0.7555048 0.7555048
0.7559169 0.7557701 0.7557701
0.7559595 0.7558922 0.7558922
0.7559792 0.7559483 0.7559483
0.7559882 0.7559740 0.7559740
-0.0000000 0.0227273 0.0000000
0.0227273 0.0227273 0.0000000
0.0454545 0.0227273 0.0000000
0.0681818 0.0227273 0.0000000
0.0906958 0.0268757 0.0082715
0.1129056 0.0400450 0.0290498
0.1352617 0.0568635 0.0506728
0.1577649 0.0761722 0.0727971
0.1803664 0.0970065 0.0952018
0.2030256 0.1187129 0.1177584
0.2257167 0.1408978 0.1403960
0.2484248 0.1633392 0.1630763
0.2711421 0.1859165 0.1857790
0.2938641 0.2085653 0.2084934
0.3165886 0.2312515 0.2312140
0.3393145 0.2539574 0.2539378
0.3620410 0.2766734 0.2766632
0.3847679 0.2993949 0.2993895
0.4074949 0.3221191 0.3221163
0.4302221 0.3448448 0.3448433
0.4529493 0.3675712 0.3675704
0.4756766 0.3902980 0.3902976
0.4984038 0.4130251 0.4130249
0.5211311 0.4357522 0.4357521
0.5438584 0.4584795 0.4584794
0.5665856 0.4812067 0.4812067
0.5893129 0.5039339 0.5039339
0.6120402 0.5266612 0.5266612
0.6347674 0.5493885 0.5493885
0.6574947 0.5721158 0.5721158
0.6802220 0.5948430 0.5948430
0.7029493 0.6175703 0.6175703
0.7256765 0.6402976 0.6402976
0.7428891 0.6783028 0.6783028
0.7465295 0.7165332 0.7165332
0.7500903 0.7355169 0.7355169
0.7527481 0.7457959 0.7457959
0.7543561 0.7510990 0.7510990
0.7552073 0.7536979 0.7536979
0.7556260 0.7549304 0.7549304
0.7558245 0.7555048 0.7555048
0.7559169 0.7557701 0.7557701
0.7559595 0.7558922 0.7558922
0.7559792 0.7559483 0.7559483
0.7559882 0.7559740 0.7559740
-0.0000000 0.0454545 0.0000000
0.0227273 0.0454545 0.0000000
0.0454545 0.0454545 0.0000000
0.0681818 0.0454545 0.0000000
0.0908902 0.0487740 0.0133967
0.1131828 0.0560797 0.0320385
0.1354751 0.0674262 0.0523424
0.1578992 0.0825625 0.0737031
0.1804435 0.1006468 0.0956850
0.2030679 0.1207091 0.1180136
0.2257393 0.1419682 0.1405301
0.2484368 0.1639062 0.1631465
0.2711484 0.1862148 0.1858157
0.2938674 0.2087217 0.2085126
0.3165904 0.2313334 0.2312240
0.3393154 0.2540001 0.2539430
0.3620415 0.2766958 0.2766659
0.3847681 0.2994065 0.2993909
0.4074951 0.3221252 0.3221170
0.4302222 0.3448479 0.3448437
0.4529494 0.3675729 0.3675706
0.4756766 0.3902989 0.3902978
0.4984038 0.4130255 0.4130249
0.5211311 0.4357525 0.4357522
0.5438584 0.4584796 0.4584794
0.5665856 0.4812068 0.4812067
0.5893129 0.5039340 0.5039339
0.6120402 0.5266612 0.5266612
0.6347674 0.5493885 0.5493885
0.6574947 0.5721158 0.5721158
0.6802220 0.5948430 0.5948430
0.7029493 0.6175703 0.6175703
0.7256765 0.6402976 0.6402976
0.7428891 0.6783028 0.6783028
0.7465295 0.7165332 0.7165332
0.7500903 0.7355169 0.7355169
0.7527481 0.7457959 0.7457959
0.7543561 0.7510990 0.7510990
0.7552073 0.7536979 0.7536979
0.7556260 0.7549304 0.7549304
0.7558245 0.7555048 0.7555048
0.7559169 0.7557701 0.7557701
0.7559595 0.7558922 0.7558922
0.7559792 0.7559483 0.7559483
0.7559882 0.7559740 0.7559740
0.0207720 0.0698800 0.0207720
0.0227273 0.0681818 0.0000000
0.0455590 0.0682147 0.0005010
0.0690038 0.0690038 0.0093165
0.0915427 0.0708632 0.0215883
0.1137108 0.0747231 0.0371359
0.1358578 0.0816306 0.0553246
0.1581436 0.0922969 0.0753709
0.1805866 0.1067237 0.0965905
0.2031474 0.1242453 0.1184967
0.2257822 0.1439327 0.1407852
0.2484596 0.1649674 0.1632806
0.2711604 0.1867792 0.1858859
0.2938737 0.2090192 0.2085493
0.3165937 0.2314895 0.2312432
0.3393171 0.2540819 0.2539530
0.3620424 0.2767385 0.2766712
0.3847686 0.2994289 0.2993937
0.4074953 0.3221368 0.3221185
0.4302223 0.3448540 0.3448444
0.4529494 0.3675760 0.3675710
0.4756766 0.3903006 0.3902980
0.4984039 0.4130264 0.4130250
0.5211311 0.4357529 0.4357522
0.5438584 0.4584798 0.4584794
0.5665856 0.4812069 0.4812067
0.5893129 0.5039340 0.5039339
0.6120402 0.5266613 0.5266612
0.6347674 0.5493885 0.5493885
0.6574947 0.5721158 0.5721158
0.6802220 0.5948430 0.5948430
0.7029493 0.6175703 0.6175703
0.7256765 0.6402976 0.6402976
0.7428891 0.6783028 0.6783028
0.7465295 0.7165332 0.7165332
0.7500903 0.7355169 0.7355169
0.7527481 0.7457959 0.7457959
0.7543561 0.7510990 0.7510990
0.7552073 0.7536979 0.7536979
0.7556260 0.7549304 0.7549304
0.7558245 0.7555048 0.7555048
0.7559169 0.7557701 0.7557701
0.7559595 0.7558922 0.7558922
0.7559792 0.7559483 0.7559483
0.7559882 0.7559740 0.7559740
0.0445748 0.0936828 0.0445748
0.0418878 0.0924197 0.0314954
0.0512902 0.0917140 0.0198162
0.0718637 0.0921604 0.0251307
0.0931154 0.0931154 0.0334281
0.1147061 0.0951082 0.0452135
0.1365258 0.0989773 0.0603932
0.1585747 0.1057166 0.0783465
0.1808461 0.1160787 0.0982568
0.2032949 0.1301712 0.1194019
0.2258630 0.1474171 0.1412682
0.2485029 0.1669157 0.1635357
0.2711833 0.1878357 0.1860200
0.2938858 0.2095822 0.2086196
0.3166000 0.2317867 0.2312799
0.3393204 0.2542379 0.2539722
0.3620441 0.2768203 0.2766812
0.3847695 0.2994716 0.2993989
0.4074958 0.3221592 0.3221212
0.4302225 0.3448657 0.3448459
0.4529496 0.3675821 0.3675718
0.4756767 0.3903038 0.3902983
0.4984039 0.4130281 0.4130252
0.5211311 0.4357538 0.4357523
0.5438584 0.4584803 0.4584795
0.5665856 0.4812071 0.4812067
0.5893129 0.5039342 0.5039340
0.6120402 0.5266613 0.5266612
0.6347674 0.5493885 0.5493885
0.6574947 0.5721158 0.5721158
0.6802220 0.5948430 0.5948430
0.7029493 0.6175703 0.6175703
0.7256765 0.6402976 0.6402976
0.7428891 0.6783028 0.6783028
0.7465295 0.7165332 0.7165332
0.7500903 0.7355169 0.7355169
0.7527481 0.7457959 0.7457959
0.7543561 0.7510990 0.7510990
0.7552073 0.7536979 0.7536979
0.7556260 0.7549304 0.7549304
0.7558245 0.7555048 0.7555048
0.7559169 0.7557701 0.7557701
0.7559595 0.7558922 0.7558922
0.7559792 0.7559483 0.7559483
0.7559882 0.7559740 0.7559740
0.0678507 0.1169588 0.0678507
0.0665267 0.1163118 0.0620192
0.0637350 0.1150496 0.0457015
0.0774628 0.1150179 0.0436894
0.0962655 0.1155202 0.0488032
0.1165442 0.1165442 0.0568569
0.1376718 0.1185938 0.0684041
0.1593081 0.1224658 0.0833971
0.1813007 0.1291256 0.1012282
0.2035619 0.1393405 0.1210672
0.2260127 0.1532672 0.1421732
0.2485843 0.1703737 0.1640187
0.2712268 0.1897756 0.1862751
0.2939087 0.2106363 0.2087536
0.3166120 0.2323490 0.2313501
0.3393267 0.2545349 0.2540089
0.3620474 0.2769763 0.2767004
0.3847712 0.2995533 0.2994089
0.4074967 0.3222019 0.3221264
0.4302230 0.3448880 0.3448486
0.4529498 0.3675938 0.3675732
0.4756768 0.3903098 0.3902991
0.4984040 0.4130313 0.4130256
0.5211312 0.4357555 0.4357525
0.5438584 0.4584811 0.4584796
0.5665856 0.4812076 0.4812068
0.5893129 0.5039344 0.5039340
0.6120402 0.5266615 0.5266612
0.6347674 0.5493886 0.5493885
0.6574947 0.5721158 0.5721158
0.6802220 0.5948431 0.5948430
0.7029493 0.6175703 0.6175703
0.7256765 0.6402976 0.6402976
0.7428891 0.6783028 0.6783028
0.7465295 0.7165332 0.7165332
0.7500903 0.7355169 0.7355169
0.7527481 0.7457959 0.7457959
0.7543561 0.7510990 0.7510990
0.7552073 0.7536979 0.7536979
0.7556260 0.7549304 0.7549304
0.7558245 0.7555048 0.7555048
0.7559169 0.7557701 0.7557701
0.7559595 0.7558922 0.7558922
0.7559792 0.7559483 0.7559483
0.7559882 0.7559740 0.7559740
0.0908611 0.1399692 0.0908611
0.0901890 0.1396348 0.0880238
0.0888406 0.1389878 0.0816180
0.0865231 0.1377831 0.0640492
0.1018214 0.1380483 0.0669962
0.1198232 0.1385762 0.0720121
0.1396323 0.1396323 0.0799450
0.1605262 0.1417085 0.0913718
0.1820664 0.1455814 0.1062688
0.2040284 0.1522017 0.1240363
0.2262836 0.1623426 0.1438380
0.2487352 0.1761851 0.1649235
0.2713085 0.1932199 0.1867580
0.2939523 0.2125719 0.2090087
0.3166350 0.2334018 0.2314842
0.3393388 0.2550969 0.2540791
0.3620537 0.2772731 0.2767371
0.3847745 0.2997093 0.2994281
0.4074984 0.3222836 0.3221365
0.4302239 0.3449308 0.3448538
0.4529503 0.3676161 0.3675759
0.4756771 0.3903215 0.3903005
0.4984041 0.4130373 0.4130264
0.5211312 0.4357586 0.4357529
0.5438584 0.4584828 0.4584798
0.5665857 0.4812084 0.4812069
0.5893129 0.5039349 0.5039340
0.6120402 0.5266617 0.5266613
0.6347674 0.5493887 0.5493885
0.6574947 0.5721159 0.5721158
0.6802220 0.5948431 0.5948430
0.7029493 0.6175703 0.6175703
0.7256765 0.6402976 0.6402976
0.7428891 0.6783028 0.6783028
0.7465295 0.7165332 0.7165332
0.7500903 0.7355169 0.7355169
0.7527481 0.7457959 0.7457959
0.7543561 0.7510990 0.7510990
0.7552073 0.7536979 0.7536979
0.7556260 0.7549304 0.7549304
0.7558245 0.7555048 0.7555048
0.7559169 0.7557701 0.7557701
0.7559595 0.7558922 0.7558922
0.7559792 0.7559483 0.7559483
0.7559882 0.7559740 0.7559740
0.1137353 0.1628434 0.1137353
0.1133893 0.1626697 0.1123038
0.1127110 0.1623353 0.1093358
0.1113495 0.1616884 0.1025885
0.1106025 0.1606608 0.0871078
0.1253611 0.1609342 0.0900212
0.1429731 0.1614747 0.0949878
0.1625465 0.1625465 0.1028592
0.1833204 0.1646359 0.1142241
0.2048104 0.1685091 0.1290714
0.2267562 0.1751093 0.1468058
0.2490081 0.1852123 0.1665880
0.2714600 0.1990114 0.1876628
0.2940342 0.2160091 0.2094916
0.3166786 0.2353352 0.2317393
0.3393618 0.2561490 0.2542132
0.3620658 0.2778349 0.2768073
0.3847808 0.3000061 0.2994649
0.4075017 0.3224396 0.3221557
0.4302256 0.3450125 0.3448639
0.4529512 0.3676589 0.3675812
0.4756775 0.3903438 0.3903033
0.4984043 0.4130490 0.4130278
0.5211314 0.4357647 0.4357537
0.5438585 0.4584860 0.4584802
0.5665857 0.4812101 0.4812071
0.5893129 0.5039357 0.5039342
0.6120402 0.5266621 0.5266613
0.6347675 0.5493890 0.5493885
0.6574947 0.5721160 0.5721158
0.6802220 0.5948432 0.5948430
0.7029493 0.6175704 0.6175703
0.7256765 0.6402976 0.6402976
0.7428891 0.6783028 0.6783028
0.7465295 0.7165332 0.7165332
0.7500903 0.7355169 0.7355169
0.7527481 0.7457959 0.7457959
0.7543561 0.7510990 0.7510990
0.7552073 0.7536979 0.7536979
0.7556260 0.7549304 0.7549304
0.7558245 0.7555048 0.7555048
0.7559169 0.7557701 0.7557701
0.7559595 0.7558922 0.7558922
0.7559792 0.7559483 0.7559483
0.7559882 0.7559740 0.7559740
0.1365390 0.1856471 0.1365390
0.1363597 0.1855567 0.1358044
0.1360120 0.1853830 0.1343403
0.1353305 0.1850486 0.1312998
0.1339621 0.1844017 0.1243609
0.1340103 0.1834668 0.1100065
0.1485025 0.1837444 0.1129027
0.1659181 0.1842912 0.1178439
0.1853710 0.1853710 0.1256837
0.2060828 0.1874670 0.1370166
0.2275466 0.1913404 0.1518380
0.2494839 0.1979302 0.1695551
0.2717339 0.2080136 0.1893272
0.2941860 0.2217902 0.2103964
0.3167606 0.2387687 0.2322222
0.3394054 0.2580812 0.2544683
0.3620888 0.2788866 0.2769414
0.3847929 0.3005678 0.2995351
0.4075080 0.3227364 0.3221924
0.4302290 0.3451684 0.3448831
0.4529529 0.3677406 0.3675912
0.4756784 0.3903866 0.3903085
0.4984048 0.4130713 0.4130305
0.5211316 0.4357764 0.4357551
0.5438586 0.4584921 0.4584809
0.5665858 0.4812133 0.4812075
0.5893130 0.5039374 0.5039344
0.6120402 0.5266630 0.5266614
0.6347675 0.5493894 0.5493886
0.6574947 0.5721162 0.5721158
0.6802220 0.5948433 0.5948431
0.7029493 0.6175704 0.6175703
0.7256765 0.6402976 0.6402976
0.7428891 0.6783028 0.6783028
0.7465295 0.7165332 0.7165332
0.7500903 0.7355169 0.7355169
0.7527481 0.7457959 0.7457959
0.7543561 0.7510990 0.7510990
0.7552073 0.7536979 0.7536979
0.7556260 0.7549304 0.7549304
0.7558245 0.7555048 0.7555048
0.7559169 0.7557701 0.7557701
0.7559595 0.7558922 0.7558922
0.7559792 0.7559483 0.7559483
0.7559882 0.7559740 0.7559740
0.1593062 0.2084142 0.1593062
0.1592129 0.2083671 0.1589260
0.1590331 0.2082766 0.1581829
0.1586846 0.2081029 0.1567011
0.1580013 0.2077685 0.1536215
0.1566294 0.2071217 0.1465786
0.1570864 0.2062352 0.1328228
0.1714435 0.2065149 0.1357101
0.1887584 0.2070650 0.1406383
0.2081489 0.2081489 0.1484616
0.2288285 0.2102484 0.1597779
0.2502786 0.2141218 0.1745858
0.2722113 0.2207062 0.1922939
0.2944605 0.2307795 0.2120606
0.3169126 0.2445443 0.2331269
0.3394875 0.2615128 0.2549512
0.3621324 0.2808183 0.2771965
0.3848159 0.3016194 0.2996691
0.4075201 0.3232980 0.3222626
0.4302353 0.3454652 0.3449198
0.4529562 0.3678965 0.3676104
0.4756802 0.3904683 0.3903185
0.4984057 0.4131141 0.4130358
0.5211321 0.4357987 0.4357578
0.5438589 0.4585037 0.4584824
0.5665859 0.4812194 0.4812082
0.5893130 0.5039406 0.5039347
0.6120402 0.5266647 0.5266616
0.6347675 0.5493903 0.5493887
0.6574947 0.5721167 0.5721159
0.6802220 0.5948435 0.5948431
0.7029493 0.6175706 0.6175703
0.7256765 0.6402977 0.6402976
0.7428891 0.6783028 0.6783028
0.7465295 0.7165332 0.7165332
0.7500903 0.7355169 0.7355169
0.7527481 0.7457959 0.7457959
0.7543561 0.7510990 0.7510990
0.7552073 0.7536979 0.7536979
0.7556260 0.7549304 0.7549304
0.7558245 0.7555048 0.7555048
0.7559169 0.7557701 0.7557701
0.7559595 0.7558922 0.7558922
0.7559792 0.7559483 0.7559483
0.7559882 0.7559740 0.7559740
0.1820542 0.2311623 0.1820542
0.1820056 0.2311377 0.1818567
0.1819122 0.2310905 0.1814742
0.1817322 0.2310001 0.1807265
0.1813832 0.2308264 0.1792355
0.1806991 0.2304920 0.1761350
0.1793252 0.2298451 0.1690367
0.1799940 0.2289840 0.1555964
0.1942816 0.2292648 0.1584792
0.2115444 0.2298166 0.1634005
0.2309026 0.2309026 0.1712153
0.2515654 0.2330038 0.1825229
0.2730084 0.2368773 0.1973238
0.2949387 0.2434589 0.2150272
0.3171873 0.2535269 0.2347911
0.3396395 0.2672856 0.2558559
0.3622145 0.2842489 0.2776794
0.3848596 0.3035507 0.2999242
0.4075431 0.3243495 0.3223966
0.4302474 0.3460268 0.3449900
0.4529625 0.3681933 0.3676471
0.4756835 0.3906242 0.3903377
0.4984074 0.4131958 0.4130458
0.5211330 0.4358415 0.4357631
0.5438593 0.4585261 0.4584851
0.5665861 0.4812310 0.4812096
0.5893132 0.5039467 0.5039355
0.6120403 0.5266679 0.5266620
0.6347675 0.5493919 0.5493889
0.6574948 0.5721176 0.5721160
0.6802220 0.5948440 0.5948431
0.7029493 0.6175708 0.6175704
0.7256765 0.6402978 0.6402976
0.7428891 0.6783029 0.6783028
0.7465295 0.7165332 0.7165332
0.7500903 0.7355169 0.7355169
0.7527481 0.7457959 0.7457959
0.7543561 0.7510990 0.7510990
0.7552073 0.7536979 0.7536979
0.7556260 0.7549304 0.7549304
0.7558245 0.7555048 0.7555048
0.7559169 0.7557701 0.7557701
0.7559595 0.7558922 0.7558922
0.7559792 0.7559483 0.7559483
0.7559882 0.7559740 0.7559740
0.2047924 0.2539004 0.2047924
0.2047670 0.2538876 0.2046894
0.2047184 0.2538630 0.2044912
0.2046249 0.2538158 0.2041076
0.2044447 0.2537254 0.2033576
0.2040956 0.2535517 0.2018616
0.2034109 0.2532173 0.1987502
0.2020361 0.2525704 0.1916226
0.2028150 0.2517226 0.1783479
0.2170665 0.2520039 0.1812282
0.2343023 0.2525566 0.1861460
0.2536437 0.2536437 0.1939564
0.2742977 0.2557458 0.2052594
0.2957369 0.2596193 0.2200567
0.3176661 0.2661994 0.2377576
0.3399144 0.2762646 0.2575201
0.3623666 0.2900202 0.2785841
0.3849417 0.3069807 0.3004071
0.4075868 0.3262806 0.3226517
0.4302704 0.3470782 0.3451240
0.4529746 0.3687548 0.3677173
0.4756898 0.3909210 0.3903744
0.4984107 0.4133517 0.4130650
0.5211347 0.4359232 0.4357731
0.5438602 0.4585688 0.4584903
0.5665866 0.4812534 0.4812124
0.5893134 0.5039583 0.5039369
0.6120404 0.5266739 0.5266628
0.6347676 0.5493951 0.5493893
0.6574948 0.5721192 0.5721162
0.6802220 0.5948448 0.5948432
0.7029493 0.6175712 0.6175704
0.7256765 0.6402981 0.6402976
0.7428891 0.6783030 0.6783028
0.7465295 0.7165332 0.7165332
0.7500903 0.7355169 0.7355169
0.7527481 0.7457959 0.7457959
0.7543561 0.7510990 0.7510990
0.7552073 0.7536979 0.7536979
0.7556260 0.7549304 0.7549304
0.7558245 0.7555048 0.7555048
0.7559169 0.7557701 0.7557701
0.7559595 0.7558922 0.7558922
0.7559792 0.7559483 0.7559483
0.7559882 0.7559740 0.7559740
0.2275253 0.2766334 0.2275253
0.2275121 0.2766267 0.2274716
0.2274867 0.2766138 0.2273685
0.2274380 0.2765892 0.2271700
0.2273445 0.2765421 0.2267857
0.2271643 0.2764516 0.2260345
0.2268150 0.2762779 0.2245359
0.2261301 0.2759435 0.2214188
0.2247548 0.2752967 0.2142758
0.2255911 0.2744557 0.2010878
0.2398239 0.2747374 0.2039668
0.2570456 0.2752905 0.2088828
0.2763781 0.2763781 0.2166908
0.2970276 0.2784807 0.2279915
0.3184649 0.2823542 0.2427869
0.3403934 0.2889336 0.2604865
0.3626416 0.2989974 0.2802483
0.3850938 0.3127513 0.3013118
0.4076689 0.3297104 0.3231346
0.4303140 0.3490093 0.3453791
0.4529976 0.3698063 0.3678514
0.4757019 0.3914825 0.3904446
0.4984171 0.4136485 0.4131017
0.5211380 0.4360791 0.4357923
0.5438620 0.4586505 0.4585004
0.5665875 0.4812961 0.4812176
0.5893139 0.5039807 0.5039397
0.6120407 0.5266856 0.5266642
0.6347677 0.5494012 0.5493900
0.6574949 0.5721224 0.5721166
0.6802221 0.5948465 0.5948434
0.7029493 0.6175721 0.6175705
0.7256766 0.6402985 0.6402977
0.7428891 0.6783031 0.6783029
0.7465295 0.7165332 0.7165332
0.7500903 0.7355169 0.7355169
0.7527481 0.7457959 0.7457959
0.7543561 0.7510990 0.7510990
0.7552073 0.7536979 0.7536979
0.7556260 0.7549304 0.7549304
0.7558245 0.7555048 0.7555048
0.7559169 0.7557701 0.7557701
0.7559595 0.7558922 0.7558922
0.7559792 0.7559483 0.7559483
0.7559882 0.7559740 0.7559740
0.2502555 0.2993636 0.2502555
0.2502486 0.2993601 0.2502275
0.2502354 0.2993534 0.2501738
0.2502100 0.2993405 0.2500706
0.2501613 0.2993159 0.2498719
0.2500678 0.2992688 0.2494873
0.2498876 0.2991784 0.2487354
0.2495382 0.2990047 0.2472355
0.2488532 0.2986702 0.2441154
0.2474776 0.2980234 0.2369644
0.2483438 0.2971860 0.2238216
0.2625668 0.2974678 0.2267001
0.2797812 0.2980212 0.2316150
0.2991092 0.2991092 0.2394219
0.3197562 0.3012120 0.2507213
0.3411925 0.3050855 0.2655157
0.3631207 0.3116645 0.2832146
0.3853688 0.3217275 0.3029760
0.4078210 0.3354806 0.3240393
0.4303961 0.3524389 0.3458620
0.4530413 0.3717373 0.3681065
0.4757249 0.3925339 0.3905787
0.4984291 0.4142100 0.4131719
0.5211443 0.4363759 0.4358290
0.5438653 0.4588064 0.4585196
0.5665892 0.4813778 0.4812276
0.5893148 0.5040234 0.5039449
0.6120412 0.5267079 0.5266669
0.6347680 0.5494129 0.5493915
0.6574950 0.5721285 0.5721173
0.6802221 0.5948497 0.5948438
0.7029493 0.6175738 0.6175707
0.7256766 0.6402994 0.6402978
0.7428891 0.6783034 0.6783030
0.7465295 0.7165333 0.7165332
0.7500903 0.7355170 0.7355170
0.7527481 0.7457959 0.7457959
0.7543561 0.7510990 0.7510990
0.7552073 0.7536979 0.7536979
0.7556260 0.7549304 0.7549304
0.7558245 0.7555048 0.7555048
0.7559169 0.7557701 0.7557701
0.7559595 0.7558922 0.7558922
0.7559792 0.7559483 0.7559483
0.7559882 0.7559740 0.7559740
0.2729844 0.3220924 0.2729844
0.2729807 0.3220906 0.2729697
0.2729738 0.3220871 0.2729417
0.2729606 0.3220804 0.2728880
0.2729352 0.3220675 0.2727848
0.2728865 0.3220429 0.2725860
0.2727930 0.3219958 0.2722012
0.2726128 0.3219053 0.2714489
0.2722634 0.3217316 0.2699483
0.2715783 0.3213972 0.2668266
0.2702025 0.3207504 0.2596714
0.2710844 0.3199149 0.2465524
0.2853023 0.3201968 0.2494304
0.3025128 0.3207503 0.2543449
0.3218384 0.3218384 0.2621511
0.3424842 0.3239414 0.2734499
0.3639200 0.3278149 0.2882437
0.3858479 0.3343936 0.3059423
0.4080960 0.3444563 0.3257035
0.4305483 0.3582089 0.3467667
0.4531234 0.3751669 0.3685894
0.4757685 0.3944649 0.3908338
0.4984521 0.4152614 0.4133060
0.5211564 0.4369374 0.4358992
0.5438716 0.4591032 0.4585563
0.5665925 0.4815337 0.4812468
0.5893165 0.5041051 0.5039549
0.6120421 0.5267507 0.5266722
0.6347684 0.5494352 0.5493942
0.6574952 0.5721402 0.5721187
0.6802223 0.5948558 0.5948446
0.7029494 0.6175770 0.6175711
0.7256766 0.6403010 0.6402980
0.7428891 0.6783039 0.6783031
0.7465295 0.7165334 0.7165333
0.7500903 0.7355170 0.7355170
0.7527481 0.7457959 0.7457959
0.7543561 0.7510990 0.7510990
0.7552073 0.7536979 0.7536979
0.7556260 0.7549304 0.7549304
0.7558245 0.7555048 0.7555048
0.7559169 0.7557701 0.7557701
0.7559595 0.7558922 0.7558922
0.7559792 0.7559483 0.7559483
0.7559882 0.7559740 0.7559740
0.2957124 0.3448205 0.2957124
0.2957105 0.3448195 0.2957048
0.2957069 0.3448177 0.2956902
0.2957000 0.3448142 0.2956622
0.2956868 0.3448075 0.2956084
0.2956614 0.3447947 0.2955052
0.2956127 0.3447701 0.2953063
0.2955192 0.3447229 0.2949215
0.2953389 0.3446325 0.2941690
0.2949895 0.3444588 0.2926680
0.2943044 0.3441244 0.2895455
0.2929286 0.3434775 0.2823881
0.2938186 0.3426430 0.2692814
0.3080339 0.3429249 0.2721593
0.3252424 0.3434785 0.2770735
0.3445667 0.3445667 0.2848794
0.3652118 0.3466698 0.2961779
0.3866473 0.3505433 0.3109714
0.4085752 0.3571219 0.3286698
0.4308233 0.3671844 0.3484309
0.4532755 0.3809367 0.3694941
0.4758506 0.3978945 0.3913167
0.4984958 0.4171924 0.4135611
0.5211794 0.4379888 0.4360332
0.5438837 0.4596647 0.4586265
0.5665989 0.4818305 0.4812836
0.5893198 0.5042610 0.5039741
0.6120438 0.5268324 0.5266822
0.6347693 0.5494779 0.5493994
0.6574957 0.5721625 0.5721215
0.6802225 0.5948674 0.5948460
0.7029495 0.6175830 0.6175719
0.7256767 0.6403042 0.6402984
0.7428892 0.6783049 0.6783033
0.7465295 0.7165336 0.7165334
0.7500903 0.7355171 0.7355170
0.7527481 0.7457959 0.7457959
0.7543561 0.7510990 0.7510990
0.7552073 0.7536979 0.7536979
0.7556260 0.7549304 0.7549304
0.7558245 0.7555048 0.7555048
0.7559169 0.7557701 0.7557701
0.7559595 0.7558922 0.7558922
0.7559792 0.7559483 0.7559483
0.7559882 0.7559740 0.7559740
0.3184401 0.3675482 0.3184401
0.3184391 0.3675477 0.3184361
0.3184373 0.3675467 0.3184285
0.3184337 0.3675449 0.3184139
0.3184267 0.3675414 0.3183859
0.3184135 0.3675347 0.3183321
0.3183881 0.3675219 0.3182288
0.3183394 0.3674973 0.3180300
0.3182459 0.3674501 0.3176451
0.3180656 0.3673597 0.3168925
0.3177162 0.3671860 0.3153913
0.3170311 0.3668516 0.3122684
0.3156552 0.3662047 0.3051099
0.3165494 0.3653707 0.2920096
0.3307634 0.3656527 0.2948874
0.3479708 0.3662062 0.2998015
0.3672945 0.3672945 0.3076072
0.3879393 0.3693976 0.3189055
0.4093746 0.3732711 0.3336989
0.4313025 0.3798497 0.3513972
0.4535506 0.3899120 0.3711582
0.4760028 0.4036643 0.3922214
0.4985779 0.4206219 0.4140440
0.5212231 0.4399198 0.4362884
0.5439067 0.4607161 0.4587605
0.5666109 0.4823920 0.4813538
0.5893261 0.5045578 0.5040108
0.6120471 0.5269883 0.5267014
0.6347711 0.5495596 0.5494095
0.6574966 0.5722052 0.5721267
0.6802230 0.5948898 0.5948487
0.7029498 0.6175947 0.6175733
0.7256768 0.6403103 0.6402991
0.7428892 0.6783068 0.6783038
0.7465296 0.7165340 0.7165336
0.7500904 0.7355172 0.7355171
0.7527481 0.7457959 0.7457959
0.7543561 0.7510990 0.7510990
0.7552073 0.7536979 0.7536979
0.7556260 0.7549304 0.7549304
0.7558245 0.7555048 0.7555048
0.7559169 0.7557701 0.7557701
0.7559595 0.7558922 0.7558922
0.7559792 0.7559483 0.7559483
0.7559882 0.7559740 0.7559740
0.3411676 0.3902757 0.3411676
0.3411671 0.3902754 0.3411655
0.3411661 0.3902749 0.3411616
0.3411642 0.3902740 0.3411539
0.3411606 0.3902721 0.3411393
0.3411537 0.3902686 0.3411113
0.3411405 0.3902619 0.3410575
0.3411151 0.3902491 0.3409542
0.3410664 0.3902245 0.3407554
0.3409729 0.3901773 0.3403704
0.3407926 0.3900869 0.3396178
0.3404432 0.3899132 0.3381166
0.3397580 0.3895788 0.3349934
0.3383821 0.3889319 0.3278343
0.3392786 0.3880982 0.3147374
0.3534918 0.3883802 0.3176151
0.3706987 0.3889338 0.3225292
0.3900221 0.3900221 0.3303348
0.4106667 0.3921252 0.3416330
0.4321019 0.3959987 0.3564263
0.4540298 0.4025772 0.3741246
0.4762778 0.4126395 0.3938856
0.4987301 0.4263917 0.4149487
