LUTs/Guard_Rail_Higher_Shaper_EOTF.spi1d
Version 1
From 0.0000000 1.0000000
Length 40960
Components 1
{
 0.0000000
 0.0000023
 0.0000047
 0.0000070
 0.0000094
 0.0000117
 0.0000140
 0.0000164
 0.0000187
 0.0000210
 0.0000234
 0.0000257
 0.0000281
 0.0000304
 0.0000327
 0.0000351
 0.0000374
 0.0000397
 0.0000421
 0.0000444
 0.0000468
 0.0000491
 0.0000514
 0.0000538
 0.0000561
 0.0000584
 0.0000608
 0.0000631
 0.0000655
 0.0000678
 0.0000701
 0.0000725
 0.0000748
 0.0000771
 0.0000795
 0.0000818
 0.0000842
 0.0000865
 0.0000888
 0.0000912
 0.0000935
 0.0000958
 0.0000982
 0.0001005
 0.0001029
 0.0001052
 0.0001075
 0.0001099
 0.0001122
 0.0001145
 0.0001169
 0.0001192
 0.0001216
 0.0001239
 0.0001262
 0.0001286
 0.0001309
 0.0001332
 0.0001356
 0.0001379
 0.0001403
 0.0001426
 0.0001449
 0.0001473
 0.0001496
 0.0001519
 0.0001543
 0.0001566
 0.0001590
 0.0001613
 0.0001636
 0.0001660
 0.0001683
 0.0001706
 0.0001730
 0.0001753
 0.0001777
 0.0001800
 0.0001823
 0.0001847
 0.0001870
 0.0001893
 0.0001917
 0.0001940
 0.0001964
 0.0001987
 0.0002010
 0.0002034
 0.0002057
 0.0002080
 0.0002104
 0.0002127
 0.0002151
 0.0002174
 0.0002197
 0.0002221
 0.0002244
 0.0002267
 0.0002291
 0.0002314
 0.0002338
 0.0002361
 0.0002384
 0.0002408
 0.0002431
 0.0002454
 0.0002478
 0.0002501
 0.0002525
 0.0002548
 0.0002571
 0.0002595
 0.0002618
 0.0002642
 0.0002665
 0.0002688
 0.0002712
 0.0002735
 0.0002758
 0.0002782
 0.0002805
 0.0002829
 0.0002852
 0.0002875
 0.0002899
 0.0002922
 0.0002945
 0.0002969
 0.0002992
 0.0003016
 0.0003039
 0.0003062
 0.0003086
 0.0003109
 0.0003132
 0.0003156
 0.0003179
 0.0003203
 0.0003226
 0.0003249
 0.0003273
 0.0003296
 0.0003319
 0.0003343
 0.0003366
 0.0003390
 0.0003413
 0.0003436
 0.0003460
 0.0003483
 0.0003506
 0.0003530
 0.0003553
 0.0003577
 0.0003600
 0.0003623
 0.0003647
 0.0003670
 0.0003693
 0.0003717
 0.0003740
 0.0003764
 0.0003787
 0.0003810
 0.0003834
 0.0003857
 0.0003880
 0.0003904
 0.0003927
 0.0003951
 0.0003974
 0.0003997
 0.0004021
 0.0004044
 0.0004067
 0.0004091
 0.0004114
 0.0004138
 0.0004161
 0.0004184
 0.0004208
 0.0004231
 0.0004254
 0.0004278
 0.0004301
 0.0004325
 0.0004348
 0.0004371
 0.0004395
 0.0004418
 0.0004441
 0.0004465
 0.0004488
 0.0004512
 0.0004535
 0.0004558
 0.0004582
 0.0004605
 0.0004628
 0.0004652
 0.0004675
 0.0004699
 0.0004722
 0.0004745
 0.0004769
 0.0004792
 0.0004815
 0.0004839
 0.0004862
 0.0004886
 0.0004909
 0.0004932
 0.0004956
 0.0004979
 0.0005002
 0.0005026
 0.0005049
 0.0005073
 0.0005096
 0.0005119
 0.0005143
 0.0005166
 0.0005190
 0.0005213
 0.0005236
 0.0005260
 0.0005283
 0.0005306
 0.0005330
 0.0005353
 0.0005377
 0.0005400
 0.0005423
 0.0005447
 0.0005470
 0.0005493
 0.0005517
 0.0005540
 0.0005564
 0.0005587
 0.0005610
 0.0005634
 0.0005657
 0.0005680
 0.0005704
 0.0005727
 0.0005751
 0.0005774
 0.0005797
 0.0005821
 0.0005844
 0.0005867
 0.0005891
 0.0005914
 0.0005938
 0.0005961
 0.0005984
 0.0006008
 0.0006031
 0.0006054
 0.0006078
 0.0006101
 0.0006125
 0.0006148
 0.0006171
 0.0006195
 0.0006218
 0.0006241
 0.0006265
 0.0006288
 0.0006312
 0.0006335
 0.0006358
 0.0006382
 0.0006405
 0.0006428
 0.0006452
 0.0006475
 0.0006499
 0.0006522
 0.0006545
 0.0006569
 0.0006592
 0.0006615
 0.0006639
 0.0006662
 0.0006686
 0.0006709
 0.0006732
 0.0006756
 0.0006779
 0.0006802
 0.0006826
 0.0006849
 0.0006873
 0.0006896
 0.0006919
 0.0006943
 0.0006966
 0.0006989
 0.0007013
 0.0007036
 0.0007060
 0.0007083
 0.0007106
 0.0007130
 0.0007153
 0.0007176
 0.0007200
 0.0007223
 0.0007247
 0.0007270
 0.0007293
 0.0007317
 0.0007340
 0.0007363
 0.0007387
 0.0007410
 0.0007434
 0.0007457
 0.0007480
 0.0007504
 0.0007527
 0.0007550
 0.0007574
 0.0007597
 0.0007621
 0.0007644
 0.0007667
 0.0007691
 0.0007714
 0.0007737
 0.0007761
 0.0007784
 0.0007808
 0.0007831
 0.0007854
 0.0007878
 0.0007901
 0.0007925
 0.0007948
 0.0007971
 0.0007995
 0.0008018
 0.0008041
 0.0008065
 0.0008088
 0.0008112
 0.0008135
 0.0008158
 0.0008182
 0.0008205
 0.0008228
 0.0008252
 0.0008275
 0.0008299
 0.0008322
 0.0008345
 0.0008369
 0.0008392
 0.0008415
 0.0008439
 0.0008462
 0.0008486
 0.0008509
 0.0008532
 0.0008556
 0.0008579
 0.0008602
 0.0008626
 0.0008649
 0.0008673
 0.0008696
 0.0008719
 0.0008743
 0.0008766
 0.0008789
 0.0008813
 0.0008836
 0.0008860
 0.0008883
 0.0008906
 0.0008930
 0.0008953
 0.0008976
 0.0009000
 0.0009023
 0.0009047
 0.0009070
 0.0009093
 0.0009117
 0.0009140
 0.0009163
 0.0009187
 0.0009210
 0.0009234
 0.0009257
 0.0009280
 0.0009304
 0.0009327
 0.0009350
 0.0009374
 0.0009397
 0.0009421
 0.0009444
 0.0009467
 0.0009491
 0.0009514
 0.0009537
 0.0009561
 0.0009584
 0.0009608
 0.0009631
 0.0009654
 0.0009678
 0.0009701
 0.0009724
 0.0009748
 0.0009771
 0.0009795
 0.0009818
 0.0009841
 0.0009865
 0.0009888
 0.0009911
 0.0009935
 0.0009958
 0.0009982
 0.0010005
 0.0010028
 0.0010052
 0.0010075
 0.0010098
 0.0010122
 0.0010145
 0.0010169
 0.0010192
 0.0010215
 0.0010239
 0.0010262
 0.0010285
 0.0010309
 0.0010332
 0.0010356
 0.0010379
 0.0010402
 0.0010426
 0.0010449
 0.0010473
 0.0010496
 0.0010519
 0.0010543
 0.0010566
 0.0010589
 0.0010613
 0.0010636
 0.0010660
 0.0010683
 0.0010706
 0.0010730
 0.0010753
 0.0010776
 0.0010800
 0.0010823
 0.0010847
 0.0010870
 0.0010893
 0.0010917
 0.0010940
 0.0010963
 0.0010987
 0.0011010
 0.0011034
 0.0011057
 0.0011080
 0.0011104
 0.0011127
 0.0011150
 0.0011174
 0.0011197
 0.0011221
 0.0011244
 0.0011267
 0.0011291
 0.0011314
 0.0011337
 0.0011361
 0.0011384
 0.0011408
 0.0011431
 0.0011454
 0.0011478
 0.0011501
 0.0011524
 0.0011548
 0.0011571
 0.0011595
 0.0011618
 0.0011641
 0.0011665
 0.0011688
 0.0011711
 0.0011735
 0.0011758
 0.0011782
 0.0011805
 0.0011828
 0.0011852
 0.0011875
 0.0011898
 0.0011922
 0.0011945
 0.0011969
 0.0011992
 0.0012015
 0.0012039
 0.0012062
 0.0012085
 0.0012109
 0.0012132
 0.0012156
 0.0012179
 0.0012202
 0.0012226
 0.0012249
 0.0012272
 0.0012296
 0.0012319
 0.0012343
 0.0012366
 0.0012389
 0.0012413
 0.0012436
 0.0012459
 0.0012483
 0.0012506
 0.0012530
 0.0012553
 0.0012576
 0.0012600
 0.0012623
 0.0012646
 0.0012670
 0.0012693
 0.0012717
 0.0012740
 0.0012763
 0.0012787
 0.0012810
 0.0012833
 0.0012857
 0.0012880
 0.0012904
 0.0012927
 0.0012950
 0.0012974
 0.0012997
 0.0013021
 0.0013044
 0.0013067
 0.0013091
 0.0013114
 0.0013137
 0.0013161
 0.0013184
 0.0013208
 0.0013231
 0.0013254
 0.0013278
 0.0013301
 0.0013324
 0.0013348
 0.0013371
 0.0013395
 0.0013418
 0.0013441
 0.0013465
 0.0013488
 0.0013511
 0.0013535
 0.0013558
 0.0013582
 0.0013605
 0.0013628
 0.0013652
 0.0013675
 0.0013698
 0.0013722
 0.0013745
 0.0013769
 0.0013792
 0.0013815
 0.0013839
 0.0013862
 0.0013885
 0.0013909
 0.0013932
 0.0013956
 0.0013979
 0.0014002
 0.0014026
 0.0014049
 0.0014072
 0.0014096
 0.0014119
 0.0014143
 0.0014166
 0.0014189
 0.0014213
 0.0014236
 0.0014259
 0.0014283
 0.0014306
 0.0014330
 0.0014353
 0.0014376
 0.0014400
 0.0014423
 0.0014446
 0.0014470
 0.0014493
 0.0014517
 0.0014540
 0.0014563
 0.0014587
 0.0014610
 0.0014633
 0.0014657
 0.0014680
 0.0014704
 0.0014727
 0.0014750
 0.0014774
 0.0014797
 0.0014820
 0.0014844
 0.0014867
 0.0014891
 0.0014914
 0.0014937
 0.0014961
 0.0014984
 0.0015007
 0.0015031
 0.0015054
 0.0015078
 0.0015101
 0.0015124
 0.0015148
 0.0015171
 0.0015194
 0.0015218
 0.0015241
 0.0015265
 0.0015288
 0.0015311
 0.0015335
 0.0015358
 0.0015381
 0.0015405
 0.0015428
 0.0015452
 0.0015475
 0.0015498
 0.0015522
 0.0015545
 0.0015569
 0.0015592
 0.0015615
 0.0015639
 0.0015662
 0.0015685
 0.0015709
 0.0015732
 0.0015756
 0.0015779
 0.0015802
 0.0015826
 0.0015849
 0.0015872
 0.0015896
 0.0015919
 0.0015943
 0.0015966
 0.0015989
 0.0016013
 0.0016036
 0.0016059
 0.0016083
 0.0016106
 0.0016130
 0.0016153
 0.0016176
 0.0016200
 0.0016223
 0.0016246
 0.0016270
 0.0016293
 0.0016317
 0.0016340
 0.0016363
 0.0016387
 0.0016410
 0.0016433
 0.0016457
 0.0016480
 0.0016504
 0.0016527
 0.0016550
 0.0016574
 0.0016597
 0.0016620
 0.0016644
 0.0016667
 0.0016691
 0.0016714
 0.0016737
 0.0016761
 0.0016784
 0.0016807
 0.0016831
 0.0016854
 0.0016878
 0.0016901
 0.0016924
 0.0016948
 0.0016971
 0.0016994
 0.0017018
 0.0017041
 0.0017065
 0.0017088
 0.0017111
 0.0017135
 0.0017158
 0.0017181
 0.0017205
 0.0017228
 0.0017252
 0.0017275
 0.0017298
 0.0017322
 0.0017345
 0.0017368
 0.0017392
 0.0017415
 0.0017439
 0.0017462
 0.0017485
 0.0017509
 0.0017532
 0.0017555
 0.0017579
 0.0017602
 0.0017626
 0.0017649
 0.0017672
 0.0017696
 0.0017719
 0.0017742
 0.0017766
 0.0017789
 0.0017813
 0.0017836
 0.0017859
 0.0017883
 0.0017906
 0.0017929
 0.0017953
 0.0017976
 0.0018000
 0.0018023
 0.0018046
 0.0018070
 0.0018093
 0.0018117
 0.0018140
 0.0018163
 0.0018187
 0.0018210
 0.0018233
 0.0018257
 0.0018280
 0.0018304
 0.0018327
 0.0018350
 0.0018374
 0.0018397
 0.0018420
 0.0018444
 0.0018467
 0.0018491
 0.0018514
 0.0018537
 0.0018561
 0.0018584
 0.0018607
 0.0018631
 0.0018654
 0.0018678
 0.0018701
 0.0018724
 0.0018748
 0.0018771
 0.0018794
 0.0018818
 0.0018841
 0.0018865
 0.0018888
 0.0018911
 0.0018935
 0.0018958
 0.0018981
 0.0019005
 0.0019028
 0.0019052
 0.0019075
 0.0019098
 0.0019122
 0.0019145
 0.0019168
 0.0019192
 0.0019215
 0.0019239
 0.0019262
 0.0019285
 0.0019309
 0.0019332
 0.0019355
 0.0019379
 0.0019402
 0.0019426
 0.0019449
 0.0019472
 0.0019496
 0.0019519
 0.0019542
 0.0019566
 0.0019589
 0.0019613
 0.0019636
 0.0019659
 0.0019683
 0.0019706
 0.0019729
 0.0019753
 0.0019776
 0.0019800
 0.0019823
 0.0019846
 0.0019870
 0.0019893
 0.0019916
 0.0019940
 0.0019963
 0.0019987
 0.0020010
 0.0020033
 0.0020057
 0.0020080
 0.0020103
 0.0020127
 0.0020150
 0.0020174
 0.0020197
 0.0020220
 0.0020244
 0.0020267
 0.0020290
 0.0020314
 0.0020337
 0.0020361
 0.0020384
 0.0020407
 0.0020431
 0.0020454
 0.0020477
 0.0020501
 0.0020524
 0.0020548
 0.0020571
 0.0020594
 0.0020618
 0.0020641
 0.0020664
 0.0020688
 0.0020711
 0.0020735
 0.0020758
 0.0020781
 0.0020805
 0.0020828
 0.0020852
 0.0020875
 0.0020898
 0.0020922
 0.0020945
 0.0020968
 0.0020992
 0.0021015
 0.0021039
 0.0021062
 0.0021085
 0.0021109
 0.0021132
 0.0021155
 0.0021179
 0.0021202
 0.0021226
 0.0021249
 0.0021272
 0.0021296
 0.0021319
 0.0021342
 0.0021366
 0.0021389
 0.0021413
 0.0021436
 0.0021459
 0.0021483
 0.0021506
 0.0021529
 0.0021553
 0.0021576
 0.0021600
 0.0021623
 0.0021646
 0.0021670
 0.0021693
 0.0021716
 0.0021740
 0.0021763
 0.0021787
 0.0021810
 0.0021833
 0.0021857
 0.0021880
 0.0021903
 0.0021927
 0.0021950
 0.0021974
 0.0021997
 0.0022020
 0.0022044
 0.0022067
 0.0022090
 0.0022114
 0.0022137
 0.0022161
 0.0022184
 0.0022207
 0.0022231
 0.0022254
 0.0022277
 0.0022301
 0.0022324
 0.0022348
 0.0022371
 0.0022394
 0.0022418
 0.0022441
 0.0022464
 0.0022488
 0.0022511
 0.0022535
 0.0022558
 0.0022581
 0.0022605
 0.0022628
 0.0022651
 0.0022675
 0.0022698
 0.0022722
 0.0022745
 0.0022768
 0.0022792
 0.0022815
 0.0022838
 0.0022862
 0.0022885
 0.0022909
 0.0022932
 0.0022955
 0.0022979
 0.0023002
 0.0023025
 0.0023049
 0.0023072
 0.0023096
 0.0023119
 0.0023142
 0.0023166
 0.0023189
 0.0023212
 0.0023236
 0.0023259
 0.0023283
 0.0023306
 0.0023329
 0.0023353
 0.0023376
 0.0023400
 0.0023423
 0.0023446
 0.0023470
 0.0023493
 0.0023516
 0.0023540
 0.0023563
 0.0023587
 0.0023610
 0.0023633
 0.0023657
 0.0023680
 0.0023703
 0.0023727
 0.0023750
 0.0023774
 0.0023797
 0.0023820
 0.0023844
 0.0023867
 0.0023890
 0.0023914
 0.0023937
 0.0023961
 0.0023984
 0.0024007
 0.0024031
 0.0024054
 0.0024077
 0.0024101
 0.0024124
 0.0024148
 0.0024171
 0.0024194
 0.0024218
 0.0024241
 0.0024264
 0.0024288
 0.0024311
 0.0024335
 0.0024358
 0.0024381
 0.0024405
 0.0024428
 0.0024451
 0.0024475
 0.0024498
 0.0024522
 0.0024545
 0.0024568
 0.0024592
 0.0024615
 0.0024638
 0.0024662
 0.0024685
 0.0024709
 0.0024732
 0.0024755
 0.0024779
 0.0024802
 0.0024825
 0.0024849
 0.0024872
 0.0024896
 0.0024919
 0.0024942
 0.0024966
 0.0024989
 0.0025012
 0.0025036
 0.0025059
 0.0025083
 0.0025106
 0.0025129
 0.0025153
 0.0025176
 0.0025199
 0.0025223
 0.0025246
 0.0025270
 0.0025293
 0.0025316
 0.0025340
 0.0025363
 0.0025386
 0.0025410
 0.0025433
 0.0025457
 0.0025480
 0.0025503
 0.0025527
 0.0025550
 0.0025573
 0.0025597
 0.0025620
 0.0025644
 0.0025667
 0.0025690
 0.0025714
 0.0025737
 0.0025760
 0.0025784
 0.0025807
 0.0025831
 0.0025854
 0.0025877
 0.0025901
 0.0025924
 0.0025948
 0.0025971
 0.0025994
 0.0026018
 0.0026041
 0.0026064
 0.0026088
 0.0026111
 0.0026135
 0.0026158
 0.0026181
 0.0026205
 0.0026228
 0.0026251
 0.0026275
 0.0026298
 0.0026322
 0.0026345
 0.0026368
 0.0026392
 0.0026415
 0.0026439
 0.0026462
 0.0026485
 0.0026509
 0.0026532
 0.0026556
 0.0026579
 0.0026603
 0.0026626
 0.0026650
 0.0026673
 0.0026697
 0.0026720
 0.0026744
 0.0026767
 0.0026791
 0.0026814
 0.0026838
 0.0026861
 0.0026885
 0.0026908
 0.0026932
 0.0026955
 0.0026979
 0.0027002
 0.0027026
 0.0027049
 0.0027073
 0.0027097
 0.0027120
 0.0027144
 0.0027167
 0.0027191
 0.0027214
 0.0027238
 0.0027262
 0.0027285
 0.0027309
 0.0027333
 0.0027356
 0.0027380
 0.0027403
 0.0027427
 0.0027451
 0.0027474
 0.0027498
 0.0027522
 0.0027545
 0.0027569
 0.0027593
 0.0027616
 0.0027640
 0.0027664
 0.0027688
 0.0027711
 0.0027735
 0.0027759
 0.0027782
 0.0027806
 0.0027830
 0.0027854
 0.0027877
 0.0027901
 0.0027925
 0.0027949
 0.0027972
 0.0027996
 0.0028020
 0.0028044
 0.0028068
 0.0028091
 0.0028115
 0.0028139
 0.0028163
 0.0028187
 0.0028211
 0.0028234
 0.0028258
 0.0028282
 0.0028306
 0.0028330
 0.0028354
 0.0028377
 0.0028401
 0.0028425
 0.0028449
 0.0028473
 0.0028497
 0.0028521
 0.0028545
 0.0028569
 0.0028593
 0.0028616
 0.0028640
 0.0028664
 0.0028688
 0.0028712
 0.0028736
 0.0028760
 0.0028784
 0.0028808
 0.0028832
 0.0028856
 0.0028880
 0.0028904
 0.0028928
 0.0028952
 0.0028976
 0.0029000
 0.0029024
 0.0029048
 0.0029072
 0.0029096
 0.0029120
 0.0029144
 0.0029168
 0.0029192
 0.0029216
 0.0029240
 0.0029264
 0.0029289
 0.0029313
 0.0029337
 0.0029361
 0.0029385
 0.0029409
 0.0029433
 0.0029457
 0.0029481
 0.0029505
 0.0029530
 0.0029554
 0.0029578
 0.0029602
 0.0029626
 0.0029650
 0.0029674
 0.0029699
 0.0029723
 0.0029747
 0.0029771
 0.0029795
 0.0029820
 0.0029844
 0.0029868
 0.0029892
 0.0029916
 0.0029941
 0.0029965
 0.0029989
 0.0030013
 0.0030038
 0.0030062
 0.0030086
 0.0030110
 0.0030135
 0.0030159
 0.0030183
 0.0030208
 0.0030232
 0.0030256
 0.0030280
 0.0030305
 0.0030329
 0.0030353
 0.0030378
 0.0030402
 0.0030426
 0.0030451
 0.0030475
 0.0030499
 0.0030524
 0.0030548
 0.0030573
 0.0030597
 0.0030621
 0.0030646
 0.0030670
 0.0030695
 0.0030719
 0.0030743
 0.0030768
 0.0030792
 0.0030817
 0.0030841
 0.0030866
 0.0030890
 0.0030914
 0.0030939
 0.0030963
 0.0030988
 0.0031012
 0.0031037
 0.0031061
 0.0031086
 0.0031110
 0.0031135
 0.0031159
 0.0031184
 0.0031208
 0.0031233
 0.0031257
 0.0031282
 0.0031306
 0.0031331
 0.0031356
 0.0031380
 0.0031405
 0.0031429
 0.0031454
 0.0031478
 0.0031503
 0.0031528
 0.0031552
 0.0031577
 0.0031601
 0.0031626
 0.0031651
 0.0031675
 0.0031700
 0.0031725
 0.0031749
 0.0031774
 0.0031798
 0.0031823
 0.0031848
 0.0031872
 0.0031897
 0.0031922
 0.0031947
 0.0031971
 0.0031996
 0.0032021
 0.0032045
 0.0032070
 0.0032095
 0.0032120
 0.0032144
 0.0032169
 0.0032194
 0.0032218
 0.0032243
 0.0032268
 0.0032293
 0.0032318
 0.0032342
 0.0032367
 0.0032392
 0.0032417
 0.0032442
 0.0032466
 0.0032491
 0.0032516
 0.0032541
 0.0032566
 0.0032590
 0.0032615
 0.0032640
 0.0032665
 0.0032690
 0.0032715
 0.0032740
 0.0032765
 0.0032789
 0.0032814
 0.0032839
 0.0032864
 0.0032889
 0.0032914
 0.0032939
 0.0032964
 0.0032989
 0.0033014
 0.0033039
 0.0033064
 0.0033088
 0.0033113
 0.0033138
 0.0033163
 0.0033188
 0.0033213
 0.0033238
 0.0033263
 0.0033288
 0.0033313
 0.0033338
 0.0033363
 0.0033388
 0.0033413
 0.0033438
 0.0033463
 0.0033489
 0.0033514
 0.0033539
 0.0033564
 0.0033589
 0.0033614
 0.0033639
 0.0033664
 0.0033689
 0.0033714
 0.0033739
 0.0033764
 0.0033790
 0.0033815
 0.0033840
 0.0033865
 0.0033890
 0.0033915
 0.0033940
 0.0033966
 0.0033991
 0.0034016
 0.0034041
 0.0034066
 0.0034091
 0.0034117
 0.0034142
 0.0034167
 0.0034192
 0.0034217
 0.0034243
 0.0034268
 0.0034293
 0.0034318
 0.0034344
 0.0034369
 0.0034394
 0.0034419
 0.0034445
 0.0034470
 0.0034495
 0.0034520
 0.0034546
 0.0034571
 0.0034596
 0.0034622
 0.0034647
 0.0034672
 0.0034698
 0.0034723
 0.0034748
 0.0034774
 0.0034799
 0.0034824
 0.0034850
 0.0034875
 0.0034900
 0.0034926
 0.0034951
 0.0034977
 0.0035002
 0.0035027
 0.0035053
 0.0035078
 0.0035104
 0.0035129
 0.0035154
 0.0035180
 0.0035205
 0.0035231
 0.0035256
 0.0035282
 0.0035307
 0.0035333
 0.0035358
 0.0035384
 0.0035409
 0.0035435
 0.0035460
 0.0035486
 0.0035511
 0.0035537
 0.0035562
 0.0035588
 0.0035613
 0.0035639
 0.0035664
 0.0035690
 0.0035715
 0.0035741
 0.0035767
 0.0035792
 0.0035818
 0.0035843
 0.0035869
 0.0035895
 0.0035920
 0.0035946
 0.0035971
 0.0035997
 0.0036023
 0.0036048
 0.0036074
 0.0036100
 0.0036125
 0.0036151
 0.0036177
 0.0036202
 0.0036228
 0.0036254
 0.0036279
 0.0036305
 0.0036331
 0.0036356
 0.0036382
 0.0036408
 0.0036434
 0.0036459
 0.0036485
 0.0036511
 0.0036537
 0.0036562
 0.0036588
 0.0036614
 0.0036640
 0.0036665
 0.0036691
 0.0036717
 0.0036743
 0.0036769
 0.0036794
 0.0036820
 0.0036846
 0.0036872
 0.0036898
 0.0036923
 0.0036949
 0.0036975
 0.0037001
 0.0037027
 0.0037053
 0.0037079
 0.0037105
 0.0037130
 0.0037156
 0.0037182
 0.0037208
 0.0037234
 0.0037260
 0.0037286
 0.0037312
 0.0037338
 0.0037364
 0.0037390
 0.0037416
 0.0037442
 0.0037467
 0.0037493
 0.0037519
 0.0037545
 0.0037571
 0.0037597
 0.0037623
 0.0037649
 0.0037675
 0.0037701
 0.0037727
 0.0037754
 0.0037780
 0.0037806
 0.0037832
 0.0037858
 0.0037884
 0.0037910
 0.0037936
 0.0037962
 0.0037988
 0.0038014
 0.0038040
 0.0038066
 0.0038092
 0.0038119
 0.0038145
 0.0038171
 0.0038197
 0.0038223
 0.0038249
 0.0038275
 0.0038302
 0.0038328
 0.0038354
 0.0038380
 0.0038406
 0.0038432
 0.0038459
 0.0038485
 0.0038511
 0.0038537
 0.0038563
 0.0038590
 0.0038616
 0.0038642
 0.0038668
 0.0038695
 0.0038721
 0.0038747
 0.0038773
 0.0038800
 0.0038826
 0.0038852
 0.0038879
 0.0038905
 0.0038931
 0.0038957
 0.0038984
 0.0039010
 0.0039036
 0.0039063
 0.0039089
 0.0039115
 0.0039142
 0.0039168
 0.0039195
 0.0039221
 0.0039247
 0.0039274
 0.0039300
 0.0039326
 0.0039353
 0.0039379
 0.0039406
 0.0039432
 0.0039459
 0.0039485
 0.0039511
 0.0039538
 0.0039564
 0.0039591
 0.0039617
 0.0039644
 0.0039670
 0.0039697
 0.0039723
 0.0039750
 0.0039776
 0.0039803
 0.0039829
 0.0039856
 0.0039882
 0.0039909
 0.0039935
 0.0039962
 0.0039988
 0.0040015
 0.0040041
 0.0040068
 0.0040095
 0.0040121
 0.0040148
 0.0040174
 0.0040201
 0.0040227
 0.0040254
 0.0040281
 0.0040307
 0.0040334
 0.0040361
 0.0040387
 0.0040414
 0.0040441
 0.0040467
 0.0040494
 0.0040521
 0.0040547
 0.0040574
 0.0040601
 0.0040627
 0.0040654
 0.0040681
 0.0040707
 0.0040734
 0.0040761
 0.0040788
 0.0040814
 0.0040841
 0.0040868
 0.0040895
 0.0040921
 0.0040948
 0.0040975
 0.0041002
 0.0041028
 0.0041055
 0.0041082
 0.0041109
 0.0041136
 0.0041162
 0.0041189
 0.0041216
 0.0041243
 0.0041270
 0.0041297
 0.0041323
 0.0041350
 0.0041377
 0.0041404
 0.0041431
 0.0041458
 0.0041485
 0.0041512
 0.0041539
 0.0041565
 0.0041592
 0.0041619
 0.0041646
 0.0041673
 0.0041700
 0.0041727
 0.0041754
 0.0041781
 0.0041808
 0.0041835
 0.0041862
 0.0041889
 0.0041916
 0.0041943
 0.0041970
 0.0041997
 0.0042024
 0.0042051
 0.0042078
 0.0042105
 0.0042132
 0.0042159
 0.0042186
 0.0042213
 0.0042240
 0.0042267
 0.0042294
 0.0042322
 0.0042349
 0.0042376
 0.0042403
 0.0042430
 0.0042457
 0.0042484
 0.0042511
 0.0042538
 0.0042566
 0.0042593
 0.0042620
 0.0042647
 0.0042674
 0.0042701
 0.0042729
 0.0042756
 0.0042783
 0.0042810
 0.0042837
 0.0042865
 0.0042892
 0.0042919
 0.0042946
 0.0042973
 0.0043001
 0.0043028
 0.0043055
 0.0043082
 0.0043110
 0.0043137
 0.0043164
 0.0043192
 0.0043219
 0.0043246
 0.0043273
 0.0043301
 0.0043328
 0.0043355
 0.0043383
 0.0043410
 0.0043437
 0.0043465
 0.0043492
 0.0043520
 0.0043547
 0.0043574
 0.0043602
 0.0043629
 0.0043656
 0.0043684
 0.0043711
 0.0043739
 0.0043766
 0.0043793
 0.0043821
 0.0043848
 0.0043876
 0.0043903
 0.0043931
 0.0043958
 0.0043986
 0.0044013
 0.0044041
 0.0044068
 0.0044096
 0.0044123
 0.0044151
 0.0044178
 0.0044206
 0.0044233
 0.0044261
 0.0044288
 0.0044316
 0.0044343
 0.0044371
 0.0044398
 0.0044426
 0.0044454
 0.0044481
 0.0044509
 0.0044536
 0.0044564
 0.0044592
 0.0044619
 0.0044647
 0.0044674
 0.0044702
 0.0044730
 0.0044757
 0.0044785
 0.0044813
 0.0044840
 0.0044868
 0.0044896
 0.0044923
 0.0044951
 0.0044979
 0.0045007
 0.0045034
 0.0045062
 0.0045090
 0.0045117
 0.0045145
 0.0045173
 0.0045201
 0.0045228
 0.0045256
 0.0045284
 0.0045312
 0.0045339
 0.0045367
 0.0045395
 0.0045423
 0.0045451
 0.0045478
 0.0045506
 0.0045534
 0.0045562
 0.0045590
 0.0045618
 0.0045646
 0.0045673
 0.0045701
 0.0045729
 0.0045757
 0.0045785
 0.0045813
 0.0045841
 0.0045869
 0.0045896
 0.0045924
 0.0045952
 0.0045980
 0.0046008
 0.0046036
 0.0046064
 0.0046092
 0.0046120
 0.0046148
 0.0046176
 0.0046204
 0.0046232
 0.0046260
 0.0046288
 0.0046316
 0.0046344
 0.0046372
 0.0046400
 0.0046428
 0.0046456
 0.0046484
 0.0046512
 0.0046540
 0.0046568
 0.0046596
 0.0046624
 0.0046653
 0.0046681
 0.0046709
 0.0046737
 0.0046765
 0.0046793
 0.0046821
 0.0046849
 0.0046877
 0.0046906
 0.0046934
 0.0046962
 0.0046990
 0.0047018
 0.0047046
 0.0047075
 0.0047103
 0.0047131
 0.0047159
 0.0047187
 0.0047216
 0.0047244
 0.0047272
 0.0047300
 0.0047329
 0.0047357
 0.0047385
 0.0047413
 0.0047442
 0.0047470
 0.0047498
 0.0047526
 0.0047555
 0.0047583
 0.0047611
 0.0047640
 0.0047668
 0.0047696
 0.0047725
 0.0047753
 0.0047781
 0.0047810
 0.0047838
 0.0047866
 0.0047895
 0.0047923
 0.0047952
 0.0047980
 0.0048008
 0.0048037
 0.0048065
 0.0048094
 0.0048122
 0.0048150
 0.0048179
 0.0048207
 0.0048236
 0.0048264
 0.0048293
 0.0048321
 0.0048350
 0.0048378
 0.0048407
 0.0048435
 0.0048464
 0.0048492
 0.0048521
 0.0048549
 0.0048578
 0.0048606
 0.0048635
 0.0048663
 0.0048692
 0.0048720
 0.0048749
 0.0048778
