LUTs/guard_rail_srgb.cube
TITLE "Guard Rail sRGB"
# Guard Rail Formation for sRGB medium.
# The Guard Rail is designed to leaves valid value as-is, and only touch out of domain valuesModified from python script shared by Sakari Kapanen
# This LUT assumes E Gamut encoded in ST2084 (10) curve and then power 1.5
# LUT resolution 50
LUT_3D_SIZE 50
0.0000000 0.0000000 0.0000000
0.0197516 0.0053307 0.0053307
0.0396403 0.0121341 0.0121341
0.0595915 0.0197993 0.0197993
0.0795855 0.0281324 0.0281324
0.0996128 0.0370269 0.0370269
0.1196672 0.0464134 0.0464134
0.1397447 0.0562420 0.0562420
0.1598425 0.0664752 0.0664752
0.1799581 0.0770832 0.0770832
0.2000898 0.0880415 0.0880415
0.2202363 0.0993301 0.0993301
0.2403962 0.1109316 0.1109316
0.2605687 0.1228312 0.1228312
0.2807527 0.1350159 0.1350159
0.3009477 0.1474742 0.1474742
0.3211528 0.1601960 0.1601960
0.3413677 0.1731719 0.1731719
0.3615917 0.1863939 0.1863939
0.3818244 0.1998542 0.1998542
0.4020654 0.2135459 0.2135459
0.4223143 0.2274629 0.2274629
0.4425708 0.2415991 0.2415991
0.4628346 0.2559491 0.2559491
0.4831053 0.2705079 0.2705079
0.5033828 0.2852709 0.2852709
0.5236668 0.3002335 0.3002335
0.5439570 0.3153917 0.3153917
0.5642533 0.3307415 0.3307415
0.5746230 0.3630763 0.3630763
0.5789201 0.3990430 0.3990430
0.5833956 0.4291737 0.4291737
0.5879943 0.4551813 0.4551813
0.5926561 0.4780162 0.4780162
0.5973189 0.4982612 0.4982612
0.6019218 0.5163028 0.5163028
0.6064080 0.5324163 0.5324163
0.6107275 0.5468110 0.5468110
0.6148383 0.5596562 0.5596562
0.6187081 0.5710967 0.5710967
0.6223143 0.5812608 0.5812608
0.6256434 0.5902662 0.5902662
0.6286905 0.5982222 0.5982222
0.6314578 0.6052310 0.6052310
0.6339537 0.6113886 0.6113886
0.6361907 0.6167842 0.6167842
0.6381845 0.6215009 0.6215009
0.6399529 0.6256152 0.6256152
0.6415146 0.6291968 0.6291968
0.6428886 0.6323093 0.6323093
0.0135767 0.0236508 0.0135767
0.0225677 0.0225677 0.0097125
0.0414048 0.0252026 0.0142617
0.0608326 0.0292310 0.0201570
0.0805156 0.0344790 0.0270125
0.1003441 0.0407594 0.0346121
0.1202657 0.0479079 0.0428248
0.1402518 0.0557923 0.0515649
0.1602410 0.0660813 0.0626974
0.1802760 0.0767593 0.0740003
0.2003470 0.0877722 0.0854908
0.2204465 0.0991040 0.0971973
0.2405697 0.1107405 0.1091332
0.2607129 0.1226686 0.1213044
0.2808734 0.1348768 0.1337122
0.3010492 0.1473548 0.1463557
0.3212388 0.1600930 0.1592324
0.3414407 0.1730828 0.1723388
0.3616539 0.1863165 0.1856713
0.3818777 0.1997869 0.1992257
0.4021111 0.2134872 0.2129980
0.4223537 0.2274116 0.2269841
0.4426047 0.2415541 0.2411800
0.4628639 0.2559097 0.2555816
0.4831308 0.2704733 0.2701852
0.5034049 0.2852404 0.2849870
0.5236860 0.3002067 0.2999835
0.5439737 0.3153680 0.3151713
0.5642679 0.3307207 0.3305470
0.5746209 0.3630846 0.3629650
0.5789185 0.3990484 0.3989735
0.5833944 0.4291774 0.4291281
0.5879934 0.4551840 0.4551505
0.5926553 0.4780182 0.4779950
0.5973183 0.4982626 0.4982463
0.6019213 0.5163039 0.5162922
0.6064077 0.5324171 0.5324087
0.6107272 0.5468116 0.5468055
0.6148381 0.5596567 0.5596523
0.6187080 0.5710970 0.5710938
0.6223142 0.5812611 0.5812587
0.6256433 0.5902664 0.5902646
0.6286904 0.5982223 0.5982210
0.6314578 0.6052311 0.6052302
0.6339537 0.6113887 0.6113879
0.6361906 0.6167843 0.6167838
0.6381845 0.6215010 0.6215006
0.6399529 0.6256152 0.6256149
0.6415146 0.6291969 0.6291966
0.6428886 0.6323094 0.6323092
0.0283208 0.0465590 0.0283208
0.0276612 0.0432224 0.0176775
0.0446524 0.0446524 0.0209350
0.0631456 0.0470127 0.0256074
0.0822493 0.0503770 0.0314429
0.1016782 0.0547525 0.0382270
0.1213102 0.0600986 0.0457946
0.1410809 0.0663473 0.0540233
0.1609509 0.0734187 0.0628228
0.1808948 0.0812324 0.0721253
0.2008955 0.0897127 0.0818794
0.2209407 0.0987923 0.0920447
0.2409798 0.1102817 0.1046552
0.2610524 0.1222812 0.1175593
0.2811566 0.1345474 0.1305504
0.3012870 0.1470730 0.1436664
0.3214395 0.1598508 0.1569310
0.3416109 0.1728738 0.1703595
0.3617989 0.1861355 0.1839618
0.3820016 0.1996296 0.1977440
0.4022174 0.2133503 0.2117098
0.4224451 0.2272920 0.2258611
0.4426836 0.2414495 0.2401987
0.4629321 0.2558180 0.2547224
0.4831898 0.2703928 0.2694315
0.5034561 0.2851696 0.2843248
0.5237305 0.3001444 0.2994009
0.5440125 0.3153131 0.3146581
0.5643017 0.3306722 0.3300944
0.5746161 0.3631037 0.3627065
0.5789147 0.3990611 0.3988121
0.5833914 0.4291862 0.4290225
0.5879910 0.4551903 0.4550792
0.5926536 0.4780228 0.4779458
0.5973169 0.4982660 0.4982118
0.6019203 0.5163064 0.5162678
0.6064069 0.5324190 0.5323912
0.6107266 0.5468130 0.5467929
0.6148377 0.5596578 0.5596431
0.6187077 0.5710979 0.5710871
0.6223139 0.5812617 0.5812538
0.6256431 0.5902669 0.5902610
0.6286903 0.5982227 0.5982184
0.6314577 0.6052314 0.6052282
0.6339536 0.6113889 0.6113865
0.6361906 0.6167845 0.6167827
0.6381844 0.6215011 0.6214998
0.6399528 0.6256153 0.6256143
0.6415146 0.6291969 0.6291962
0.6428886 0.6323094 0.6323089
0.0436393 0.0691429 0.0436393
0.0409260 0.0662090 0.0350174
0.0493574 0.0650050 0.0293134
0.0665239 0.0665239 0.0329511
0.0848064 0.0687627 0.0377487
0.1036787 0.0718038 0.0435841
0.1229058 0.0756942 0.0503261
0.1423690 0.0804478 0.0578548
0.1620000 0.0860507 0.0660677
0.1817555 0.0924692 0.0748811
0.2016061 0.0996568 0.0842274
0.2215308 0.1075604 0.0940522
0.2415145 0.1161252 0.1043116
0.2615458 0.1252978 0.1149698
0.2816162 0.1350281 0.1259976
0.3016910 0.1465870 0.1388482
0.3217793 0.1594357 0.1528635
0.3418984 0.1725173 0.1668981
0.3620432 0.1858280 0.1809970
0.3822101 0.1993633 0.1951912
0.4023960 0.2131189 0.2095021
0.4225985 0.2270904 0.2239449
0.4428158 0.2412734 0.2385302
0.4630462 0.2556639 0.2532658
0.4832886 0.2702577 0.2681569
0.5035418 0.2850509 0.2832073
0.5238050 0.3000399 0.2984194
0.5440773 0.3152211 0.3137947
0.5643582 0.3305911 0.3293340
0.5746079 0.3631357 0.3622736
0.5789083 0.3990822 0.3985423
0.5833864 0.4292008 0.4288459
0.5879872 0.4552007 0.4549601
0.5926506 0.4780304 0.4778637
0.5973147 0.4982717 0.4981543
0.6019186 0.5163106 0.5162270
0.6064056 0.5324222 0.5323620
0.6107257 0.5468154 0.5467718
0.6148370 0.5596596 0.5596278
0.6187071 0.5710992 0.5710759
0.6223135 0.5812628 0.5812456
0.6256428 0.5902677 0.5902550
0.6286900 0.5982233 0.5982139
0.6314575 0.6052319 0.6052249
0.6339535 0.6113892 0.6113840
0.6361905 0.6167847 0.6167809
0.6381843 0.6215013 0.6214984
0.6399528 0.6256155 0.6256133
0.6415145 0.6291971 0.6291954
0.6428885 0.6323095 0.6323083
0.0593676 0.0915073 0.0593676
0.0574785 0.0895022 0.0536889
0.0554913 0.0856365 0.0388065
0.0710471 0.0866862 0.0416541
0.0882504 0.0882504 0.0455507
0.1063831 0.0904180 0.0504642
0.1250784 0.0932650 0.0563267
0.1441408 0.0968480 0.0630530
0.1634593 0.1012015 0.0705546
0.1829656 0.1063387 0.0787485
0.2026148 0.1122544 0.0875609
0.2223754 0.1189282 0.0969281
0.2422245 0.1263290 0.1067963
0.2621448 0.1344182 0.1171204
0.2821233 0.1431540 0.1278625
0.3021499 0.1524928 0.1389909
0.3222164 0.1623923 0.1504787
0.3423167 0.1728121 0.1623033
0.3624126 0.1853569 0.1762948
0.3825244 0.1989573 0.1911873
0.4026646 0.2127676 0.2060700
0.4228288 0.2267853 0.2209870
0.4430139 0.2410077 0.2359697
0.4632172 0.2554318 0.2510410
0.4834364 0.2700545 0.2662178
0.5036699 0.2848728 0.2815126
0.5239162 0.2998834 0.2969350
0.5441741 0.3150834 0.3124919
0.5644425 0.3304698 0.3281887
0.5745958 0.3631833 0.3616255
0.5788988 0.3991136 0.3981391
0.5833790 0.4292226 0.4285824
0.5879815 0.4552162 0.4547824
0.5926462 0.4780417 0.4777412
0.5973113 0.4982800 0.4980685
0.6019160 0.5163169 0.5161662
0.6064037 0.5324269 0.5323186
0.6107242 0.5468190 0.5467405
0.6148359 0.5596624 0.5596051
0.6187063 0.5711013 0.5710594
0.6223129 0.5812643 0.5812335
0.6256424 0.5902689 0.5902461
0.6286897 0.5982242 0.5982073
0.6314573 0.6052326 0.6052200
0.6339533 0.6113898 0.6113804
0.6361904 0.6167851 0.6167782
0.6381842 0.6215016 0.6214964
0.6399527 0.6256157 0.6256118
0.6415145 0.6291972 0.6291943
0.6428885 0.6323097 0.6323075
0.0754203 0.1137043 0.0754203
0.0740285 0.1122555 0.0713346
0.0705956 0.1088017 0.0596078
0.0767495 0.1071354 0.0513630
0.0926634 0.1082745 0.0545261
0.1098660 0.1098660 0.0586227
0.1278831 0.1119856 0.0636422
0.1464369 0.1147019 0.0695450
0.1653615 0.1180721 0.0762734
0.1845546 0.1221387 0.0837611
0.2039498 0.1269287 0.0919410
0.2235017 0.1324535 0.1007491
0.2431779 0.1387107 0.1101274
0.2629542 0.1456861 0.1200246
0.2828123 0.1533564 0.1303959
0.3027377 0.1616915 0.1412027
0.3227192 0.1706572 0.1524118
0.3427477 0.1802171 0.1639947
0.3628160 0.1903343 0.1759271
0.3829182 0.2009729 0.1881879
0.4030462 0.2122619 0.2009461
0.4231553 0.2263482 0.2166199
0.4432941 0.2406284 0.2322227
0.4634585 0.2551016 0.2478087
0.4836448 0.2697663 0.2634170
0.5038503 0.2846205 0.2790769
0.5240727 0.2996622 0.2948101
0.5443101 0.3148891 0.3106333
0.5645609 0.3302988 0.3265594
0.5745787 0.3632500 0.3607112
0.5788854 0.3991575 0.3975718
0.5833686 0.4292530 0.4282123
0.5879734 0.4552380 0.4545331
0.5926401 0.4780576 0.4775695
0.5973066 0.4982918 0.4979484
0.6019125 0.5163257 0.5160811
0.6064010 0.5324336 0.5322577
0.6107222 0.5468240 0.5466966
0.6148344 0.5596662 0.5595733
0.6187052 0.5711042 0.5710361
0.6223121 0.5812666 0.5812164
0.6256417 0.5902706 0.5902336
0.6286892 0.5982255 0.5981981
0.6314569 0.6052336 0.6052132
0.6339530 0.6113905 0.6113754
0.6361902 0.6167857 0.6167744
0.6381841 0.6215021 0.6214936
0.6399526 0.6256160 0.6256097
0.6415144 0.6291975 0.6291927
0.6428884 0.6323098 0.6323063
0.0917443 0.1357653 0.0917443
0.0906821 0.1346794 0.0886648
0.0881190 0.1321134 0.0805164
0.0835986 0.1277242 0.0618495
0.0980956 0.1285809 0.0644291
0.1142030 0.1297816 0.0678352
0.1313913 0.1313913 0.0720963
0.1493148 0.1334758 0.0772133
0.1677516 0.1360972 0.0831630
0.1865586 0.1393109 0.0899053
0.2056419 0.1431621 0.0973901
0.2249376 0.1476844 0.1055626
0.2444007 0.1528995 0.1143680
0.2639984 0.1588168 0.1237541
0.2837059 0.1654346 0.1336728
0.3035040 0.1727416 0.1440809
0.3233775 0.1807188 0.1549399
0.3433141 0.1893410 0.1662161
0.3633042 0.1985789 0.1778799
0.3833396 0.2084009 0.1899057
0.4034139 0.2187743 0.2022710
0.4235215 0.2296664 0.2149562
0.4436580 0.2410455 0.2279442
0.4637868 0.2546474 0.2432248
0.4839277 0.2693712 0.2594793
0.5040948 0.2842758 0.2756763
0.5242845 0.2993607 0.2918606
0.5444939 0.3146248 0.3080659
0.5647207 0.3300666 0.3243177
0.5745558 0.3633396 0.3594678
0.5788674 0.3992166 0.3968035
0.5833546 0.4292939 0.4277122
0.5879626 0.4552672 0.4541967
0.5926317 0.4780789 0.4773381
0.5973003 0.4983076 0.4977865
0.6019077 0.5163375 0.5159665
0.6063974 0.5324425 0.5321757
0.6107195 0.5468308 0.5466376
0.6148323 0.5596713 0.5595305
0.6187037 0.5711081 0.5710049
0.6223110 0.5812695 0.5811936
0.6256409 0.5902729 0.5902168
0.6286886 0.5982273 0.5981857
0.6314565 0.6052349 0.6052040
0.6339527 0.6113915 0.6113685
0.6361899 0.6167865 0.6167693
0.6381839 0.6215027 0.6214899
0.6399525 0.6256165 0.6256069
0.6415143 0.6291978 0.6291906
0.6428884 0.6323101 0.6323047
0.1083027 0.1577115 0.1083027
0.1074718 0.1568759 0.1059114
0.1054917 0.1549123 0.0998515
0.1019960 0.1515518 0.0875217
0.1045538 0.1490452 0.0750808
0.1194480 0.1499718 0.0779161
0.1356718 0.1512178 0.0815201
0.1528402 0.1528402 0.0859221
0.1706852 0.1548976 0.0911292
0.1890230 0.1574468 0.0971290
0.2077282 0.1605402 0.1038934
0.2267143 0.1642235 0.1113838
0.2459204 0.1685339 0.1195555
0.2653023 0.1734987 0.1283615
0.2848273 0.1791353 0.1377552
0.3044701 0.1854513 0.1476920
0.3242110 0.1924446 0.1581308
0.3440342 0.2001053 0.1690339
0.3639271 0.2084166 0.1803677
0.3838791 0.2173563 0.1921020
0.4038816 0.2268984 0.2042103
0.4239275 0.2370144 0.2166692
0.4440108 0.2476747 0.2294579
0.4641266 0.2588490 0.2425581
0.4842708 0.2705080 0.2559539
0.5044180 0.2838154 0.2709951
0.5245639 0.2989593 0.2878337
0.5447361 0.3142739 0.3045841
0.5649311 0.3297592 0.3212946
0.5745256 0.3634570 0.3578177
0.5788438 0.3992940 0.3957892
0.5833363 0.4293475 0.4270540
0.5879484 0.4553054 0.4537548
0.5926209 0.4781068 0.4770345
0.5972920 0.4983282 0.4975744
0.6019014 0.5163530 0.5158165
0.6063926 0.5324541 0.5320685
0.6107159 0.5468396 0.5465603
0.6148296 0.5596780 0.5594745
0.6187017 0.5711132 0.5709641
0.6223095 0.5812734 0.5811637
0.6256398 0.5902758 0.5901948
0.6286878 0.5982295 0.5981695
0.6314559 0.6052366 0.6051920
0.6339523 0.6113929 0.6113596
0.6361896 0.6167875 0.6167627
0.6381837 0.6215034 0.6214849
0.6399523 0.6256171 0.6256032
0.6415141 0.6291983 0.6291879
0.6428883 0.6323104 0.6323027
0.1250684 0.1795584 0.1250684
0.1244063 0.1789025 0.1231720
0.1228409 0.1773667 0.1184891
0.1201243 0.1747560 0.1095659
0.1157883 0.1707547 0.0922957
0.1256251 0.1703296 0.0887196
0.1407782 0.1713104 0.0917659
0.1570764 0.1725911 0.0955373
0.1742229 0.1742229 0.1000630
0.1920004 0.1762587 0.1053543
0.2102527 0.1787506 0.1114056
0.2288686 0.1817485 0.1181974
0.2477680 0.1852974 0.1257000
0.2668929 0.1894358 0.1338767
0.2862004 0.1941948 0.1426871
0.3056579 0.1995970 0.1520897
0.3252400 0.2056563 0.1620436
0.3449267 0.2123782 0.1725097
0.3647019 0.2197600 0.1834519
0.3845524 0.2277922 0.1948366
0.4044671 0.2364590 0.2066339
0.4244371 0.2457402 0.2188166
0.4444548 0.2556117 0.2313605
0.4645137 0.2660473 0.2442440
0.4846085 0.2770195 0.2574480
0.5047346 0.2885000 0.2709554
0.5248882 0.3004611 0.2847510
0.5450492 0.3138157 0.2999019
0.5652026 0.3293590 0.3172605
0.5744867 0.3636074 0.3556626
0.5788134 0.3993931 0.3944738
0.5833126 0.4294160 0.4262038
0.5879302 0.4553544 0.4531855
0.5926069 0.4781425 0.4766440
0.5972813 0.4983546 0.4973020
0.6018933 0.5163727 0.5156239
0.6063865 0.5324690 0.5319310
0.6107113 0.5468509 0.5464613
0.6148262 0.5596866 0.5594027
0.6186991 0.5711198 0.5709118
0.6223076 0.5812784 0.5811254
0.6256384 0.5902796 0.5901667
0.6286868 0.5982324 0.5981488
0.6314551 0.6052389 0.6051767
0.6339517 0.6113945 0.6113483
0.6361892 0.6167888 0.6167543
0.6381834 0.6215044 0.6214786
0.6399520 0.6256178 0.6255985
0.6415140 0.6291988 0.6291844
0.6428881 0.6323109 0.6323000
0.1420204 0.2013176 0.1420204
0.1414853 0.2007946 0.1404924
0.1402265 0.1995730 0.1367818
0.1380654 0.1975062 0.1299785
0.1346872 0.1943606 0.1179434
0.1327297 0.1907928 0.1001335
0.1467429 0.1915760 0.1027114
0.1620754 0.1926000 0.1059372
0.1784232 0.1939082 0.1098539
0.1955470 0.1955470 0.1144904
0.2132654 0.1975649 0.1198606
0.2314429 0.2000103 0.1259637
0.2499794 0.2029304 0.1327867
0.2688008 0.2063691 0.1403067
0.2878519 0.2103654 0.1484934
0.3070910 0.2149525 0.1573120
0.3264858 0.2201566 0.1667256
0.3460111 0.2259961 0.1766967
0.3656466 0.2324822 0.1871886
0.3853760 0.2396181 0.1981665
0.4051856 0.2474004 0.2095978
0.4250643 0.2558192 0.2214526
0.4450025 0.2648595 0.2337036
0.4649923 0.2745017 0.2463259
0.4850270 0.2847234 0.2592974
0.5051007 0.2954997 0.2725980
0.5252087 0.3068046 0.2862100
0.5453467 0.3186114 0.3001174
0.5655112 0.3308935 0.3143059
0.5744373 0.3637973 0.3528771
0.5787749 0.3995182 0.3927892
0.5832827 0.4295025 0.4251206
0.5879072 0.4554161 0.4524626
0.5925892 0.4781874 0.4761493
0.5972679 0.4983879 0.4969574
0.6018831 0.5163976 0.5153806
0.6063788 0.5324877 0.5317574
0.6107056 0.5468651 0.5463365
0.6148219 0.5596974 0.5593123
0.6186959 0.5711280 0.5708460
0.6223052 0.5812847 0.5810772
0.6256366 0.5902844 0.5901313
0.6286854 0.5982361 0.5981226
0.6314541 0.6052416 0.6051574
0.6339510 0.6113967 0.6113339
0.6361886 0.6167904 0.6167436
0.6381830 0.6215056 0.6214707
0.6399517 0.6256188 0.6255926
0.6415137 0.6291995 0.6291800
0.6428880 0.6323114 0.6322967
0.1591421 0.2229982 0.1591421
0.1587046 0.2225758 0.1578955
0.1576790 0.2215910 0.1549023
0.1559309 0.2199305 0.1495485
0.1532336 0.2174160 0.1405463
0.1492401 0.2138121 0.1249788
0.1535760 0.2119563 0.1142578
0.1678736 0.2127845 0.1170168
0.1833361 0.2138440 0.1203987
0.1997173 0.2151744 0.1244441
0.2168186 0.2168186 0.1291812
0.2344845 0.2188213 0.1346256
0.2525955 0.2212281 0.1407804
0.2710609 0.2240835 0.1476373
0.2898118 0.2274303 0.1551786
0.3087954 0.2313073 0.1633794
0.3279713 0.2357490 0.1722098
0.3473079 0.2407837 0.1816367
0.3667799 0.2464335 0.1916259
0.3863672 0.2527137 0.2021430
0.4060530 0.2596324 0.2131549
0.4258236 0.2671912 0.2246299
0.4456674 0.2753853 0.2365383
0.4655748 0.2842044 0.2488528
0.4855374 0.2936334 0.2615484
0.5055481 0.3036534 0.2746024
0.5256010 0.3142427 0.2879941
0.5456908 0.3253775 0.3017051
0.5658132 0.3370327 0.3157185
0.5747562 0.3675637 0.3533066
0.5788605 0.4006576 0.3917152
0.5832453 0.4296101 0.4237541
0.5878783 0.4554928 0.4515544
0.5925671 0.4782433 0.4755296
0.5972511 0.4984292 0.4965265
0.6018704 0.5164285 0.5150768
0.6063693 0.5325110 0.5315409
0.6106984 0.5468827 0.5461809
0.6148165 0.5597107 0.5591997
0.6186919 0.5711382 0.5707640
0.6223022 0.5812924 0.5810173
0.6256344 0.5902903 0.5900872
0.6286838 0.5982406 0.5980902
0.6314529 0.6052451 0.6051334
0.6339501 0.6113993 0.6113162
0.6361880 0.6167924 0.6167304
0.6381825 0.6215072 0.6214609
0.6399514 0.6256199 0.6255853
0.6415135 0.6292004 0.6291745
0.6428878 0.6323121 0.6322926
0.1764199 0.2446075 0.1764199
0.1760587 0.2442628 0.1753924
0.1752142 0.2434602 0.1729452
0.1737821 0.2421101 0.1686410
0.1715917 0.2400734 0.1616314
0.1683969 0.2371696 0.1502632
0.1638204 0.2331651 0.1305732
0.1744896 0.2330905 0.1286881
0.1889998 0.2339564 0.1316057
0.2045594 0.2350453 0.1351259
0.2209633 0.2363940 0.1392868
0.2380424 0.2380424 0.1441162
0.2556611 0.2400323 0.1496310
0.2737126 0.2424063 0.1558370
0.2921139 0.2452071 0.1627296
0.3108005 0.2484760 0.1702953
0.3297221 0.2522516 0.1785137
0.3488397 0.2565687 0.1873589
0.3681219 0.2614574 0.1968015
0.3875441 0.2669422 0.2068102
0.4070857 0.2730417 0.2173528
0.4267302 0.2797679 0.2283978
0.4464635 0.2871266 0.2399144
0.4662740 0.2951173 0.2518737
0.4861515 0.3037341 0.2642484
0.5060877 0.3129658 0.2770133
0.5260750 0.3227973 0.2901455
0.5461074 0.3332097 0.3036237
0.5661793 0.3441816 0.3174289
0.5752342 0.3728172 0.3547228
0.5793087 0.4045123 0.3931006
0.5835577 0.4319086 0.4243641
0.5879364 0.4560745 0.4509341
0.5925398 0.4783121 0.4747599
0.5972303 0.4984800 0.4959927
0.6018546 0.5164664 0.5147012
0.6063574 0.5325395 0.5312736
0.6106895 0.5469043 0.5459890
0.6148099 0.5597272 0.5590609
0.6186870 0.5711507 0.5706631
0.6222986 0.5813020 0.5809435
0.6256317 0.5902976 0.5900331
0.6286818 0.5982461 0.5980503
0.6314514 0.6052493 0.6051039
0.6339489 0.6114025 0.6112943
0.6361871 0.6167948 0.6167142
0.6381819 0.6215090 0.6214488
0.6399509 0.6256213 0.6255763
0.6415131 0.6292015 0.6291678
0.6428875 0.6323129 0.6322876
0.1938422 0.2661516 0.1938422
0.1935417 0.2658678 0.1929882
0.1928403 0.2652077 0.1909661
0.1916551 0.2640992 0.1874517
0.1898537 0.2624317 0.1818504
0.1872525 0.2600638 0.1731170
0.1835885 0.2568154 0.1591500
0.1819247 0.2534815 0.1408782
0.1954383 0.2541951 0.1433958
0.2101121 0.2550930 0.1464546
0.2257460 0.2562068 0.1500988
0.2421651 0.2575709 0.1543646
0.2592226 0.2592226 0.1592795
0.2767984 0.2612012 0.1648612
0.2947961 0.2635471 0.1711176
0.3131391 0.2663011 0.1780471
0.3317669 0.2695033 0.1856398
0.3506314 0.2731915 0.1938788
0.3696947 0.2774010 0.2027416
0.3889264 0.2821627 0.2122022
0.4083017 0.2875032 0.2222319
0.4278003 0.2934433 0.2328006
0.4474056 0.2999983 0.2438784
0.4671035 0.3071775 0.2554356
0.4868819 0.3149843 0.2674438
0.5067307 0.3234163 0.2798761
0.5266413 0.3324663 0.2927074
0.5466060 0.3421222 0.3059143
0.5666183 0.3523684 0.3194754
0.5758126 0.3789303 0.3564027
0.5798505 0.4090466 0.3947519
0.5840576 0.4353633 0.4258731
0.5883908 0.4587501 0.4522639
0.5928009 0.4797356 0.4752120
0.5972346 0.4986640 0.4954622
0.6018353 0.5165127 0.5142401
0.6063429 0.5325744 0.5309461
0.6106786 0.5469306 0.5457542
0.6148018 0.5597472 0.5588913
0.6186809 0.5711659 0.5705398
0.6222941 0.5813136 0.5808534
0.6256284 0.5903065 0.5899670
0.6286793 0.5982529 0.5980016
0.6314496 0.6052545 0.6050679
0.6339476 0.6114064 0.6112677
0.6361861 0.6167978 0.6166944
0.6381811 0.6215113 0.6214341
0.6399504 0.6256231 0.6255653
0.6415127 0.6292028 0.6291596
0.6428872 0.6323139 0.6322815
0.2113995 0.2876356 0.2113995
0.2111477 0.2874002 0.2106846
0.2105609 0.2868530 0.2089994
0.2095721 0.2859354 0.2060958
0.2080757 0.2845581 0.2015379
0.2059304 0.2826081 0.1946152
0.2029424 0.2799440 0.1840558
0.1988313 0.2763874 0.1671926
0.2026608 0.2745249 0.1557016
0.2164027 0.2752705 0.1583583
0.2312054 0.2761960 0.1615442
0.2468971 0.2773311 0.1653007
0.2633259 0.2787082 0.1696627
0.2803625 0.2803625 0.1746573
0.2978991 0.2823311 0.1803029
0.3158478 0.2846526 0.1866090
0.3341375 0.2873662 0.1935763
0.3527111 0.2905105 0.2011978
0.3715229 0.2941229 0.2094597
0.3905358 0.2982385 0.2183428
0.4097201 0.3028890 0.2278236
0.4290514 0.3081022 0.2378758
0.4485095 0.3139012 0.2484715
0.4680777 0.3203035 0.2595823
0.4877417 0.3273215 0.2711794
0.5074895 0.3349617 0.2832354
0.5273109 0.3432252 0.2957236
0.5471967 0.3521080 0.3086190
0.5671395 0.3616013 0.3218980
0.5765066 0.3859434 0.3583704
0.5804996 0.4143103 0.3966972
0.5846559 0.4394045 0.4276562
0.5889345 0.4618966 0.4538388
0.5932880 0.4822063 0.4765714
0.5976651 0.5006135 0.4966163
0.6020131 0.5173160 0.5144495
0.6063252 0.5326165 0.5305472
0.6106654 0.5469625 0.5454686
0.6147919 0.5597713 0.5586853
0.6186736 0.5711843 0.5703902
0.6222886 0.5813276 0.5807443
0.6256243 0.5903172 0.5898869
0.6286763 0.5982610 0.5979427
0.6314474 0.6052607 0.6050244
0.6339460 0.6114112 0.6112354
0.6361849 0.6168014 0.6166705
0.6381802 0.6215141 0.6214163
0.6399497 0.6256252 0.6255520
0.6415122 0.6292044 0.6291497
0.6428868 0.6323151 0.6322741
0.2290835 0.3090639 0.2290835
0.2288713 0.3088674 0.2284814
0.2283773 0.3084107 0.2270668
0.2275466 0.3076459 0.2246455
0.2262937 0.3064996 0.2208866
0.2245067 0.3048806 0.2152812
0.2220375 0.3026759 0.2069917
0.2186819 0.2997445 0.1944764
0.2141417 0.2959098 0.1743479
0.2234459 0.2955440 0.1707745
0.2373708 0.2963175 0.1735571
0.2522768 0.2972669 0.1768583
0.2680141 0.2984203 0.1807175
0.2844486 0.2998086 0.1851685
0.3014649 0.3014649 0.1902379
0.3189654 0.3034247 0.1959446
0.3368692 0.3057249 0.2022994
0.3551099 0.3084030 0.2093051
0.3736336 0.3114967 0.2169570
0.3923963 0.3150427 0.2252440
0.4113623 0.3190758 0.2341495
0.4305023 0.3236284 0.2436525
0.4497922 0.3287290 0.2537289
0.4692121 0.3344022 0.2643527
0.4887450 0.3406679 0.2754969
0.5083769 0.3475408 0.2871339
0.5280956 0.3550301 0.2992369
0.5478905 0.3631400 0.3117797
0.5677527 0.3718693 0.3247374
0.5773331 0.3938842 0.3606467
0.5812714 0.4203458 0.3989637
0.5853663 0.4440773 0.4297415
0.5895794 0.4655563 0.4556853
0.5938656 0.4850927 0.4781683
0.5981755 0.5028988 0.4979744
0.6024583 0.5191281 0.5155894
0.6066641 0.5338997 0.5313358
0.6107466 0.5473119 0.5454422
0.6147800 0.5598004 0.5584365
0.6186648 0.5712064 0.5702098
0.6222821 0.5813444 0.5806127
0.6256195 0.5903300 0.5897906
0.6286727 0.5982708 0.5978718
0.6314447 0.6052681 0.6049721
0.6339440 0.6114168 0.6111967
0.6361835 0.6168058 0.6166417
0.6381791 0.6215173 0.6213949
0.6399489 0.6256277 0.6255361
0.6415116 0.6292063 0.6291378
0.6428864 0.6323165 0.6322652
0.2468869 0.3304402 0.2468869
0.2467071 0.3302752 0.2463771
0.2462890 0.3298919 0.2451826
0.2455870 0.3292505 0.2431480
0.2445310 0.3282904 0.2400159
0.2430307 0.3269370 0.2354070
0.2409697 0.3250984 0.2287359
0.2381929 0.3226620 0.2190194
0.2344859 0.3194878 0.2043924
0.2312444 0.3158888 0.1836498
0.2442609 0.3165388 0.1860794
0.2583349 0.3173369 0.1889767
0.2733250 0.3183072 0.1923834
0.2890984 0.3194766 0.1963373
0.3055357 0.3208744 0.2008710
0.3225324 0.3225324 0.2060108
0.3399994 0.3244843 0.2117762
0.3578618 0.3267655 0.2181788
0.3760574 0.3294125 0.2252233
0.3945348 0.3324616 0.2329069
0.4132519 0.3359490 0.2412207
0.4321740 0.3399093 0.2501505
0.4512724 0.3443749 0.2596776
0.4705234 0.3493753 0.2697798
0.4899071 0.3549363 0.2804329
0.5094068 0.3610794 0.2916111
0.5290082 0.3678213 0.3032882
0.5486990 0.3751739 0.3154379
0.5684687 0.3831436 0.3280345
0.5783106 0.4027662 0.3632480
0.5821822 0.4271858 0.4015763
0.5862036 0.4494206 0.4321556
0.5903387 0.4697684 0.4578292
0.5945452 0.4884311 0.4800269
0.5987759 0.5055520 0.4995583
0.6029820 0.5212385 0.5169212
0.6071153 0.5355773 0.5324431
0.6111308 0.5486434 0.5463538
0.6149884 0.5605064 0.5588253
