LUTs/guard_rail_srgb.cube
TITLE "Guard Rail sRGB"
# Guard Rail Formation for sRGB medium.
# The Guard Rail is designed to leaves valid value as-is, and only touch out of domain valuesModified from python script shared by Sakari Kapanen
# This LUT assumes E Gamut encoded in ST2084 (10) curve and then power 1.5
# LUT resolution 50
LUT_3D_SIZE 8
0.0000000 0.0000000 0.0000000
0.1397447 0.0562420 0.0562420
0.2807527 0.1350159 0.1350159
0.4223143 0.2274629 0.2274629
0.5642533 0.3307415 0.3307415
0.6019218 0.5163028 0.5163028
0.6286905 0.5982222 0.5982222
0.6428886 0.6323093 0.6323093
0.1083027 0.1577115 0.1083027
0.1528402 0.1528402 0.0859221
0.2848273 0.1791353 0.1377552
0.4239275 0.2370144 0.2166692
0.5649311 0.3297592 0.3212946
0.6019014 0.5163530 0.5158165
0.6286878 0.5982295 0.5981695
0.6428883 0.6323104 0.6323027
0.2290835 0.3090639 0.2290835
0.2186819 0.2997445 0.1944764
0.3014649 0.3014649 0.1902379
0.4305023 0.3236284 0.2436525
0.5677527 0.3718693 0.3247374
0.6024583 0.5191281 0.5155894
0.6286727 0.5982708 0.5978718
0.6428864 0.6323165 0.6322652
0.3559021 0.4577640 0.3559021
0.3525519 0.4548427 0.3460723
0.3425095 0.4406220 0.2765068
0.4483083 0.4483083 0.3042359
0.5756275 0.4688209 0.3594627
0.6083173 0.5415636 0.5299513
0.6298169 0.6014484 0.5999638
0.6428799 0.6323372 0.6321365
0.4870172 0.6046930 0.4870172
0.4857564 0.6036301 0.4834079
0.4784319 0.5975673 0.4605334
0.4870822 0.5859636 0.3949597
0.5939557 0.5939557 0.4253936
0.6211825 0.5839065 0.5577028
0.6337276 0.6117488 0.6078493
0.6436254 0.6341015 0.6335187
0.6034758 0.6400947 0.6034758
0.6032817 0.6400295 0.6030895
0.6021705 0.6396534 0.6008372
0.5980456 0.6382160 0.5918230
0.6032934 0.6373772 0.5798406
0.6430558 0.6430558 0.5933126
0.6404342 0.6285696 0.6205991
0.6453195 0.6380520 0.6366893
0.6364855 0.6478294 0.6364855
0.6364614 0.6478202 0.6364405
0.6363257 0.6477685 0.6361850
0.6358500 0.6475849 0.6352713
0.6343443 0.6469811 0.6321843
0.6368410 0.6469635 0.6301081
0.6490020 0.6490020 0.6347361
0.6479187 0.6440331 0.6413967
0.6467730 0.6505097 0.6467730
0.6467697 0.6505084 0.6467671
0.6467517 0.6505013 0.6467339
0.6466900 0.6504768 0.6466195
0.6465075 0.6504034 0.6462738
0.6459717 0.6501785 0.6451922
0.6469749 0.6502311 0.6447733
0.6509259 0.6509259 0.6463260
0.0511262 0.0511262 0.1171142
0.1419304 0.0798757 0.1419304
0.2808590 0.1440163 0.1809432
0.4223215 0.2309810 0.2482658
0.5642534 0.3321950 0.3398019
0.6020010 0.5164731 0.5170050
0.6287083 0.5982540 0.5983139
0.6428917 0.6323145 0.6323222
0.1195166 0.1624970 0.1624970
0.1428571 0.1428571 0.1428571
0.2857143 0.1428571 0.1428571
0.4241021 0.2287020 0.2287020
0.5649190 0.3312481 0.3312481
0.6019806 0.5165230 0.5165230
0.6287057 0.5982613 0.5982613
0.6428913 0.6323155 0.6323155
0.2322203 0.3102034 0.2481209
0.2223481 0.3009262 0.2223481
0.2927397 0.2927397 0.1837687
0.4293821 0.3145555 0.2401156
0.5677404 0.3650672 0.3230600
0.6021868 0.5180036 0.5149668
0.6286907 0.5983025 0.5979643
0.6428895 0.6323216 0.6322781
0.3569794 0.4581305 0.3628073
0.3536729 0.4552135 0.3536729
0.3337843 0.4381767 0.2735883
0.4455670 0.4455670 0.3020271
0.5750682 0.4659888 0.3581234
0.6080828 0.5407026 0.5294281
0.6297484 0.6012620 0.5998295
0.6428830 0.6323423 0.6321495
0.4874288 0.6048272 0.4896962
0.4861735 0.6037649 0.4861735
0.4788826 0.5977050 0.4639155
0.4842856 0.5850495 0.3938490
0.5929554 0.5929554 0.4245376
0.6210240 0.5834424 0.5573392
0.6336755 0.6116135 0.6077483
0.6436136 0.6340735 0.6334971
0.6035262 0.6401288 0.6037163
0.6033323 0.6400638 0.6033323
0.6022231 0.6396892 0.6010936
0.5981056 0.6382573 0.5921356
0.6029355 0.6373138 0.5795621
0.6430287 0.6430287 0.5930994
0.6404061 0.6285025 0.6205420
0.6453111 0.6380325 0.6366739
0.6364922 0.6478341 0.6365131
0.6364681 0.6478250 0.6364681
0.6363325 0.6477733 0.6362131
0.6358571 0.6475900 0.6353013
0.6343526 0.6469872 0.6322207
0.6367994 0.6469543 0.6300755
0.6489985 0.6489985 0.6347143
0.6479145 0.6440238 0.6413886
0.6467739 0.6505103 0.6467765
0.6467706 0.6505091 0.6467706
0.6467526 0.6505020 0.6467375
0.6466909 0.6504775 0.6466232
0.6465085 0.6504042 0.6462777
0.6459729 0.6501794 0.6451971
0.6469695 0.6502298 0.6447690
0.6509255 0.6509255 0.6463233
0.1249281 0.1249281 0.2438701
0.1682595 0.1379734 0.2565533
0.2842395 0.1793767 0.2842395
0.4226980 0.2482547 0.3208932
0.5642983 0.3399346 0.3806320
0.6024419 0.5174195 0.5208598
0.6288080 0.5984311 0.5988241
0.6429089 0.6323430 0.6323941
0.1603345 0.1864670 0.2691293
0.1485977 0.1485977 0.2807234
0.2850604 0.1799845 0.2850604
0.4239792 0.2470659 0.3145199
0.5648992 0.3391636 0.3752397
0.6024221 0.5174678 0.5204012
0.6288054 0.5984384 0.5987722
0.6429086 0.6323441 0.6323874
0.2478575 0.3164764 0.3164764
0.2401369 0.3074866 0.3074866
0.2857143 0.2857143 0.2857143
0.4285714 0.2857143 0.2857143
0.5685833 0.3340401 0.3340401
0.6023074 0.5177403 0.5177403
0.6287905 0.5984791 0.5984791
0.6429067 0.6323501 0.6323501
0.3627940 0.4601696 0.3954649
0.3597114 0.4572776 0.3890410
0.3404476 0.4400407 0.3404476
0.4291696 0.4291696 0.2888746
0.5725194 0.4484662 0.3504543
0.6067466 0.5357109 0.5264762
0.6293599 0.6002027 0.5990698
0.6429002 0.6323707 0.6322221
0.4897006 0.6055759 0.5037506
0.4884748 0.6045167 0.5006526
0.4813670 0.5984738 0.4813670
0.4670348 0.5799350 0.3874433
0.5872430 0.5872430 0.4196553
0.6201187 0.5807645 0.5552825
0.6333806 0.6108461 0.6071779
0.6435472 0.6339163 0.6333761
0.6038065 0.6403190 0.6050511
0.6036146 0.6402554 0.6046799
0.6025162 0.6398887 0.6025162
0.5984400 0.6384876 0.5938683
0.6008554 0.6369510 0.5779754
0.6428744 0.6428744 0.5918814
0.6402467 0.6281228 0.6202198
0.6452638 0.6379225 0.6365874
0.6365293 0.6478604 0.6366668
0.6365053 0.6478513 0.6366224
0.6363703 0.6478001 0.6363703
0.6358970 0.6476184 0.6354687
0.6343992 0.6470209 0.6324234
0.6365639 0.6469027 0.6298919
0.6489788 0.6489788 0.6345916
0.6478911 0.6439715 0.6413430
0.6467789 0.6505140 0.6467966
0.6467757 0.6505127 0.6467907
0.6467577 0.6505056 0.6467577
0.6466961 0.6504813 0.6466439
0.6465140 0.6504081 0.6462999
0.6459794 0.6501842 0.6452240
0.6469393 0.6502227 0.6447450
0.6509228 0.6509228 0.6463079
0.2129115 0.2129115 0.3751550
0.2315559 0.2184093 0.3802997
0.3052720 0.2420002 0.3991660
0.4267136 0.2894751 0.4267136
0.5649263 0.3623179 0.4626131
0.6039140 0.5205562 0.5331077
0.6291421 0.5990242 0.6005232
0.6429668 0.6324390 0.6326356
0.2294771 0.2419366 0.3874647
0.2227689 0.2227689 0.3890336
0.3028547 0.2442389 0.4039389
0.4269820 0.2896904 0.4269820
0.5653453 0.3619493 0.4608323
0.6038960 0.5205998 0.5327203
0.6291395 0.5990311 0.6004736
0.6429665 0.6324401 0.6326290
0.2866106 0.3362273 0.4194479
0.2819684 0.3283633 0.4182607
0.2857143 0.2857143 0.4285714
0.4284710 0.2908857 0.4284710
0.5678745 0.3595352 0.4489825
0.6037915 0.5208452 0.5304749
0.6291251 0.5990701 0.6001932
0.6429646 0.6324460 0.6325923
0.3803113 0.4669476 0.4669476
0.3777973 0.4641484 0.4641484
0.3627882 0.4473962 0.4473962
0.4285714 0.4285714 0.4285714
0.5714286 0.4285714 0.4285714
0.6033844 0.5217008 0.5217008
0.6290729 0.5992028 0.5992028
0.6429582 0.6324662 0.6324662
0.4970577 0.6080921 0.5426652
0.4959219 0.6070439 0.5405186
0.4893695 0.6010611 0.5276088
0.4638082 0.5790876 0.4638082
0.5714286 0.5714286 0.4285714
0.6167951 0.5705238 0.5480538
0.6323334 0.6080939 0.6051690
0.6433169 0.6333698 0.6329574
0.6047462 0.6409572 0.6094577
0.6045606 0.6408982 0.6091279
0.6034985 0.6405583 0.6072077
0.5995608 0.6392608 0.5995608
0.5926436 0.6356031 0.5721970
0.6423149 0.6423149 0.5873906
0.6396834 0.6267713 0.6190929
0.6451003 0.6375415 0.6362893
0.6366543 0.6479489 0.6371834
0.6366307 0.6479401 0.6371406
0.6364975 0.6478904 0.6368981
0.6360311 0.6477140 0.6360311
0.6345559 0.6471343 0.6331038
0.6357232 0.6467211 0.6292510
0.6489103 0.6489103 0.6341650
0.6478103 0.6437911 0.6411865
0.6467960 0.6505262 0.6468641
0.6467928 0.6505249 0.6468583
0.6467749 0.6505180 0.6468258
0.6467136 0.6504939 0.6467136
0.6465327 0.6504216 0.6463747
0.6460014 0.6502004 0.6453147
0.6468350 0.6501984 0.6446631
0.6509138 0.6509138 0.6462552
0.3123016 0.3123016 0.5096210
0.3202790 0.3146082 0.5116654
0.3588785 0.3263957 0.5213743
0.4456382 0.3558267 0.5419022
0.5692999 0.4075047 0.5692999
0.6079350 0.5289527 0.5626007
0.6300641 0.6006564 0.6051332
0.6431286 0.6327071 0.6333086
0.3196929 0.3252454 0.5149479
0.3164837 0.3164837 0.5150464
0.3565140 0.3278484 0.5241229
0.4450192 0.3565520 0.5433534
0.5693993 0.4075893 0.5693993
0.6079230 0.5289869 0.5623675
0.6300618 0.6006626 0.6050898
0.6431283 0.6327081 0.6333024
0.3520398 0.3809505 0.5350844
0.3495648 0.3753753 0.5351531
0.3375357 0.3375357 0.5421162
0.4406271 0.3611096 0.5524611
0.5699531 0.4080611 0.5699531
0.6078524 0.5291775 0.5610186
0.6300488 0.6006974 0.6048446
0.6431265 0.6327138 0.6332673
0.4184167 0.4850249 0.5675899
0.4167344 0.4825032 0.5669389
0.4072405 0.4674371 0.5643147
0.4285714 0.4285714 0.5714286
0.5714286 0.4285714 0.5714286
0.6075684 0.5298229 0.5557931
0.6300018 0.6008152 0.6039774
0.6431203 0.6327330 0.6331466
0.5156440 0.6150879 0.6150879
0.5147026 0.6140730 0.6140730
0.5093299 0.6082767 0.6082767
0.4895411 0.5868711 0.5868711
0.5714286 0.5714286 0.5714286
0.6167004 0.5652344 0.5652344
0.6298478 0.6011775 0.6011775
0.6431011 0.6327877 0.6327877
0.6073427 0.6427268 0.6211350
0.6071745 0.6426807 0.6209103
0.6062128 0.6424154 0.6196045
0.6026584 0.6414062 0.6144534
0.5891059 0.6371163 0.5891059
0.6423515 0.6423515 0.5876878
0.6378540 0.6222864 0.6155632
0.6446042 0.6363791 0.6353939
0.6370039 0.6481966 0.6386212
0.6369812 0.6481885 0.6385831
0.6368534 0.6481430 0.6383671
0.6364062 0.6479815 0.6375954
0.6349940 0.6474517 0.6349940
0.6329022 0.6461371 0.6272515
0.6486998 0.6486998 0.6328466
0.6475678 0.6432465 0.6407223
0.6468439 0.6505606 0.6470540
0.6468408 0.6505594 0.6470485
0.6468232 0.6505526 0.6470174
0.6467630 0.6505294 0.6469099
0.6465851 0.6504596 0.6465851
0.6460634 0.6502460 0.6455699
0.6465201 0.6501259 0.6444218
0.6508874 0.6508874 0.6461011
0.4223579 0.4223579 0.6165702
0.4253677 0.4234983 0.6167520
0.4412398 0.4299742 0.6177515
0.4825969 0.4486051 0.6200253
0.5532543 0.4875512 0.6256862
0.6174784 0.5479691 0.6174784
0.6323119 0.6046072 0.6159151
0.6435356 0.6333810 0.6349913
0.4260965 0.4279252 0.6171043
0.4242209 0.4242209 0.6167258
0.4402061 0.4306082 0.6177529
0.4818803 0.4490897 0.6200249
0.5529186 0.4877884 0.6256830
0.6174853 0.5479960 0.6174853
0.6323105 0.6046122 0.6158866
0.6435353 0.6333819 0.6349858
0.4442839 0.4542243 0.6190896
0.4427737 0.4513983 0.6188902
0.4341812 0.4341812 0.6176978
0.4777298 0.4518294 0.6200231
0.5509821 0.4891332 0.6256638
0.6175240 0.5481459 0.6175240
0.6323026 0.6046398 0.6157250
0.6435338 0.6333870 0.6349548
0.4889184 0.5129032 0.6245525
0.4878665 0.5112966 0.6243827
0.4819148 0.5018003 0.6234197
0.4616466 0.4616466 0.6200372
0.5435701 0.4939651 0.6255895
0.6176540 0.5486494 0.6176540
0.6322732 0.6047326 0.6151527
0.6435282 0.6334040 0.6348482
0.5548831 0.5892533 0.6354551
0.5543645 0.5886905 0.6353551
0.5514072 0.5854112 0.6347820
0.5407008 0.5723733 0.6326542
0.5497945 0.5497945 0.6306898
0.6221438 0.5653051 0.6221438
0.6321642 0.6049896 0.6132802
0.6435109 0.6334521 0.6345308
0.6136925 0.6470931 0.6470931
0.6135669 0.6470789 0.6470789
0.6128510 0.6469987 0.6469987
0.6102385 0.6467089 0.6467089
0.6007416 0.6456920 0.6456920
0.6518940 0.6518940 0.6518940
0.6381047 0.6213139 0.6213139
0.6436742 0.6340733 0.6340733
0.6378860 0.6488222 0.6422036
0.6378657 0.6488160 0.6421770
0.6377515 0.6487809 0.6420260
0.6373523 0.6486570 0.6414871
0.6360984 0.6482526 0.6396787
0.6316178 0.6466070 0.6316178
0.6488655 0.6488655 0.6338848
0.6468246 0.6415534 0.6393517
0.6469670 0.6506488 0.6475405
0.6469640 0.6506477 0.6475356
0.6469472 0.6506416 0.6475079
0.6468897 0.6506204 0.6474123
0.6467197 0.6505569 0.6471237
0.6462224 0.6503629 0.6462224
0.6455397 0.6499084 0.6437225
0.6508125 0.6508125 0.6456623
0.5262047 0.5262047 0.6272604
0.5268582 0.5266025 0.6273266
0.5306783 0.5290495 0.6277286
0.5423385 0.5366672 0.6290160
0.5676899 0.5539766 0.6321511
0.6061167 0.5820530 0.6378941
0.6371225 0.6129292 0.6371225
0.6444729 0.6349297 0.6388102
0.5275471 0.5278000 0.6274655
0.5267747 0.5267747 0.6273378
0.5305492 0.5291664 0.6277327
0.5422224 0.5367679 0.6290193
0.5676005 0.5540448 0.6321526
0.6060683 0.5820809 0.6378937
0.6371240 0.6129336 0.6371240
0.6444728 0.6349304 0.6388064
0.5345665 0.5360908 0.6285636
0.5338726 0.5351795 0.6284442
0.5298713 0.5298713 0.6277628
0.5415696 0.5373351 0.6290381
0.5670972 0.5544282 0.6321614
0.6057949 0.5822378 0.6378918
0.6371326 0.6129582 0.6371326
0.6444719 0.6349345 0.6387855
0.5535686 0.5581384 0.6317608
0.5530636 0.5574934 0.6316645
0.5501671 0.5537641 0.6311154
0.5393509 0.5393509 0.6291131
0.5653427 0.5557621 0.6321933
0.6048328 0.5827805 0.6378840
0.6371615 0.6130410 0.6371615
0.6444687 0.6349480 0.6387133
0.5855379 0.5940568 0.6379247
0.5852797 0.5937453 0.6378673
0.5838096 0.5919607 0.6375409
0.5784742 0.5853198 0.6363610
0.5599887 0.5599887 0.6323227
0.6017538 0.5844453 0.6378553
0.6372428 0.6132734 0.6372428
0.6444584 0.6349860 0.6384978
0.6184869 0.6294252 0.6453376
0.6184017 0.6293380 0.6453173
0.6179196 0.6288416 0.6452024
0.6162069 0.6270424 0.6447910
0.6105715 0.6207170 0.6434026
0.6129410 0.6129410 0.6424518
0.6402582 0.6217383 0.6402582
0.6444206 0.6350814 0.6378450
0.6399328 0.6502769 0.6502769
0.6399180 0.6502750 0.6502750
0.6398347 0.6502641 0.6502641
0.6395455 0.6502263 0.6502263
0.6386543 0.6501104 0.6501104
0.6356802 0.6497278 0.6497278
0.6518940 0.6518940 0.6518940
0.6470171 0.6414561 0.6414561
0.6472643 0.6508620 0.6487104
0.6472617 0.6508612 0.6487069
0.6472467 0.6508565 0.6486874
0.6471955 0.6508402 0.6486202
0.6470445 0.6507918 0.6484175
0.6466056 0.6506447 0.6477862
0.6450866 0.6500612 0.6450866
0.6508981 0.6508981 0.6461636
0.5951870 0.5951870 0.6387301
0.5953043 0.5952686 0.6387489
0.5961126 0.5958807 0.6388854
0.5987165 0.5978584 0.6393295
0.6051642 0.6027944 0.6404573
0.6174420 0.6123461 0.6427196
0.6341135 0.6256398 0.6460468
0.6463893 0.6380812 0.6463893
0.5955173 0.5955528 0.6388008
0.5953196 0.5953196 0.6387566
0.5960988 0.5959020 0.6388872
0.5987029 0.5978781 0.6393311
0.6051511 0.6028106 0.6404585
0.6174307 0.6123561 0.6427202
0.6341068 0.6256434 0.6460468
0.6463896 0.6380818 0.6463896
0.5972975 0.5975226 0.6391841
0.5971112 0.5973030 0.6391420
0.5960499 0.5960499 0.6389030
0.5986266 0.5979891 0.6393402
0.6050780 0.6029011 0.6404652
0.6173678 0.6124121 0.6427231
0.6340691 0.6256641 0.6460466
0.6463910 0.6380855 0.6463910
0.6026026 0.6033739 0.6403468
0.6024482 0.6031923 0.6403110
0.6015700 0.6021584 0.6401075
0.5983949 0.5983949 0.6393771
0.6048301 0.6032109 0.6404887
0.6171531 0.6126034 0.6427332
0.6339398 0.6257343 0.6460460
0.6463959 0.6380980 0.6463959
0.6134477 0.6152474 0.6428212
0.6133490 0.6151322 0.6427970
0.6127901 0.6144787 0.6426599
0.6107981 0.6121347 0.6421729
0.6041473 0.6041473 0.6405651
0.6165299 0.6131664 0.6427638
0.6335566 0.6259383 0.6460438
0.6464095 0.6381331 0.6464095
0.6280424 0.6310131 0.6463572
0.6279995 0.6309642 0.6463460
0.6277577 0.6306877 0.6462827
0.6269108 0.6297132 0.6460611
0.6242378 0.6265779 0.6453591
0.6148516 0.6148516 0.6428732
0.6324292 0.6265167 0.6460346
0.6464446 0.6382236 0.6464446
0.6406177 0.6442545 0.6495721
0.6406055 0.6442422 0.6495690
0.6405369 0.6441730 0.6495514
0.6403000 0.6439322 0.6494904
0.6395829 0.6431885 0.6493037
0.6373345 0.6407130 0.6486990
0.6382728 0.6382728 0.6483838
0.6477853 0.6416557 0.6477853
0.6479412 0.6513475 0.6513475
0.6479393 0.6513472 0.6513472
0.6479284 0.6513457 0.6513457
0.6478913 0.6513407 0.6513407
0.6477828 0.6513259 0.6513259
0.6474743 0.6512837 0.6512837
0.6464852 0.6511492 0.6511492
0.6518940 0.6518940 0.6518940
