LUTs/guard_rail_p3.cube
TITLE "Guard Rail P3"
# Guard Rail Formation for P3 medium.
# The Guard Rail is designed to leaves valid value as-is, and only touch out of domain valuesModified from python script shared by Sakari Kapanen
# This LUT assumes input and output to be E Gamut encoded in Power 0.4 and then Log2 (-10 stop to +6.5 stop)
# LUT resolution 45
LUT_3D_SIZE 5
-0.0000000 0.0000000 -0.0000000
0.2484186 0.1630396 0.1630396
0.4984038 0.4130249 0.4130249
0.7428891 0.6783028 0.6783028
0.7559882 0.7559740 0.7559740
0.2047924 0.2539004 0.2047924
0.2536437 0.2536437 0.1939564
0.4984107 0.4133517 0.4130650
0.7428891 0.6783030 0.6783028
0.7559882 0.7559740 0.7559740
0.4548042 0.5039123 0.4548042
0.4547765 0.5038982 0.4546919
0.5036587 0.5036587 0.4439714
0.7428967 0.6784990 0.6783527
0.7559882 0.7559740 0.7559740
0.7124998 0.7495817 0.7124998
0.7124998 0.7495817 0.7124997
0.7124678 0.7495761 0.7124158
0.7509072 0.7509072 0.7049914
0.7559882 0.7559741 0.7559741
0.7559889 0.7559942 0.7559889
0.7559889 0.7559942 0.7559889
0.7559889 0.7559942 0.7559889
0.7559889 0.7559942 0.7559889
0.7559948 0.7559948 0.7559900
0.1729659 0.1729659 0.2336361
0.2488595 0.1982772 0.2488595
0.4984117 0.4127095 0.4129994
0.7428891 0.6783027 0.6783028
0.7559882 0.7559740 0.7559740
0.2200065 0.2566675 0.2566675
0.2500000 0.2500000 0.2500000
0.4984186 0.4130396 0.4130396
0.7428891 0.6783028 0.6783028
0.7559882 0.7559740 0.7559740
0.4548200 0.5039144 0.4549043
0.4547924 0.5039004 0.4547924
0.5036437 0.5036437 0.4439564
0.7428967 0.6784989 0.6783527
0.7559882 0.7559740 0.7559740
0.7124998 0.7495817 0.7124999
0.7124998 0.7495817 0.7124998
0.7124678 0.7495761 0.7124158
0.7509072 0.7509072 0.7049914
0.7559882 0.7559741 0.7559741
0.7559889 0.7559942 0.7559889
0.7559889 0.7559942 0.7559889
0.7559889 0.7559942 0.7559889
0.7559889 0.7559942 0.7559889
0.7559948 0.7559948 0.7559900
0.4228725 0.4228725 0.4835427
0.4230293 0.4229012 0.4835747
0.4988556 0.4482733 0.4988556
0.7428836 0.6781448 0.6782921
0.7559882 0.7559740 0.7559740
0.4229968 0.4231247 0.4836327
0.4229659 0.4229659 0.4836361
0.4988595 0.4482772 0.4988595
0.7428836 0.6781450 0.6782921
0.7559882 0.7559740 0.7559740
0.4700201 0.5066811 0.5066811
0.4700065 0.5066675 0.5066675
0.5000000 0.5000000 0.5000000
0.7428912 0.6783420 0.6783420
0.7559882 0.7559740 0.7559740
0.7125080 0.7495853 0.7125598
0.7125079 0.7495853 0.7125597
0.7124760 0.7495797 0.7124760
0.7509048 0.7509048 0.7049401
0.7559882 0.7559741 0.7559741
0.7559889 0.7559942 0.7559889
0.7559889 0.7559942 0.7559889
0.7559889 0.7559942 0.7559889
0.7559889 0.7559942 0.7559889
0.7559948 0.7559948 0.7559900
0.6728724 0.6728724 0.7335426
0.6728724 0.6728723 0.7335426
0.6730293 0.6729012 0.7335746
0.7482914 0.6988090 0.7482914
0.7559882 0.7559740 0.7559740
0.6728725 0.6728726 0.7335427
0.6728725 0.6728725 0.7335427
0.6730293 0.6729012 0.7335747
0.7482914 0.6988090 0.7482914
0.7559882 0.7559740 0.7559740
0.6729969 0.6731248 0.7336326
0.6729968 0.6731247 0.7336327
0.6729659 0.6729659 0.7336361
0.7482918 0.6988161 0.7482918
0.7559882 0.7559740 0.7559740
0.7219951 0.7540496 0.7540496
0.7219951 0.7540496 0.7540496
0.7219739 0.7540489 0.7540489
0.7500000 0.7500000 0.7500000
0.7559882 0.7559740 0.7559740
0.7559889 0.7559942 0.7559889
0.7559889 0.7559942 0.7559889
0.7559889 0.7559942 0.7559889
0.7559889 0.7559942 0.7559889
0.7559948 0.7559948 0.7559900
0.7559315 0.7559315 0.7559842
0.7559315 0.7559315 0.7559842
0.7559315 0.7559315 0.7559842
0.7559316 0.7559316 0.7559842
0.7559923 0.7559814 0.7559923
0.7559315 0.7559315 0.7559842
0.7559315 0.7559315 0.7559842
0.7559315 0.7559315 0.7559842
0.7559316 0.7559316 0.7559842
0.7559923 0.7559814 0.7559923
0.7559315 0.7559315 0.7559842
0.7559315 0.7559315 0.7559842
0.7559315 0.7559315 0.7559842
0.7559316 0.7559316 0.7559842
0.7559923 0.7559814 0.7559923
0.7559319 0.7559319 0.7559842
0.7559319 0.7559319 0.7559842
0.7559319 0.7559319 0.7559842
0.7559317 0.7559317 0.7559842
0.7559923 0.7559814 0.7559923
0.7559906 0.7559954 0.7559954
0.7559906 0.7559954 0.7559954
0.7559906 0.7559954 0.7559954
0.7559906 0.7559954 0.7559954
0.7559958 0.7559958 0.7559958
