LUTs/guard_rail_bt2020.cube
TITLE "Guard Rail BT.2020"
# Guard Rail Formation for BT.2020 medium.
# The Guard Rail is designed to leaves valid value as-is, and only touch out of domain valuesModified from python script shared by Sakari Kapanen
# This LUT assumes E Gamut encoded in Power 0.4, then Log2 (-10 stop to +6.5 stop), then Power 1.2
# LUT resolution 45
LUT_3D_SIZE 8
DOMAIN_MIN 0.000000 0.000000 0.000000
DOMAIN_MAX 0.954545 0.954545 0.954545
0.0000000 0.0000000 0.0000000
0.1350468 0.0659926 0.0659896
0.2711715 0.1915845 0.1915807
0.4074250 0.3215319 0.3215278
0.5437066 0.4531966 0.4531923
0.6800040 0.5858105 0.5858059
0.7143038 0.7099870 0.7099823
0.7148515 0.7147694 0.7147647
0.0688659 0.1372930 0.0688632
0.1391276 0.1391277 0.0867182
0.2712947 0.1964223 0.1921217
0.4074277 0.3216474 0.3215400
0.5437067 0.4531997 0.4531926
0.6800040 0.5858106 0.5858059
0.7143038 0.7099870 0.7099823
0.7148515 0.7147694 0.7147647
0.1951299 0.2738208 0.1951266
0.1997208 0.2738473 0.1955471
0.2759066 0.2759066 0.2161562
0.4076125 0.3288711 0.3223698
0.5437118 0.4534137 0.4532151
0.6800041 0.5858171 0.5858066
0.7143038 0.7099870 0.7099823
0.7148515 0.7147694 0.7147647
0.3253967 0.4102615 0.3253931
0.3255060 0.4102621 0.3254025
0.3323586 0.4103023 0.3260479
0.4124927 0.4124928 0.3482266
0.5439489 0.4626124 0.4542935
0.6800116 0.5861369 0.5858403
0.7143038 0.7099874 0.7099826
0.7148515 0.7147694 0.7147647
0.4572880 0.5466826 0.4572841
0.4572909 0.5466826 0.4572844
0.4574933 0.5466837 0.4573018
0.4662195 0.5467357 0.4581411
0.5490230 0.5490230 0.4814164
0.6802949 0.5970370 0.5871396
0.7143049 0.7100025 0.7099933
0.7148515 0.7147694 0.7147647
0.5900800 0.6830927 0.5900760
0.5900801 0.6830927 0.5900760
0.5900863 0.6830927 0.5900765
0.5903887 0.6830943 0.5901026
0.6007302 0.6831570 0.5911147
0.6855215 0.6855216 0.6152352
0.7143410 0.7104757 0.7103320
0.7148515 0.7147698 0.7147650
0.7127638 0.7144995 0.7127597
0.7127638 0.7144995 0.7127597
0.7127638 0.7144995 0.7127597
0.7127639 0.7144995 0.7127597
0.7127665 0.7144997 0.7127607
0.7128554 0.7145061 0.7127936
0.7146418 0.7146424 0.7134916
0.7148524 0.7147799 0.7147725
0.7148238 0.7148565 0.7148196
0.7148238 0.7148565 0.7148196
0.7148238 0.7148565 0.7148196
0.7148238 0.7148565 0.7148196
0.7148238 0.7148565 0.7148196
0.7148238 0.7148565 0.7148197
0.7148256 0.7148567 0.7148204
0.7148587 0.7148593 0.7148334
0.0711539 0.0711543 0.1224395
0.1349629 0.0847831 0.1349624
0.2713211 0.1861037 0.1912840
0.4074278 0.3214214 0.3215210
0.5437067 0.4531937 0.4531921
0.6800040 0.5858104 0.5858059
0.7143038 0.7099870 0.7099823
0.7148515 0.7147694 0.7147647
0.0767432 0.1376869 0.1376864
0.1363636 0.1363636 0.1363636
0.2714259 0.1918240 0.1918207
0.4074306 0.3215373 0.3215332
0.5437068 0.4531968 0.4531924
0.6800040 0.5858105 0.5858059
0.7143038 0.7099870 0.7099823
0.7148515 0.7147694 0.7147647
0.1895461 0.2736283 0.1945376
0.1949710 0.2736532 0.1949682
0.2756443 0.2756444 0.2159044
0.4076148 0.3287830 0.3223629
0.5437118 0.4534108 0.4532150
0.6800041 0.5858171 0.5858066
0.7143038 0.7099870 0.7099823
0.7148515 0.7147694 0.7147647
0.3252835 0.4102573 0.3253801
0.3253932 0.4102579 0.3253895
0.3322668 0.4102981 0.3260352
0.4124870 0.4124871 0.3482210
0.5439489 0.4626101 0.4542933
0.6800116 0.5861368 0.5858403
0.7143038 0.7099874 0.7099826
0.7148515 0.7147694 0.7147647
0.4572849 0.5466825 0.4572838
0.4572879 0.5466825 0.4572840
0.4574903 0.5466835 0.4573015
0.4662172 0.5467356 0.4581408
0.5490228 0.5490229 0.4814162
0.6802949 0.5970370 0.5871396
0.7143049 0.7100025 0.7099933
0.7148515 0.7147694 0.7147647
0.5900799 0.6830927 0.5900760
0.5900800 0.6830927 0.5900760
0.5900862 0.6830927 0.5900765
0.5903886 0.6830943 0.5901026
0.6007302 0.6831570 0.5911147
0.6855215 0.6855216 0.6152352
0.7143410 0.7104757 0.7103320
0.7148515 0.7147698 0.7147650
0.7127638 0.7144995 0.7127597
0.7127638 0.7144995 0.7127597
0.7127638 0.7144995 0.7127597
0.7127639 0.7144995 0.7127597
0.7127665 0.7144997 0.7127607
0.7128554 0.7145061 0.7127936
0.7146418 0.7146424 0.7134916
0.7148524 0.7147799 0.7147725
0.7148238 0.7148565 0.7148196
0.7148238 0.7148565 0.7148196
0.7148238 0.7148565 0.7148196
0.7148238 0.7148565 0.7148196
0.7148238 0.7148565 0.7148196
0.7148238 0.7148565 0.7148197
0.7148256 0.7148567 0.7148204
0.7148587 0.7148593 0.7148334
0.1972823 0.1972828 0.2564963
0.2001347 0.1978946 0.2570968
0.2711144 0.2137863 0.2711137
0.4076686 0.3125256 0.3210707
0.5437119 0.4529883 0.4531795
0.6800041 0.5858041 0.5858055
0.7143038 0.7099870 0.7099823
0.7148515 0.7147694 0.7147647
0.1959414 0.1983902 0.2576924
0.1989615 0.1989619 0.2582503
0.2712467 0.2139135 0.2712461
0.4076708 0.3126778 0.3210827
0.5437120 0.4529914 0.4531798
0.6800041 0.5858042 0.5858055
0.7143038 0.7099870 0.7099823
0.7148515 0.7147694 0.7147647
0.2044539 0.2742656 0.2742651
0.2042850 0.2740881 0.2740877
0.2727273 0.2727273 0.2727273
0.4078148 0.3219057 0.3219025
0.5437170 0.4532067 0.4532024
0.6800043 0.5858108 0.5858062
0.7143038 0.7099870 0.7099823
0.7148515 0.7147694 0.7147647
0.3162620 0.4099672 0.3244680
0.3164055 0.4099677 0.3244778
0.3251483 0.4100042 0.3251454
0.4120900 0.4120900 0.3478350
0.5439529 0.4624545 0.4542804
0.6800118 0.5861306 0.5858399
0.7143038 0.7099874 0.7099826
0.7148515 0.7147694 0.7147647
0.4570748 0.5466747 0.4572598
0.4570777 0.5466747 0.4572601
0.4572813 0.5466758 0.4572775
0.4660545 0.5467277 0.4581175
0.5490123 0.5490124 0.4814060
0.6802951 0.5970324 0.5871392
0.7143049 0.7100025 0.7099933
0.7148515 0.7147694 0.7147647
0.5900734 0.6830925 0.5900752
0.5900735 0.6830925 0.5900752
0.5900798 0.6830925 0.5900758
0.5903822 0.6830941 0.5901018
0.6007254 0.6831567 0.5911140
0.6855211 0.6855212 0.6152348
0.7143410 0.7104757 0.7103320
0.7148515 0.7147698 0.7147650
0.7127638 0.7144995 0.7127597
0.7127638 0.7144995 0.7127597
0.7127638 0.7144995 0.7127597
0.7127639 0.7144995 0.7127597
0.7127665 0.7144997 0.7127607
0.7128554 0.7145061 0.7127936
0.7146418 0.7146424 0.7134916
0.7148524 0.7147799 0.7147725
0.7148238 0.7148565 0.7148196
0.7148238 0.7148565 0.7148196
0.7148238 0.7148565 0.7148196
0.7148238 0.7148565 0.7148196
0.7148238 0.7148565 0.7148196
0.7148238 0.7148565 0.7148197
0.7148256 0.7148567 0.7148204
0.7148587 0.7148593 0.7148334
0.3277311 0.3277316 0.3916914
0.3277965 0.3277455 0.3917049
0.3321187 0.3286758 0.3926045
0.4073644 0.3456581 0.4073637
0.5440386 0.4408619 0.4525997
0.6800119 0.5854963 0.5857867
0.7143038 0.7099867 0.7099821
0.7148515 0.7147694 0.7147647
0.3277038 0.3277559 0.3917173
0.3277693 0.3277698 0.3917308
0.3320961 0.3286988 0.3926291
0.4073673 0.3456609 0.4073666
0.5440386 0.4408663 0.4526000
0.6800119 0.5854964 0.5857867
0.7143038 0.7099867 0.7099821
0.7148515 0.7147694 0.7147647
0.3255527 0.3294690 0.3935420
0.3256243 0.3294816 0.3935541
0.3303233 0.3303237 0.3943615
0.4075673 0.3458556 0.4075667
0.5440423 0.4411723 0.4526222
0.6800121 0.5855030 0.5857874
0.7143038 0.7099867 0.7099821
0.7148515 0.7147694 0.7147647
0.3355366 0.4107374 0.4107368
0.3355329 0.4107335 0.4107330
0.3352732 0.4104649 0.4104644
0.4090909 0.4090909 0.4090909
0.5442130 0.4536866 0.4536834
0.6800195 0.5858256 0.5858211
0.7143038 0.7099871 0.7099824
0.7148515 0.7147694 0.7147647
0.4448217 0.5463008 0.4560649
0.4448259 0.5463008 0.4560652
0.4451136 0.5463017 0.4560834
0.4569618 0.5463477 0.4569590
0.5484986 0.5484987 0.4809034
0.6803008 0.5968085 0.5871199
0.7143049 0.7100021 0.7099931
0.7148515 0.7147694 0.7147647
0.5897586 0.6830809 0.5900394
0.5897587 0.6830809 0.5900394
0.5897649 0.6830810 0.5900399
0.5900700 0.6830825 0.5900660
0.6004908 0.6831450 0.5910794
0.6855056 0.6855057 0.6152195
0.7143410 0.7104755 0.7103319
0.7148515 0.7147698 0.7147650
0.7127637 0.7144995 0.7127596
0.7127637 0.7144995 0.7127596
0.7127637 0.7144995 0.7127596
0.7127638 0.7144995 0.7127596
0.7127664 0.7144997 0.7127606
0.7128553 0.7145061 0.7127936
0.7146418 0.7146424 0.7134916
0.7148524 0.7147799 0.7147725
0.7148238 0.7148565 0.7148196
0.7148238 0.7148565 0.7148196
0.7148238 0.7148565 0.7148196
0.7148238 0.7148565 0.7148196
0.7148238 0.7148565 0.7148196
0.7148238 0.7148565 0.7148197
0.7148256 0.7148567 0.7148204
0.7148587 0.7148593 0.7148334
0.4597580 0.4597586 0.5271861
0.4597598 0.4597589 0.5271865
0.4598810 0.4597848 0.5272114
0.4654477 0.4609856 0.5283640
0.5436431 0.4787051 0.5436424
0.6804209 0.5702370 0.5850940
0.7143029 0.7099744 0.7099742
0.7148515 0.7147694 0.7147647
0.4597573 0.4597592 0.5271868
0.4597590 0.4597596 0.5271872
0.4598802 0.4597854 0.5272121
0.4654471 0.4609862 0.5283647
0.5436431 0.4787052 0.5436424
0.6804209 0.5702372 0.5850940
0.7143029 0.7099744 0.7099742
0.7148515 0.7147694 0.7147647
0.4597067 0.4598042 0.5272345
0.4597084 0.4598046 0.5272348
0.4598299 0.4598304 0.5272597
0.4654070 0.4610284 0.5284094
0.5436485 0.4787104 0.5436478
0.6804210 0.5702473 0.5850947
0.7143029 0.7099745 0.7099742
0.7148515 0.7147694 0.7147647
0.4568069 0.4620468 0.5296068
0.4568089 0.4620471 0.5296071
0.4569448 0.4620699 0.5296288
0.4631283 0.4631287 0.5306339
0.5439068 0.4789633 0.5439062
0.6804260 0.5707401 0.5851277
0.7143030 0.7099748 0.7099745
0.7148515 0.7147694 0.7147647
0.4680128 0.5471818 0.5471812
0.4680127 0.5471817 0.5471811
0.4680058 0.5471746 0.5471740
0.4676674 0.5468271 0.5468267
0.5454545 0.5454545 0.5454545
0.6806150 0.5864050 0.5864019
0.7143041 0.7099900 0.7099852
0.7148515 0.7147694 0.7147647
0.5743908 0.6826325 0.5885894
0.5743909 0.6826325 0.5885894
0.5744005 0.6826325 0.5885900
0.5748624 0.6826339 0.5886174
0.5896836 0.6826879 0.5896808
0.6848875 0.6848875 0.6146125
0.7143402 0.7104649 0.7103249
0.7148515 0.7147698 0.7147649
0.7127602 0.7144992 0.7127578
0.7127602 0.7144992 0.7127578
0.7127602 0.7144992 0.7127578
0.7127603 0.7144992 0.7127578
0.7127629 0.7144994 0.7127588
0.7128520 0.7145058 0.7127918
0.7146417 0.7146422 0.7134907
0.7148524 0.7147799 0.7147725
0.7148238 0.7148565 0.7148196
0.7148238 0.7148565 0.7148196
0.7148238 0.7148565 0.7148196
0.7148238 0.7148565 0.7148196
0.7148238 0.7148565 0.7148196
0.7148238 0.7148565 0.7148197
0.7148256 0.7148567 0.7148204
0.7148587 0.7148593 0.7148334
0.5926570 0.5926576 0.6628484
0.5926571 0.5926576 0.6628484
0.5926608 0.5926584 0.6628492
0.5928420 0.5926970 0.6628862
0.5995009 0.5941362 0.6642612
0.6799380 0.6124105 0.6799373
0.7142736 0.7095323 0.7096937
0.7148515 0.7147691 0.7147645
0.5926570 0.5926576 0.6628484
0.5926570 0.5926576 0.6628484
0.5926608 0.5926584 0.6628492
0.5928419 0.5926971 0.6628863
0.5995008 0.5941362 0.6642612
0.6799380 0.6124105 0.6799373
0.7142736 0.7095323 0.7096937
0.7148515 0.7147691 0.7147645
0.5926554 0.5926590 0.6628499
0.5926555 0.5926590 0.6628499
0.5926592 0.5926598 0.6628507
0.5928404 0.5926984 0.6628877
0.5994997 0.5941375 0.6642626
0.6799381 0.6124106 0.6799374
0.7142736 0.7095323 0.7096937
0.7148515 0.7147691 0.7147645
0.5925796 0.5927264 0.6629209
0.5925797 0.5927264 0.6629209
0.5925834 0.5927272 0.6629216
0.5927651 0.5927657 0.6629585
0.5994418 0.5941999 0.6643284
0.6799461 0.6124184 0.6799453
0.7142737 0.7095327 0.7096940
0.7148515 0.7147691 0.7147645
0.5889719 0.5954463 0.6657863
0.5889720 0.5954463 0.6657863
0.5889763 0.5954469 0.6657870
0.5891840 0.5954802 0.6658185
0.5967197 0.5967202 0.6669873
0.6802564 0.6127235 0.6802558
0.7142749 0.7095498 0.7097059
0.7148515 0.7147691 0.7147645
0.6012662 0.6836108 0.6836102
0.6012662 0.6836108 0.6836102
0.6012660 0.6836105 0.6836100
0.6012556 0.6836000 0.6835994
0.6008467 0.6831821 0.6831816
0.6818182 0.6818182 0.6818182
0.7143144 0.7100850 0.7100803
0.7148515 0.7147695 0.7147647
0.7126360 0.7144875 0.7126944
0.7126360 0.7144875 0.7126944
0.7126360 0.7144875 0.7126944
0.7126360 0.7144875 0.7126944
0.7126389 0.7144877 0.7126955
0.7127343 0.7144945 0.7127302
0.7146370 0.7146375 0.7134612
0.7148524 0.7147797 0.7147723
0.7148237 0.7148565 0.7148196
0.7148237 0.7148565 0.7148196
0.7148237 0.7148565 0.7148196
0.7148237 0.7148565 0.7148196
0.7148237 0.7148565 0.7148196
0.7148238 0.7148565 0.7148196
0.7148256 0.7148567 0.7148203
0.7148587 0.7148593 0.7148334
0.7015005 0.7015010 0.7129340
0.7015005 0.7015010 0.7129340
0.7015005 0.7015011 0.7129340
0.7015016 0.7015019 0.7129341
0.7015455 0.7015333 0.7129387
0.7029147 0.7025172 0.7130866
0.7145331 0.7111137 0.7145293
0.7148507 0.7147594 0.7147580
0.7015005 0.7015010 0.7129340
0.7015005 0.7015010 0.7129340
0.7015005 0.7015011 0.7129340
0.7015016 0.7015019 0.7129341
0.7015455 0.7015333 0.7129387
0.7029147 0.7025172 0.7130866
0.7145331 0.7111137 0.7145293
0.7148507 0.7147594 0.7147580
0.7015005 0.7015011 0.7129340
0.7015005 0.7015011 0.7129340
0.7015005 0.7015011 0.7129340
0.7015016 0.7015019 0.7129341
0.7015455 0.7015333 0.7129387
0.7029147 0.7025172 0.7130866
0.7145331 0.7111137 0.7145293
0.7148507 0.7147594 0.7147580
0.7015006 0.7015015 0.7129340
0.7015006 0.7015015 0.7129340
0.7015006 0.7015015 0.7129340
0.7015017 0.7015023 0.7129341
0.7015456 0.7015337 0.7129388
0.7029148 0.7025176 0.7130866
0.7145331 0.7111138 0.7145293
0.7148507 0.7147594 0.7147580
0.7015054 0.7015188 0.7129354
0.7015054 0.7015188 0.7129354
0.7015054 0.7015189 0.7129354
0.7015065 0.7015197 0.7129355
0.7015504 0.7015510 0.7129402
0.7029181 0.7025325 0.7130878
0.7145332 0.7111149 0.7145294
0.7148507 0.7147594 0.7147580
0.7016624 0.7020932 0.7129816
0.7016624 0.7020933 0.7129816
0.7016624 0.7020933 0.7129816
0.7016635 0.7020940 0.7129817
0.7017057 0.7021228 0.7129861
0.7030260 0.7030266 0.7131267
0.7145365 0.7111535 0.7145327
0.7148508 0.7147598 0.7147583
0.7128667 0.7146901 0.7146856
0.7128667 0.7146901 0.7146856
0.7128667 0.7146901 0.7146856
0.7128667 0.7146901 0.7146856
0.7128658 0.7146901 0.7146856
0.7128369 0.7146876 0.7146831
0.7148626 0.7148632 0.7148587
0.7148518 0.7147715 0.7147668
0.7148212 0.7148563 0.7148183
0.7148212 0.7148563 0.7148183
0.7148212 0.7148563 0.7148183
0.7148212 0.7148563 0.7148183
0.7148212 0.7148563 0.7148183
0.7148212 0.7148563 0.7148183
0.7148232 0.7148564 0.7148190
0.7148586 0.7148592 0.7148328
0.7145669 0.7145674 0.7148099
0.7145669 0.7145674 0.7148099
0.7145669 0.7145674 0.7148099
0.7145669 0.7145674 0.7148099
0.7145669 0.7145675 0.7148099
0.7145682 0.7145685 0.7148101
0.7146042 0.7145967 0.7148154
0.7148563 0.7147917 0.7148522
0.7145669 0.7145674 0.7148099
0.7145669 0.7145674 0.7148099
0.7145669 0.7145674 0.7148099
0.7145669 0.7145674 0.7148099
0.7145669 0.7145675 0.7148099
0.7145682 0.7145685 0.7148101
0.7146042 0.7145967 0.7148154
0.7148563 0.7147917 0.7148522
0.7145669 0.7145674 0.7148099
0.7145669 0.7145674 0.7148099
0.7145669 0.7145674 0.7148099
0.7145669 0.7145674 0.7148099
0.7145669 0.7145675 0.7148099
0.7145682 0.7145685 0.7148101
0.7146042 0.7145967 0.7148154
0.7148563 0.7147917 0.7148522
0.7145669 0.7145674 0.7148099
0.7145669 0.7145674 0.7148099
0.7145669 0.7145674 0.7148099
0.7145669 0.7145674 0.7148099
0.7145669 0.7145675 0.7148099
0.7145682 0.7145685 0.7148101
0.7146042 0.7145967 0.7148154
0.7148563 0.7147917 0.7148522
0.7145669 0.7145675 0.7148099
0.7145669 0.7145675 0.7148099
0.7145669 0.7145675 0.7148099
0.7145669 0.7145675 0.7148099
0.7145669 0.7145675 0.7148099
0.7145682 0.7145685 0.7148101
0.7146042 0.7145967 0.7148154
0.7148563 0.7147917 0.7148522
0.7145671 0.7145680 0.7148100
0.7145671 0.7145680 0.7148100
0.7145671 0.7145680 0.7148100
0.7145671 0.7145680 0.7148100
0.7145671 0.7145680 0.7148100
0.7145685 0.7145690 0.7148102
0.7146044 0.7145971 0.7148154
0.7148563 0.7147917 0.7148522
0.7145739 0.7145833 0.7148118
0.7145739 0.7145833 0.7148118
0.7145739 0.7145833 0.7148118
0.7145739 0.7145833 0.7148118
0.7145739 0.7145833 0.7148118
0.7145752 0.7145842 0.7148120
0.7146091 0.7146097 0.7148169
0.7148564 0.7147926 0.7148522
0.7148258 0.7148602 0.7148554
0.7148258 0.7148602 0.7148554
0.7148258 0.7148602 0.7148554
0.7148258 0.7148602 0.7148554
0.7148258 0.7148602 0.7148554
0.7148258 0.7148602 0.7148554
0.7148252 0.7148601 0.7148554
0.7148629 0.7148634 0.7148587
