LUTs/guard_rail_bt2020.cube
TITLE "Guard Rail BT.2020"
# Guard Rail Formation for BT.2020 medium.
# The Guard Rail is designed to leaves valid value as-is, and only touch out of domain valuesModified from python script shared by Sakari Kapanen
# This LUT assumes E Gamut encoded in Power 0.4, then Log2 (-10 stop to +6.5 stop), then Power 1.2
# LUT resolution 45
LUT_3D_SIZE 5
0.0000000 0.0000000 0.0000000
0.2484678 0.1702113 0.1702076
0.4982773 0.4091784 0.4091741
0.7120903 0.6825703 0.6825656
0.7148598 0.7148379 0.7148332
0.1736864 0.2510771 0.1736831
0.2531327 0.2531327 0.1943260
0.4982859 0.4095401 0.4092123
0.7120903 0.6825704 0.6825656
0.7148598 0.7148379 0.7148332
0.4132009 0.5012104 0.4131972
0.4135431 0.5012122 0.4132267
0.5035172 0.5035173 0.4369340
0.7120950 0.6827240 0.6826505
0.7148598 0.7148379 0.7148332
0.6981508 0.7123670 0.6981466
0.6981508 0.7123670 0.6981467
0.6981893 0.7123688 0.6981582
0.7132117 0.7132122 0.7035359
0.7148598 0.7148381 0.7148333
0.7148523 0.7148616 0.7148481
0.7148523 0.7148616 0.7148481
0.7148523 0.7148616 0.7148481
0.7148523 0.7148616 0.7148481
0.7148617 0.7148623 0.7148519
0.1758055 0.1758060 0.2340165
0.2484109 0.1919996 0.2484103
0.4982862 0.4088298 0.4091528
0.7120903 0.6825701 0.6825655
0.7148598 0.7148379 0.7148332
0.1828348 0.2515155 0.2515150
0.2500000 0.2500000 0.2500000
0.4982947 0.4091952 0.4091910
0.7120903 0.6825703 0.6825656
0.7148598 0.7148379 0.7148332
0.4128442 0.5011972 0.4131566
0.4131899 0.5011990 0.4131861
0.5034994 0.5034995 0.4369166
0.7120950 0.6827238 0.6826505
0.7148598 0.7148379 0.7148332
0.6981507 0.7123670 0.6981466
0.6981508 0.7123670 0.6981466
0.6981892 0.7123688 0.6981582
0.7132117 0.7132122 0.7035359
0.7148598 0.7148381 0.7148333
0.7148523 0.7148616 0.7148481
0.7148523 0.7148616 0.7148481
0.7148523 0.7148616 0.7148481
0.7148523 0.7148616 0.7148481
0.7148617 0.7148623 0.7148519
0.4156297 0.4156302 0.4819985
0.4158348 0.4156740 0.4820407
0.4982146 0.4342663 0.4982140
0.7120873 0.6824446 0.6825094
0.7148598 0.7148379 0.7148332
0.4155438 0.4157065 0.4820793
0.4157496 0.4157501 0.4821214
0.4982237 0.4342751 0.4982230
0.7120873 0.6824447 0.6825094
0.7148598 0.7148379 0.7148332
0.4237478 0.5017024 0.5017018
0.4237361 0.5016903 0.5016898
0.5000000 0.5000000 0.5000000
0.7120920 0.6825992 0.6825945
0.7148598 0.7148379 0.7148332
0.6981004 0.7123638 0.6981233
0.6981004 0.7123639 0.6981233
0.6981390 0.7123656 0.6981349
0.7132100 0.7132105 0.7035230
0.7148598 0.7148381 0.7148333
0.7148523 0.7148616 0.7148481
0.7148523 0.7148616 0.7148481
0.7148523 0.7148616 0.7148481
0.7148523 0.7148616 0.7148481
0.7148617 0.7148623 0.7148519
0.6592541 0.6592547 0.7095600
0.6592544 0.6592548 0.7095600
0.6595228 0.6593644 0.7095688
0.7130906 0.6892831 0.7130884
0.7148598 0.7148378 0.7148331
0.6592541 0.6592548 0.7095600
0.6592543 0.6592549 0.7095600
0.6595228 0.6593644 0.7095688
0.7130906 0.6892831 0.7130884
0.7148598 0.7148378 0.7148331
0.6592001 0.6593606 0.7095613
0.6592003 0.6593606 0.7095613
0.6594691 0.6594697 0.7095701
0.7130912 0.6892953 0.7130890
0.7148598 0.7148378 0.7148331
0.6986221 0.7136601 0.7136568
0.6986221 0.7136601 0.7136568
0.6986098 0.7136593 0.7136561
0.7148611 0.7148615 0.7148584
0.7148598 0.7148380 0.7148332
0.7148522 0.7148616 0.7148481
0.7148522 0.7148616 0.7148481
0.7148522 0.7148616 0.7148481
0.7148523 0.7148616 0.7148481
0.7148617 0.7148623 0.7148519
0.7147824 0.7147829 0.7148454
0.7147824 0.7147829 0.7148454
0.7147824 0.7147829 0.7148454
0.7147830 0.7147835 0.7148455
0.7148611 0.7148440 0.7148569
0.7147824 0.7147829 0.7148454
0.7147824 0.7147829 0.7148454
0.7147824 0.7147829 0.7148454
0.7147830 0.7147835 0.7148455
0.7148611 0.7148440 0.7148569
0.7147824 0.7147829 0.7148454
0.7147824 0.7147829 0.7148454
0.7147824 0.7147829 0.7148454
0.7147830 0.7147835 0.7148455
0.7148611 0.7148440 0.7148569
0.7147825 0.7147832 0.7148455
0.7147825 0.7147832 0.7148455
0.7147825 0.7147832 0.7148455
0.7147832 0.7147838 0.7148456
0.7148611 0.7148440 0.7148569
0.7148528 0.7148626 0.7148578
0.7148528 0.7148626 0.7148578
0.7148528 0.7148626 0.7148578
0.7148528 0.7148626 0.7148578
0.7148629 0.7148634 0.7148587
