LUTs/luminance_correction_bt2020.cube
TITLE "Pre-formation 2012 Luminance Correction for BT.2020 Target"
# Use CIE 2012 Luminance to Compensate for Some Out-of-Domain Values
# This LUT assumes input and output to be E Gamut encoded in Log2 (-10 stop to +15 stop)
# LUT resolution 33
LUT_3D_SIZE 9
-0.0000000 0.0000000 -0.0000000
0.1250000 0.0000000 -0.0000000
0.2426744 0.1028719 0.1028660
0.3664589 0.2266573 0.2266506
0.4913179 0.3515165 0.3515096
0.6163018 0.4765003 0.4764934
0.7412999 0.6014984 0.6014916
0.8662997 0.7264982 0.7264914
0.9912997 0.8514982 0.8514914
-0.0000000 0.1250000 0.0000000
0.1255667 0.1255668 0.0217294
0.2442940 0.1484769 0.1097880
0.3667198 0.2340004 0.2275424
0.4913491 0.3524046 0.3516134
0.6163054 0.4766028 0.4765054
0.7413003 0.6015102 0.6014930
0.8662997 0.7264996 0.7264915
0.9912997 0.8514984 0.8514914
0.1114664 0.2493820 0.1114612
0.1544263 0.2495405 0.1165559
0.2516830 0.2516831 0.1478457
0.3686302 0.2758294 0.2346316
0.4916145 0.3596434 0.3525080
0.6163365 0.4774893 0.4766092
0.7413039 0.6016126 0.6015049
0.8663002 0.7265113 0.7264929
0.9912997 0.8514997 0.8514915
0.2363750 0.3742899 0.2363691
0.2432209 0.3743100 0.2369748
0.2823489 0.3744991 0.2419886
0.3768096 0.3768097 0.2729723
0.4935567 0.4010871 0.3596152
0.6166024 0.4847165 0.4775041
0.7413351 0.6024990 0.6016087
0.8663037 0.7266138 0.7265048
0.9913001 0.8515115 0.8514929
0.3613645 0.4992793 0.3613585
0.3621911 0.4992816 0.3614282
0.3689362 0.4993022 0.3620328
0.4076701 0.4994947 0.3670376
0.5018241 0.5018242 0.3979868
0.6185483 0.5261165 0.4846133
0.7416011 0.6097248 0.6025036
0.8663349 0.7275001 0.7266086
0.9913037 0.8516139 0.8515048
0.4863633 0.6242781 0.4863573
0.4864586 0.6242783 0.4863653
0.4872838 0.6242807 0.4864350
0.4940174 0.6243013 0.4870394
0.5327068 0.6244942 0.4920432
0.6268257 0.6268259 0.5229884
0.7435473 0.6511199 0.6096131
0.8666009 0.7347258 0.7275036
0.9913349 0.8525003 0.8516086
0.6113632 0.7492779 0.6113571
0.6113741 0.7492780 0.6113581
0.6114694 0.7492782 0.6113661
0.6122944 0.7492806 0.6114358
0.6190267 0.7493012 0.6120402
0.6577110 0.7494941 0.6170438
0.7518259 0.7518261 0.6479886
0.8685472 0.7761203 0.7346131
0.9916009 0.8597259 0.8525036
0.7363631 0.8742779 0.7363571
0.7363644 0.8742779 0.7363572
0.7363753 0.8742780 0.7363581
0.7364707 0.8742782 0.7363661
0.7372956 0.8742806 0.7364359
0.7440278 0.8743012 0.7370402
0.7827115 0.8744941 0.7420439
0.8768260 0.8768261 0.7729886
0.9935472 0.9011203 0.8596131
0.8613631 0.9992779 0.8613571
0.8613633 0.9992779 0.8613571
0.8613645 0.9992779 0.8613572
0.8613755 0.9992780 0.8613582
0.8614708 0.9992782 0.8613662
0.8622958 0.9992806 0.8614359
0.8690279 0.9993012 0.8620402
0.9077115 0.9994941 0.8670439
1.0018260 1.0018261 0.8979886
0.0054754 0.0054757 0.1097865
0.1203056 0.0204373 0.1203052
0.2473904 0.0583484 0.1325681
0.3674552 0.2194567 0.2269998
0.4914283 0.3507555 0.3515471
0.6163144 0.4764138 0.4764977
0.7413014 0.6014885 0.6014921
0.8662999 0.7264971 0.7264914
0.9912997 0.8514981 0.8514914
0.0030527 0.1249575 0.1249574
0.1250000 0.1250000 0.1250000
0.2500000 0.1250000 0.1250000
0.3676744 0.2278719 0.2278660
0.4914589 0.3516573 0.3516506
0.6163179 0.4765165 0.4765096
0.7413018 0.6015003 0.6014934
0.8662999 0.7264984 0.7264916
0.9912997 0.8514982 0.8514914
-0.0000000 0.2500000 0.1250000
0.1250000 0.2500000 0.1250000
0.2505667 0.2505668 0.1467294
0.3692940 0.2734769 0.2347880
0.4917198 0.3590004 0.3525424
0.6163491 0.4774046 0.4766134
0.7413054 0.6016028 0.6015054
0.8663003 0.7265102 0.7264930
0.9912997 0.8514996 0.8514915
0.2285918 0.3743656 0.2358449
0.2364664 0.3743820 0.2364612
0.2794263 0.3745405 0.2415559
0.3766830 0.3766831 0.2728457
0.4936302 0.4008294 0.3596316
0.6166145 0.4846434 0.4775080
0.7413365 0.6024893 0.6016092
0.8663039 0.7266126 0.7265049
0.9913002 0.8515113 0.8514929
0.3605351 0.4992876 0.3612992
0.3613750 0.4992899 0.3613691
0.3682209 0.4993100 0.3619748
0.4073489 0.4994991 0.3669886
0.5018096 0.5018097 0.3979723
0.6185567 0.5260871 0.4846152
0.7416024 0.6097165 0.6025041
0.8663351 0.7274990 0.7266087
0.9913037 0.8516138 0.8515048
0.4862690 0.6242790 0.4863505
0.4863645 0.6242793 0.4863585
0.4871911 0.6242816 0.4864282
0.4939362 0.6243022 0.4870328
0.5326701 0.6244947 0.4920376
0.6268241 0.6268242 0.5229868
0.7435483 0.6511165 0.6096133
0.8666011 0.7347248 0.7275036
0.9913349 0.8525001 0.8516086
0.6113524 0.7492780 0.6113564
0.6113633 0.7492781 0.6113573
0.6114586 0.7492783 0.6113653
0.6122838 0.7492807 0.6114350
0.6190174 0.7493013 0.6120394
0.6577068 0.7494942 0.6170432
0.7518257 0.7518259 0.6479884
0.8685473 0.7761199 0.7346131
0.9916009 0.8597258 0.8525036
0.7363619 0.8742779 0.7363570
0.7363632 0.8742779 0.7363571
0.7363741 0.8742780 0.7363581
0.7364694 0.8742782 0.7363661
0.7372944 0.8742806 0.7364358
0.7440267 0.8743012 0.7370402
0.7827110 0.8744941 0.7420438
0.8768259 0.8768261 0.7729886
0.9935472 0.9011203 0.8596131
0.8613630 0.9992779 0.8613571
0.8613631 0.9992779 0.8613571
0.8613644 0.9992779 0.8613572
0.8613753 0.9992780 0.8613581
0.8614707 0.9992782 0.8613661
0.8622956 0.9992806 0.8614359
0.8690278 0.9993012 0.8620402
0.9077115 0.9994941 0.8670439
1.0018260 1.0018261 0.8979886
0.0747349 0.0747357 0.1790464
0.1175651 0.0934468 0.1972778
0.2367701 0.1369012 0.2367691
0.3709291 0.1847112 0.2608589
0.4924295 0.3434114 0.3518994
0.6164248 0.4756512 0.4765353
0.7413140 0.6014021 0.6014963
0.8663013 0.7264872 0.7264919
0.9912999 0.8514969 0.8514914
0.0992194 0.1301419 0.2184432
0.1304754 0.1304757 0.2347865
0.2453056 0.1454373 0.2453052
0.3723904 0.1833484 0.2575681
0.4924552 0.3444567 0.3519998
0.6164283 0.4757555 0.4765471
0.7413144 0.6014138 0.6014977
0.8663014 0.7264885 0.7264921
0.9912999 0.8514971 0.8514914
0.1273643 0.2492698 0.2492691
0.1280527 0.2499575 0.2499574
0.2500000 0.2500000 0.2500000
0.3750000 0.2500000 0.2500000
0.4926744 0.3528719 0.3528660
0.6164589 0.4766573 0.4766506
0.7413179 0.6015165 0.6015096
0.8663018 0.7265003 0.7264934
0.9912999 0.8514984 0.8514916
0.0971353 0.3749387 0.2528160
0.1250000 0.3750000 0.2500000
0.2500000 0.3750000 0.2500000
0.3755667 0.3755668 0.2717294
0.4942940 0.3984769 0.3597880
0.6167198 0.4840004 0.4775424
0.7413491 0.6024046 0.6016134
0.8663054 0.7266028 0.7265054
0.9913003 0.8515102 0.8514930
0.3526157 0.4993637 0.3607738
0.3535918 0.4993656 0.3608449
0.3614664 0.4993820 0.3614612
0.4044263 0.4995405 0.3665559
0.5016830 0.5016831 0.3978457
0.6186302 0.5258294 0.4846316
0.7416145 0.6096434 0.6025080
0.8663365 0.7274893 0.7266092
0.9913039 0.8516126 0.8515049
0.4854381 0.6242873 0.4862912
0.4855351 0.6242876 0.4862992
0.4863750 0.6242899 0.4863691
0.4932209 0.6243100 0.4869748
0.5323489 0.6244991 0.4919886
0.6268096 0.6268097 0.5229723
0.7435567 0.6510871 0.6096152
0.8666024 0.7347165 0.7275041
0.9913351 0.8524990 0.8516087
0.6112580 0.7492790 0.6113496
0.6112690 0.7492790 0.6113505
0.6113645 0.7492793 0.6113585
0.6121911 0.7492816 0.6114282
0.6189362 0.7493022 0.6120328
0.6576701 0.7494947 0.6170376
0.7518241 0.7518242 0.6479868
0.8685483 0.7761165 0.7346133
0.9916011 0.8597248 0.8525036
0.7363511 0.8742780 0.7363563
0.7363524 0.8742780 0.7363564
0.7363633 0.8742781 0.7363573
0.7364586 0.8742783 0.7363653
0.7372838 0.8742807 0.7364350
0.7440174 0.8743013 0.7370394
0.7827068 0.8744942 0.7420432
0.8768257 0.8768259 0.7729884
0.9935473 0.9011199 0.8596131
0.8613618 0.9992779 0.8613570
0.8613619 0.9992779 0.8613570
0.8613632 0.9992779 0.8613571
0.8613741 0.9992780 0.8613581
0.8614694 0.9992782 0.8613661
0.8622944 0.9992806 0.8614358
0.8690267 0.9993012 0.8620402
0.9077110 0.9994941 0.8670438
1.0018259 1.0018261 0.8979886
0.1878225 0.1878233 0.2921340
0.1947358 0.1914121 0.2956682
0.2392158 0.2131490 0.3169315
0.3607059 0.2608370 0.3607048
0.4957606 0.3098530 0.3862031
0.6174265 0.4682904 0.4768879
0.7414244 0.6006392 0.6015339
0.8663139 0.7264007 0.7264962
0.9913013 0.8514870 0.8514919
0.1931562 0.1967361 0.3011022
0.1997349 0.1997357 0.3040464
0.2425651 0.2184468 0.3222778
0.3617701 0.2619012 0.3617691
0.4959291 0.3097112 0.3858589
0.6174295 0.4684114 0.4768994
0.7414248 0.6006512 0.6015353
0.8663140 0.7264021 0.7264963
0.9913013 0.8514872 0.8514919
0.2217966 0.2551176 0.3410506
0.2242194 0.2551419 0.3434432
0.2554754 0.2554757 0.3597865
0.3703056 0.2704373 0.3703052
0.4973904 0.3083484 0.3825681
0.6174552 0.4694567 0.4769998
0.7414283 0.6007555 0.6015471
0.8663144 0.7264138 0.7264977
0.9913014 0.8514885 0.8514921
0.2522849 0.3741905 0.3741896
0.2523643 0.3742698 0.3742691
0.2530527 0.3749575 0.3749574
0.3750000 0.3750000 0.3750000
0.5000000 0.3750000 0.3750000
0.6176744 0.4778719 0.4778660
0.7414589 0.6016573 0.6016506
0.8663179 0.7265165 0.7265096
0.9913018 0.8515003 0.8514934
0.2233159 0.4999248 0.3784324
0.2221353 0.4999387 0.3778160
0.2500000 0.5000000 0.3750000
0.3750000 0.5000000 0.3750000
0.5005667 0.5005668 0.3967294
0.6192940 0.5234769 0.4847880
0.7417198 0.6090004 0.6025424
0.8663491 0.7274046 0.7266134
0.9913054 0.8516028 0.8515054
0.4775027 0.6243635 0.4857657
0.4776157 0.6243637 0.4857738
0.4785918 0.6243656 0.4858449
0.4864664 0.6243820 0.4864612
0.5294263 0.6245405 0.4915559
0.6266830 0.6266831 0.5228457
0.7436302 0.6508294 0.6096316
0.8666145 0.7346434 0.7275080
0.9913365 0.8524893 0.8516092
0.6104269 0.7492873 0.6112903
0.6104381 0.7492873 0.6112912
0.6105351 0.7492876 0.6112992
0.6113750 0.7492899 0.6113691
0.6182209 0.7493100 0.6119748
0.6573489 0.7494991 0.6169886
0.7518096 0.7518097 0.6479723
0.8685567 0.7760871 0.7346152
0.9916024 0.8597165 0.8525041
0.7362568 0.8742790 0.7363495
0.7362580 0.8742790 0.7363496
0.7362690 0.8742790 0.7363505
0.7363645 0.8742793 0.7363585
0.7371911 0.8742816 0.7364282
0.7439362 0.8743022 0.7370328
0.7826701 0.8744947 0.7420376
0.8768241 0.8768242 0.7729868
0.9935483 0.9011165 0.8596133
0.8613510 0.9992780 0.8613562
0.8613511 0.9992780 0.8613563
0.8613524 0.9992780 0.8613564
0.8613633 0.9992781 0.8613573
0.8614586 0.9992783 0.8613653
0.8622838 0.9992807 0.8614350
0.8690174 0.9993013 0.8620394
0.9077068 0.9994942 0.8670432
1.0018257 1.0018259 0.8979884
0.3112855 0.3112864 0.4155971
0.3121195 0.3117296 0.4160340
0.3190837 0.3153962 0.4196461
0.3638022 0.3375192 0.4412963
0.4855826 0.3857137 0.4855816
0.6207413 0.4348691 0.5112421
0.7424262 0.5932765 0.6018866
0.8664244 0.7256379 0.7265337
0.9913139 0.8514005 0.8514962
0.3119949 0.3123898 0.4167068
0.3128225 0.3128233 0.4171340
0.3197358 0.3164121 0.4206682
0.3642158 0.3381490 0.4419315
0.4857059 0.3858370 0.4857048
0.6207606 0.4348530 0.5112031
0.7424265 0.5932904 0.6018879
0.8664244 0.7256392 0.7265339
0.9913139 0.8514007 0.8514962
0.3173705 0.3213757 0.4257482
0.3181562 0.3217361 0.4261022
0.3247349 0.3247357 0.4290464
0.3675651 0.3434468 0.4472778
0.4867701 0.3869012 0.4867691
0.6209291 0.4347112 0.5108589
0.7424295 0.5934114 0.6018994
0.8664248 0.7256512 0.7265353
0.9913140 0.8514021 0.8514963
0.3465251 0.3801115 0.4657826
0.3467966 0.3801176 0.4660506
0.3492194 0.3801419 0.4684432
0.3804754 0.3804757 0.4847865
0.4953056 0.3954373 0.4953052
0.6223904 0.4333484 0.5075681
0.7424552 0.5944567 0.6019998
0.8664283 0.7257555 0.7265471
0.9913144 0.8514138 0.8514977
0.3772758 0.4991814 0.4991805
0.3772849 0.4991905 0.4991896
0.3773643 0.4992698 0.4992691
0.3780527 0.4999575 0.4999574
0.5000000 0.5000000 0.5000000
0.6250000 0.5000000 0.5000000
0.7426744 0.6028719 0.6028660
0.8664589 0.7266573 0.7266506
0.9913179 0.8515165 0.8515096
0.3484494 0.6249232 0.5035025
0.3483159 0.6249248 0.5034324
0.3471353 0.6249387 0.5028160
0.3750000 0.6250000 0.5000000
0.5000000 0.6250000 0.5000000
0.6255667 0.6255668 0.5217294
0.7442940 0.6484769 0.6097880
0.8667198 0.7340004 0.7275424
0.9913491 0.8524046 0.8516134
0.6024897 0.7493635 0.6107647
0.6025027 0.7493635 0.6107657
0.6026157 0.7493637 0.6107738
0.6035918 0.7493656 0.6108449
0.6114664 0.7493820 0.6114612
0.6544263 0.7495405 0.6165559
0.7516830 0.7516831 0.6478457
0.8686302 0.7758294 0.7346316
0.9916145 0.8596434 0.8525080
0.7354257 0.8742873 0.7362902
0.7354269 0.8742873 0.7362903
0.7354381 0.8742873 0.7362912
0.7355351 0.8742876 0.7362992
0.7363750 0.8742899 0.7363691
0.7432209 0.8743100 0.7369748
0.7823489 0.8744991 0.7419886
0.8768096 0.8768097 0.7729723
0.9935567 0.9010871 0.8596152
0.8612566 0.9992790 0.8613495
0.8612568 0.9992790 0.8613495
0.8612580 0.9992790 0.8613496
0.8612690 0.9992790 0.8613505
0.8613645 0.9992793 0.8613585
0.8621911 0.9992816 0.8614282
0.8689362 0.9993022 0.8620328
0.9076701 0.9994947 0.8670376
1.0018241 1.0018242 0.8979868
0.4361067 0.4361076 0.5404183
0.4362029 0.4361588 0.5404688
0.4370377 0.4366031 0.5409069
0.4440079 0.4402788 0.5445281
0.4887544 0.4624467 0.5662232
0.6105685 0.5106996 0.6105674
0.7457390 0.5598709 0.6362466
0.8674261 0.7182749 0.7268864
0.9914244 0.8506377 0.8515337
0.4361894 0.4362353 0.5405467
0.4362855 0.4362864 0.5405971
0.4371195 0.4367296 0.5410340
0.4440837 0.4403962 0.5446461
0.4888022 0.4625192 0.5662963
0.6105826 0.5107137 0.6105816
0.7457413 0.5598691 0.6362421
0.8674262 0.7182765 0.7268866
0.9914244 0.8506379 0.8515337
0.4368995 0.4373398 0.5416576
0.4369949 0.4373898 0.5417068
0.4378225 0.4378233 0.5421340
0.4447358 0.4414121 0.5456682
0.4892158 0.4631490 0.5669315
0.6107059 0.5108370 0.6107048
0.7457606 0.5598530 0.6362031
0.8674265 0.7182904 0.7268879
0.9914244 0.8506392 0.8515339
0.4422800 0.4463342 0.5507074
0.4423705 0.4463757 0.5507482
0.4431562 0.4467361 0.5511022
0.4497349 0.4497357 0.5540464
0.4925651 0.4684468 0.5722778
0.6117701 0.5119012 0.6117691
0.7459291 0.5597112 0.6358589
0.8674295 0.7184114 0.7268994
0.9914248 0.8506512 0.8515353
0.4714941 0.5051108 0.5907520
0.4715251 0.5051115 0.5907826
0.4717966 0.5051176 0.5910506
0.4742194 0.5051419 0.5934432
0.5054754 0.5054757 0.6097865
0.6203056 0.5204373 0.6203052
0.7473904 0.5583484 0.6325681
0.8674552 0.7194567 0.7269998
0.9914283 0.8507555 0.8515471
0.5022747 0.6241803 0.6241795
0.5022758 0.6241814 0.6241805
0.5022849 0.6241905 0.6241896
0.5023643 0.6242698 0.6242691
0.5030527 0.6249575 0.6249574
0.6250000 0.6250000 0.6250000
0.7500000 0.6250000 0.6250000
0.8676744 0.7278719 0.7278660
0.9914589 0.8516573 0.8516506
0.4734647 0.7499231 0.6285105
0.4734494 0.7499232 0.6285025
0.4733159 0.7499248 0.6284324
0.4721353 0.7499387 0.6278160
0.5000000 0.7500000 0.6250000
0.6250000 0.7500000 0.6250000
0.7505667 0.7505668 0.6467294
0.8692940 0.7734769 0.7347880
0.9917198 0.8590004 0.8525424
0.7274882 0.8743635 0.7357646
0.7274897 0.8743635 0.7357647
0.7275027 0.8743635 0.7357657
0.7276157 0.8743637 0.7357738
0.7285918 0.8743656 0.7358449
0.7364664 0.8743820 0.7364612
0.7794263 0.8745405 0.7415559
0.8766830 0.8766831 0.7728457
0.9936302 0.9008294 0.8596316
0.8604255 0.9992873 0.8612901
0.8604257 0.9992873 0.8612902
0.8604269 0.9992873 0.8612903
0.8604381 0.9992873 0.8612912
0.8605351 0.9992876 0.8612992
0.8613750 0.9992899 0.8613691
0.8682209 0.9993100 0.8619748
0.9073489 0.9994991 0.8669886
1.0018096 1.0018097 0.8979723
0.5610862 0.5610870 0.6653978
0.5610972 0.5610929 0.6654036
0.5611934 0.5611442 0.6654541
0.5620283 0.5615886 0.6658923
0.5689992 0.5652654 0.6695145
0.6137489 0.5874384 0.6912148
0.7355668 0.6356980 0.7355658
0.8707388 0.6848711 0.7612471
0.9924261 0.8432748 0.8518864
0.5610957 0.5611017 0.6654125
0.5611067 0.5611076 0.6654183
0.5612029 0.5611588 0.6654688
0.5620377 0.5616031 0.6659069
0.5690079 0.5652788 0.6695281
0.6137544 0.5874467 0.6912232
0.7355685 0.6356996 0.7355674
0.8707390 0.6848709 0.7612466
0.9924261 0.8432749 0.8518864
0.5611784 0.5612294 0.6655409
0.5611894 0.5612353 0.6655467
0.5612855 0.5612864 0.6655971
0.5621195 0.5617296 0.6660340
0.5690837 0.5653962 0.6696461
0.6138022 0.5875192 0.6912963
0.7355826 0.6357137 0.7355816
0.8707413 0.6848691 0.7612421
0.9924262 0.8432765 0.8518866
0.5618886 0.5623341 0.6666519
0.5618995 0.5623398 0.6666576
0.5619949 0.5623898 0.6667068
0.5628225 0.5628233 0.6671340
0.5697358 0.5664121 0.6706682
0.6142158 0.5881490 0.6919315
0.7357059 0.6358370 0.7357048
0.8707606 0.6848530 0.7612031
0.9924265 0.8432904 0.8518879
0.5672696 0.5713294 0.6757027
0.5672800 0.5713342 0.6757074
0.5673705 0.5713757 0.6757482
0.5681562 0.5717361 0.6761022
0.5747349 0.5747357 0.6790464
0.6175651 0.5934468 0.6972778
0.7367701 0.6369012 0.7367691
0.8709291 0.6847112 0.7608589
0.9924295 0.8434114 0.8518994
0.5964905 0.6301107 0.7157485
0.5964941 0.6301108 0.7157520
0.5965251 0.6301115 0.7157826
0.5967966 0.6301176 0.7160506
0.5992194 0.6301419 0.7184432
0.6304754 0.6304757 0.7347865
0.7453056 0.6454373 0.7453052
0.8723904 0.6833484 0.7575681
0.9924552 0.8444567 0.8519998
0.6272746 0.7491802 0.7491794
0.6272747 0.7491803 0.7491795
0.6272758 0.7491814 0.7491805
0.6272849 0.7491905 0.7491896
0.6273643 0.7492698 0.7492691
0.6280527 0.7499575 0.7499574
0.7500000 0.7500000 0.7500000
0.8750000 0.7500000 0.7500000
0.9926744 0.8528719 0.8528660
0.5984665 0.8749230 0.7535114
0.5984647 0.8749231 0.7535105
0.5984494 0.8749232 0.7535025
0.5983159 0.8749248 0.7534324
0.5971353 0.8749387 0.7528160
0.6250000 0.8750000 0.7500000
0.7500000 0.8750000 0.7500000
0.8755667 0.8755668 0.7717294
0.9942940 0.8984769 0.8597880
0.8524881 0.9993635 0.8607646
0.8524882 0.9993635 0.8607646
0.8524897 0.9993635 0.8607647
0.8525027 0.9993635 0.8607657
0.8526157 0.9993637 0.8607738
0.8535918 0.9993656 0.8608449
0.8614664 0.9993820 0.8614612
0.9044263 0.9995405 0.8665559
1.0016830 1.0016831 0.8978457
0.6860838 0.6860847 0.7903954
0.6860851 0.6860854 0.7903961
0.6860961 0.6860912 0.7904019
0.6861923 0.6861425 0.7904524
0.6870272 0.6865870 0.7908906
0.6939982 0.6902638 0.7945130
0.7387483 0.7124375 0.8162138
0.8605667 0.7606978 0.8605656
0.9957388 0.8098712 0.8862472
0.6860849 0.6860864 0.7903971
0.6860862 0.6860870 0.7903978
0.6860972 0.6860929 0.7904036
0.6861934 0.6861442 0.7904541
0.6870283 0.6865886 0.7908923
0.6939992 0.6902654 0.7945145
0.7387489 0.7124384 0.8162148
0.8605668 0.7606980 0.8605658
0.9957388 0.8098711 0.8862471
0.6860944 0.6861010 0.7904119
0.6860957 0.6861017 0.7904125
0.6861067 0.6861076 0.7904183
0.6862029 0.6861588 0.7904688
0.6870377 0.6866031 0.7909069
0.6940079 0.6902788 0.7945281
0.7387544 0.7124467 0.8162232
0.8605685 0.7606996 0.8605674
0.9957390 0.8098709 0.8862466
0.6861772 0.6862287 0.7905403
0.6861784 0.6862294 0.7905409
0.6861894 0.6862353 0.7905467
0.6862855 0.6862864 0.7905971
0.6871195 0.6867296 0.7910340
0.6940837 0.6903962 0.7946461
0.7388022 0.7125192 0.8162963
0.8605826 0.7607137 0.8605816
0.9957413 0.8098691 0.8862421
0.6868874 0.6873334 0.7916513
0.6868886 0.6873341 0.7916519
0.6868995 0.6873398 0.7916576
0.6869949 0.6873898 0.7917068
0.6878225 0.6878233 0.7921340
0.6947358 0.6914121 0.7956682
0.7392158 0.7131490 0.8169315
0.8607059 0.7608370 0.8607048
0.9957606 0.8098530 0.8862031
0.6922684 0.6963289 0.8007021
0.6922696 0.6963294 0.8007027
0.6922800 0.6963342 0.8007074
0.6923705 0.6963757 0.8007482
0.6931562 0.6967361 0.8011022
0.6997349 0.6997357 0.8040464
0.7425651 0.7184468 0.8222778
0.8617701 0.7619012 0.8617691
0.9959291 0.8097112 0.8858589
0.7214901 0.7551107 0.8407481
0.7214905 0.7551107 0.8407485
0.7214941 0.7551108 0.8407520
0.7215251 0.7551115 0.8407826
0.7217966 0.7551176 0.8410506
0.7242194 0.7551419 0.8434432
0.7554754 0.7554757 0.8597865
0.8703056 0.7704373 0.8703052
0.9973904 0.8083484 0.8825681
0.7522746 0.8741802 0.8741794
0.7522746 0.8741802 0.8741794
0.7522747 0.8741803 0.8741795
0.7522758 0.8741814 0.8741805
0.7522849 0.8741905 0.8741896
0.7523643 0.8742698 0.8742691
0.7530527 0.8749575 0.8749574
0.8750000 0.8750000 0.8750000
1.0000000 0.8750000 0.8750000
0.7234667 0.9999230 0.8785115
0.7234665 0.9999230 0.8785114
0.7234647 0.9999231 0.8785105
0.7234494 0.9999232 0.8785025
0.7233159 0.9999248 0.8784324
0.7221353 0.9999387 0.8778160
0.7500000 1.0000000 0.8750000
0.8750000 1.0000000 0.8750000
1.0005667 1.0005668 0.8967294
0.8110836 0.8110844 0.9153952
0.8110837 0.8110845 0.9153952
0.8110850 0.8110852 0.9153959
0.8110960 0.8110910 0.9154017
0.8111922 0.8111423 0.9154522
0.8120271 0.8115868 0.9158905
0.8189981 0.8152636 0.9195128
0.8637482 0.8374374 0.9412137
0.9855666 0.8856977 0.9855656
0.8110837 0.8110846 0.9153954
0.8110838 0.8110847 0.9153954
0.8110851 0.8110854 0.9153961
0.8110961 0.8110912 0.9154019
0.8111923 0.8111425 0.9154524
0.8120272 0.8115870 0.9158906
0.8189982 0.8152638 0.9195130
0.8637483 0.8374375 0.9412138
0.9855667 0.8856978 0.9855656
0.8110848 0.8110863 0.9153970
0.8110849 0.8110864 0.9153971
0.8110862 0.8110870 0.9153978
0.8110972 0.8110929 0.9154036
0.8111934 0.8111442 0.9154541
0.8120283 0.8115886 0.9158923
0.8189992 0.8152654 0.9195145
0.8637489 0.8374384 0.9412148
0.9855668 0.8856980 0.9855658
0.8110943 0.8111009 0.9154118
0.8110944 0.8111010 0.9154119
0.8110957 0.8111017 0.9154125
0.8111067 0.8111076 0.9154183
0.8112029 0.8111588 0.9154688
0.8120377 0.8116031 0.9159069
0.8190079 0.8152788 0.9195281
0.8637544 0.8374467 0.9412232
0.9855685 0.8856996 0.9855674
0.8111770 0.8112287 0.9155402
0.8111772 0.8112287 0.9155403
0.8111784 0.8112294 0.9155409
0.8111894 0.8112353 0.9155467
0.8112855 0.8112864 0.9155971
0.8121195 0.8117296 0.9160340
0.8190837 0.8153962 0.9196461
0.8638022 0.8375192 0.9412963
0.9855826 0.8857137 0.9855816
0.8118872 0.8123334 0.9166512
0.8118874 0.8123334 0.9166513
0.8118886 0.8123341 0.9166519
0.8118995 0.8123398 0.9166576
0.8119949 0.8123898 0.9167068
0.8128225 0.8128233 0.9171340
0.8197358 0.8164121 0.9206682
0.8642158 0.8381490 0.9419315
0.9857059 0.8858370 0.9857048
0.8172683 0.8213288 0.9257021
0.8172684 0.8213289 0.9257021
0.8172696 0.8213294 0.9257027
0.8172800 0.8213342 0.9257074
0.8173705 0.8213757 0.9257482
0.8181562 0.8217361 0.9261022
0.8247349 0.8247357 0.9290464
0.8675651 0.8434468 0.9472778
0.9867701 0.8869012 0.9867691
0.8464901 0.8801107 0.9657480
0.8464901 0.8801107 0.9657481
0.8464905 0.8801107 0.9657485
0.8464941 0.8801108 0.9657520
0.8465251 0.8801115 0.9657826
0.8467966 0.8801176 0.9660506
0.8492194 0.8801419 0.9684432
0.8804754 0.8804757 0.9847865
0.9953056 0.8954373 0.9953052
0.8772746 0.9991802 0.9991794
0.8772746 0.9991802 0.9991794
0.8772746 0.9991802 0.9991794
0.8772747 0.9991803 0.9991795
0.8772758 0.9991814 0.9991805
0.8772849 0.9991905 0.9991896
0.8773643 0.9992698 0.9992691
0.8780527 0.9999575 0.9999574
1.0000000 1.0000000 1.0000000
