LUTs/luminance_correction_bt2020.cube
TITLE "Pre-formation 2012 Luminance Correction for BT.2020 Target"
# Use CIE 2012 Luminance to Compensate for Some Out-of-Domain Values
# This LUT assumes input and output to be E Gamut encoded in Log2 (-10 stop to +15 stop)
# LUT resolution 33
LUT_3D_SIZE 5
-0.0000000 0.0000000 -0.0000000
0.2426744 0.1028719 0.1028660
0.4913179 0.3515165 0.3515096
0.7412999 0.6014984 0.6014916
0.9912997 0.8514982 0.8514914
0.1114664 0.2493820 0.1114612
0.2516830 0.2516831 0.1478457
0.4916145 0.3596434 0.3525080
0.7413039 0.6016126 0.6015049
0.9912997 0.8514997 0.8514915
0.3613645 0.4992793 0.3613585
0.3689362 0.4993022 0.3620328
0.5018241 0.5018242 0.3979868
0.7416011 0.6097248 0.6025036
0.9913037 0.8516139 0.8515048
0.6113632 0.7492779 0.6113571
0.6114694 0.7492782 0.6113661
0.6190267 0.7493012 0.6120402
0.7518259 0.7518261 0.6479886
0.9916009 0.8597259 0.8525036
0.8613631 0.9992779 0.8613571
0.8613645 0.9992779 0.8613572
0.8614708 0.9992782 0.8613662
0.8690279 0.9993012 0.8620402
1.0018260 1.0018261 0.8979886
0.0747349 0.0747357 0.1790464
0.2367701 0.1369012 0.2367691
0.4924295 0.3434114 0.3518994
0.7413140 0.6014021 0.6014963
0.9912999 0.8514969 0.8514914
0.1273643 0.2492698 0.2492691
0.2500000 0.2500000 0.2500000
0.4926744 0.3528719 0.3528660
0.7413179 0.6015165 0.6015096
0.9912999 0.8514984 0.8514916
0.3526157 0.4993637 0.3607738
0.3614664 0.4993820 0.3614612
0.5016830 0.5016831 0.3978457
0.7416145 0.6096434 0.6025080
0.9913039 0.8516126 0.8515049
0.6112580 0.7492790 0.6113496
0.6113645 0.7492793 0.6113585
0.6189362 0.7493022 0.6120328
0.7518241 0.7518242 0.6479868
0.9916011 0.8597248 0.8525036
0.8613618 0.9992779 0.8613570
0.8613632 0.9992779 0.8613571
0.8614694 0.9992782 0.8613661
0.8690267 0.9993012 0.8620402
1.0018259 1.0018261 0.8979886
0.3112855 0.3112864 0.4155971
0.3190837 0.3153962 0.4196461
0.4855826 0.3857137 0.4855816
0.7424262 0.5932765 0.6018866
0.9913139 0.8514005 0.8514962
0.3173705 0.3213757 0.4257482
0.3247349 0.3247357 0.4290464
0.4867701 0.3869012 0.4867691
0.7424295 0.5934114 0.6018994
0.9913140 0.8514021 0.8514963
0.3772758 0.4991814 0.4991805
0.3773643 0.4992698 0.4992691
0.5000000 0.5000000 0.5000000
0.7426744 0.6028719 0.6028660
0.9913179 0.8515165 0.8515096
0.6024897 0.7493635 0.6107647
0.6026157 0.7493637 0.6107738
0.6114664 0.7493820 0.6114612
0.7516830 0.7516831 0.6478457
0.9916145 0.8596434 0.8525080
0.8612566 0.9992790 0.8613495
0.8612580 0.9992790 0.8613496
0.8613645 0.9992793 0.8613585
0.8689362 0.9993022 0.8620328
1.0018241 1.0018242 0.8979868
0.5610862 0.5610870 0.6653978
0.5611934 0.5611442 0.6654541
0.5689992 0.5652654 0.6695145
0.7355668 0.6356980 0.7355658
0.9924261 0.8432748 0.8518864
0.5611784 0.5612294 0.6655409
0.5612855 0.5612864 0.6655971
0.5690837 0.5653962 0.6696461
0.7355826 0.6357137 0.7355816
0.9924262 0.8432765 0.8518866
0.5672696 0.5713294 0.6757027
0.5673705 0.5713757 0.6757482
0.5747349 0.5747357 0.6790464
0.7367701 0.6369012 0.7367691
0.9924295 0.8434114 0.8518994
0.6272746 0.7491802 0.7491794
0.6272758 0.7491814 0.7491805
0.6273643 0.7492698 0.7492691
0.7500000 0.7500000 0.7500000
0.9926744 0.8528719 0.8528660
0.8524881 0.9993635 0.8607646
0.8524897 0.9993635 0.8607647
0.8526157 0.9993637 0.8607738
0.8614664 0.9993820 0.8614612
1.0016830 1.0016831 0.8978457
0.8110836 0.8110844 0.9153952
0.8110850 0.8110852 0.9153959
0.8111922 0.8111423 0.9154522
0.8189981 0.8152636 0.9195128
0.9855666 0.8856977 0.9855656
0.8110848 0.8110863 0.9153970
0.8110862 0.8110870 0.9153978
0.8111934 0.8111442 0.9154541
0.8189992 0.8152654 0.9195145
0.9855668 0.8856980 0.9855658
0.8111770 0.8112287 0.9155402
0.8111784 0.8112294 0.9155409
0.8112855 0.8112864 0.9155971
0.8190837 0.8153962 0.9196461
0.9855826 0.8857137 0.9855816
0.8172683 0.8213288 0.9257021
0.8172696 0.8213294 0.9257027
0.8173705 0.8213757 0.9257482
0.8247349 0.8247357 0.9290464
0.9867701 0.8869012 0.9867691
0.8772746 0.9991802 0.9991794
0.8772746 0.9991802 0.9991794
0.8772758 0.9991814 0.9991805
0.8773643 0.9992698 0.9992691
1.0000000 1.0000000 1.0000000
