LUTs/luminance_compensation_srgb.cube
TITLE "Pre-formation 2012 Luminance Correction for BT.709 Target"
# Lower Side of Guard Rail Formation for sRGB medium.
# The Guard Rail is designed to leaves valid value as-is, and only touch out of domain values Modified from python script shared by Sakari Kapanen
# This LUT assumes E Gamut encoded in ST2084 (100) curve and then power 0.5
# LUT resolution 50
LUT_3D_SIZE 50
0.0000000 0.0000000 0.0000000
0.0196834 0.0113689 0.0113686
0.0392431 0.0220203 0.0220196
0.0588120 0.0330414 0.0330403
0.0784010 0.0444685 0.0444669
0.0980124 0.0562946 0.0562927
0.1176461 0.0685056 0.0685033
0.1373015 0.0810870 0.0810843
0.1569778 0.0940253 0.0940222
0.1766741 0.1073083 0.1073049
0.1963893 0.1209253 0.1209216
0.2161225 0.1348666 0.1348625
0.2358730 0.1491234 0.1491190
0.2556398 0.1636879 0.1636831
0.2754222 0.1785528 0.1785478
0.2952194 0.1937117 0.1937064
0.3150305 0.2091585 0.2091529
0.3348549 0.2248876 0.2248817
0.3546917 0.2408937 0.2408876
0.3745402 0.2571721 0.2571658
0.3943997 0.2737182 0.2737115
0.4142693 0.2905274 0.2905206
0.4341482 0.3075957 0.3075887
0.4540354 0.3249191 0.3249119
0.4739302 0.3424937 0.3424863
0.4938314 0.3603156 0.3603080
0.5137380 0.3783811 0.3783734
0.5336488 0.3966865 0.3966786
0.5535625 0.4152280 0.4152200
0.5734776 0.4340018 0.4339937
0.5933924 0.4530040 0.4529957
0.6133052 0.4722304 0.4722220
0.6332137 0.4916766 0.4916682
0.6531155 0.5113381 0.5113296
0.6730076 0.5312096 0.5312011
0.6928868 0.5512855 0.5512770
0.7127488 0.5715595 0.5715509
0.7325889 0.5920241 0.5920155
0.7524011 0.6126709 0.6126623
0.7709058 0.6321441 0.6321356
0.7888965 0.6512501 0.6512416
0.8094828 0.6733214 0.6733129
0.8303949 0.6959686 0.6959601
0.8513454 0.7188847 0.7188764
0.8723337 0.7420690 0.7420607
0.8933594 0.7655203 0.7655122
0.9144217 0.7892379 0.7892299
0.9355202 0.8132210 0.8132131
0.9566543 0.8374686 0.8374609
0.9778236 0.8619801 0.8619726
0.0168154 0.0217305 0.0168149
0.0212812 0.0212812 0.0146009
0.0398669 0.0252574 0.0219104
0.0592401 0.0331729 0.0316240
0.0786179 0.0444693 0.0437571
0.0981325 0.0562979 0.0559103
0.1177183 0.0685090 0.0682766
0.1373475 0.0810900 0.0809415
0.1570083 0.0940278 0.0939284
0.1766948 0.1073104 0.1072413
0.1964038 0.1209271 0.1208774
0.2161329 0.1348680 0.1348313
0.2358805 0.1491245 0.1490966
0.2556453 0.1636888 0.1636668
0.2754263 0.1785536 0.1785358
0.2952224 0.1937123 0.1936975
0.3150328 0.2091590 0.2091463
0.3348566 0.2248880 0.2248767
0.3546930 0.2408941 0.2408839
0.3745413 0.2571724 0.2571630
0.3944005 0.2737184 0.2737094
0.4142699 0.2905276 0.2905190
0.4341486 0.3075959 0.3075875
0.4540358 0.3249193 0.3249110
0.4739305 0.3424938 0.3424855
0.4938316 0.3603157 0.3603075
0.5137382 0.3783812 0.3783730
0.5336489 0.3966866 0.3966783
0.5535626 0.4152281 0.4152198
0.5734776 0.4340019 0.4339935
0.5933925 0.4530040 0.4529956
0.6133052 0.4722304 0.4722219
0.6332137 0.4916766 0.4916681
0.6531155 0.5113381 0.5113295
0.6730077 0.5312096 0.5312010
0.6928868 0.5512855 0.5512769
0.7127488 0.5715595 0.5715509
0.7325889 0.5920241 0.5920155
0.7524011 0.6126709 0.6126623
0.7709058 0.6321441 0.6321356
0.7888965 0.6512501 0.6512416
0.8094828 0.6733214 0.6733129
0.8303949 0.6959686 0.6959601
0.8513454 0.7188847 0.7188764
0.8723337 0.7420690 0.7420607
0.8933594 0.7655203 0.7655122
0.9144217 0.7892379 0.7892299
0.9355202 0.8132210 0.8132131
0.9566543 0.8374686 0.8374609
0.9778236 0.8619801 0.8619726
0.0333364 0.0433698 0.0333354
0.0326571 0.0427318 0.0310769
0.0425263 0.0425263 0.0287974
0.0606432 0.0452959 0.0352786
0.0796113 0.0507799 0.0441928
0.0989378 0.0586772 0.0544683
0.1184218 0.0685308 0.0658501
0.1377926 0.0811154 0.0794850
0.1573023 0.0940509 0.0929939
0.1768953 0.1073300 0.1066160
0.1965439 0.1209433 0.1204466
0.2162327 0.1348813 0.1345279
0.2359528 0.1491354 0.1488794
0.2556983 0.1636976 0.1635093
0.2754656 0.1785608 0.1784203
0.2952518 0.1937182 0.1936121
0.3150549 0.2091638 0.2090827
0.3348734 0.2248919 0.2248291
0.3547058 0.2408973 0.2408481
0.3745511 0.2571751 0.2571359
0.3944080 0.2737205 0.2736889
0.4142757 0.2905294 0.2905034
0.4341531 0.3075973 0.3075757
0.4540393 0.3249204 0.3249020
0.4739332 0.3424948 0.3424787
0.4938337 0.3603165 0.3603023
0.5137398 0.3783818 0.3783690
0.5336502 0.3966871 0.3966753
0.5535635 0.4152285 0.4152175
0.5734784 0.4340022 0.4339918
0.5933931 0.4530043 0.4529943
0.6133057 0.4722306 0.4722210
0.6332141 0.4916768 0.4916674
0.6531158 0.5113382 0.5113290
0.6730079 0.5312097 0.5312006
0.6928870 0.5512856 0.5512766
0.7127490 0.5715596 0.5715507
0.7325890 0.5920242 0.5920154
0.7524012 0.6126710 0.6126622
0.7709059 0.6321442 0.6321355
0.7888966 0.6512502 0.6512415
0.8094828 0.6733214 0.6733129
0.8303949 0.6959686 0.6959601
0.8513454 0.7188848 0.7188764
0.8723338 0.7420690 0.7420607
0.8933594 0.7655203 0.7655122
0.9144217 0.7892380 0.7892299
0.9355202 0.8132210 0.8132131
0.9566543 0.8374686 0.8374609
0.9778236 0.8619801 0.8619726
0.0500506 0.0648199 0.0500491
0.0498119 0.0645980 0.0492964
0.0482855 0.0626615 0.0397907
0.0636596 0.0636597 0.0433181
0.0815118 0.0660316 0.0495150
0.1001969 0.0703623 0.0578975
0.1192911 0.0768113 0.0678079
0.1386398 0.0851488 0.0787690
0.1581538 0.0949972 0.0904910
0.1775673 0.1073867 0.1043535
0.1970122 0.1209935 0.1189348
0.2165658 0.1349238 0.1334827
0.2361936 0.1491706 0.1481395
0.2558748 0.1637267 0.1629764
0.2755963 0.1785846 0.1780315
0.2953495 0.1937377 0.1933256
0.3151286 0.2091797 0.2088698
0.3349292 0.2249050 0.2246700
0.3547484 0.2409080 0.2407285
0.3745837 0.2571838 0.2570457
0.3944331 0.2737277 0.2736207
0.4142950 0.2905352 0.2904517
0.4341681 0.3076022 0.3075364
0.4540509 0.3249244 0.3248721
0.4739422 0.3424980 0.3424560
0.4938407 0.3603191 0.3602850
0.5137452 0.3783840 0.3783559
0.5336544 0.3966889 0.3966654
0.5535669 0.4152299 0.4152100
0.5734810 0.4340034 0.4339861
0.5933951 0.4530052 0.4529900
0.6133073 0.4722314 0.4722177
0.6332153 0.4916774 0.4916650
0.6531167 0.5113387 0.5113272
0.6730086 0.5312101 0.5311993
0.6928875 0.5512860 0.5512757
0.7127494 0.5715598 0.5715499
0.7325893 0.5920244 0.5920148
0.7524014 0.6126711 0.6126618
0.7709061 0.6321443 0.6321352
0.7888967 0.6512503 0.6512414
0.8094829 0.6733215 0.6733127
0.8303950 0.6959687 0.6959600
0.8513455 0.7188848 0.7188763
0.8723338 0.7420690 0.7420607
0.8933594 0.7655204 0.7655122
0.9144217 0.7892380 0.7892299
0.9355202 0.8132210 0.8132131
0.9566543 0.8374686 0.8374609
0.9778236 0.8619801 0.8619726
0.0669640 0.0861151 0.0669620
0.0668536 0.0860148 0.0666135
0.0657499 0.0850362 0.0627976
0.0688956 0.0836122 0.0542816
0.0846996 0.0846997 0.0581691
0.1023711 0.0868745 0.0642558
0.1208454 0.0905846 0.0723121
0.1397517 0.0960914 0.0819220
0.1589433 0.1034002 0.0927023
0.1783360 0.1123284 0.1043689
0.1978711 0.1226165 0.1167294
0.2173497 0.1350124 0.1308034
0.2367590 0.1492479 0.1463004
0.2562884 0.1637919 0.1616775
0.2759024 0.1786389 0.1770958
0.2955782 0.1937825 0.1926418
0.3153008 0.2092166 0.2083648
0.3350598 0.2249353 0.2242939
0.3548479 0.2409329 0.2404468
0.3746599 0.2572042 0.2568336
0.3944917 0.2737444 0.2734605
0.4143403 0.2905490 0.2903303
0.4342031 0.3076134 0.3074443
0.4540780 0.3249336 0.3248021
0.4739632 0.3425055 0.3424028
0.4938571 0.3603253 0.3602446
0.5137580 0.3783890 0.3783252
0.5336643 0.3966930 0.3966421
0.5535746 0.4152333 0.4151923
0.5734870 0.4340061 0.4339728
0.5933998 0.4530075 0.4529800
0.6133109 0.4722332 0.4722102
0.6332181 0.4916789 0.4916594
0.6531189 0.5113399 0.5113230
0.6730103 0.5312111 0.5311962
0.6928888 0.5512867 0.5512734
0.7127504 0.5715605 0.5715483
0.7325901 0.5920249 0.5920136
0.7524020 0.6126715 0.6126610
0.7709066 0.6321447 0.6321346
0.7888971 0.6512506 0.6512410
0.8094832 0.6733218 0.6733125
0.8303952 0.6959688 0.6959598
0.8513456 0.7188849 0.7188762
0.8723339 0.7420691 0.7420606
0.8933595 0.7655204 0.7655121
0.9144218 0.7892380 0.7892299
0.9355202 0.8132210 0.8132131
0.9566543 0.8374687 0.8374609
0.9778236 0.8619801 0.8619726
0.0840644 0.1072800 0.0840620
0.0840058 0.1072278 0.0838752
0.0834320 0.1067232 0.0819762
0.0813809 0.1050092 0.0737772
0.0896679 0.1045207 0.0691966
0.1056602 0.1056603 0.0733317
0.1231961 0.1077154 0.0793816
0.1415039 0.1110451 0.0872351
0.1602565 0.1159217 0.0966194
0.1793119 0.1224566 0.1072349
0.1985905 0.1306005 0.1188254
0.2180356 0.1401957 0.1311955
0.2376047 0.1510391 0.1442041
0.2571067 0.1639095 0.1588813
0.2765068 0.1787402 0.1751370
0.2960292 0.1938679 0.1912365
0.3156402 0.2092877 0.2073397
0.3353169 0.2249941 0.2235373
0.3550439 0.2409813 0.2398833
0.3748099 0.2572441 0.2564113
0.3946070 0.2737772 0.2731424
0.4144292 0.2905759 0.2900899
0.4342718 0.3076355 0.3072622
0.4541313 0.3249517 0.3246640
0.4740046 0.3425204 0.3422979
0.4938893 0.3603374 0.3601649
0.5137830 0.3783990 0.3782647
0.5336838 0.3967011 0.3965962
0.5535897 0.4152399 0.4151576
0.5734988 0.4340115 0.4339466
0.5934090 0.4530119 0.4529602
0.6133180 0.4722368 0.4721954
0.6332237 0.4916818 0.4916483
0.6531232 0.5113423 0.5113147
0.6730137 0.5312130 0.5311901
0.6928914 0.5512883 0.5512689
0.7127524 0.5715617 0.5715450
0.7325917 0.5920259 0.5920113
0.7524032 0.6126723 0.6126593
0.7709075 0.6321453 0.6321334
0.7888978 0.6512511 0.6512401
0.8094838 0.6733222 0.6733120
0.8303956 0.6959692 0.6959595
0.8513459 0.7188852 0.7188759
0.8723341 0.7420693 0.7420604
0.8933596 0.7655205 0.7655120
0.9144219 0.7892381 0.7892298
0.9355203 0.8132211 0.8132130
0.9566544 0.8374687 0.8374609
0.9778236 0.8619802 0.8619725
0.1013388 0.1283318 0.1013359
0.1013049 0.1283023 0.1012267
0.1009758 0.1280175 0.1001463
0.0998431 0.1270601 0.0961068
0.0969079 0.1247668 0.0819549
0.1104651 0.1253794 0.0844619
0.1265515 0.1265516 0.0887861
0.1439797 0.1285249 0.0948353
0.1621508 0.1315989 0.1025618
0.1807745 0.1360331 0.1117817
0.1997125 0.1419854 0.1222613
0.2188880 0.1494889 0.1337767
0.2382472 0.1584684 0.1461403
0.2577481 0.1687798 0.1592058
0.2773575 0.1802512 0.1728633
0.2968335 0.1940096 0.1885251
0.3162444 0.2094087 0.2054093
0.3357743 0.2250956 0.2221356
0.3553922 0.2410658 0.2388514
0.3750765 0.2573140 0.2556442
0.3948119 0.2738349 0.2725681
0.4145872 0.2906234 0.2896577
0.4343940 0.3076745 0.3069358
0.4542260 0.3249837 0.3244169
0.4740781 0.3425466 0.3421106
0.4939464 0.3603589 0.3600229
0.5138275 0.3784166 0.3781570
0.5337184 0.3967155 0.3965146
0.5536167 0.4152517 0.4150959
0.5735198 0.4340211 0.4339000
0.5934253 0.4530196 0.4529251
0.6133307 0.4722431 0.4721690
0.6332336 0.4916869 0.4916286
0.6531309 0.5113464 0.5113001
0.6730196 0.5312163 0.5311792
0.6928960 0.5512909 0.5512609
0.7127559 0.5715638 0.5715392
0.7325944 0.5920276 0.5920070
0.7524053 0.6126737 0.6126562
0.7709092 0.6321465 0.6321314
0.7888991 0.6512520 0.6512387
0.8094849 0.6733230 0.6733111
0.8303964 0.6959698 0.6959588
0.8513465 0.7188856 0.7188754
0.8723345 0.7420696 0.7420601
0.8933599 0.7655208 0.7655117
0.9144220 0.7892382 0.7892296
0.9355204 0.8132212 0.8132129
0.9566544 0.8374688 0.8374608
0.9778237 0.8619802 0.8619725
0.1187749 0.1492834 0.1187716
0.1187541 0.1492657 0.1187040
0.1185534 0.1490951 0.1180426
0.1178730 0.1485242 0.1157022
0.1161999 0.1471715 0.1091436
0.1171067 0.1454858 0.0970108
0.1312457 0.1461880 0.1000364
0.1473812 0.1473813 0.1045144
0.1647203 0.1492942 0.1105828
0.1827766 0.1521845 0.1182308
0.2012896 0.1562942 0.1273331
0.2201256 0.1618004 0.1377063
0.2392091 0.1687857 0.1491571
0.2584887 0.1772361 0.1615104
0.2779237 0.1870612 0.1746202
0.2974809 0.1981248 0.1883711
0.3171336 0.2102740 0.2026740
0.3365355 0.2252559 0.2196314
0.3559713 0.2412015 0.2370454
0.3755194 0.2574275 0.2543206
0.3951521 0.2739292 0.2715872
0.4148495 0.2907013 0.2889250
0.4345968 0.3077388 0.3063854
0.4543831 0.3250366 0.3240019
0.4742001 0.3425901 0.3417970
0.4940412 0.3603946 0.3597855
0.5139012 0.3784457 0.3779773
0.5337759 0.3967393 0.3963787
0.5536614 0.4152711 0.4149931
0.5735546 0.4340369 0.4338224
0.5934524 0.4530326 0.4528668
0.6133518 0.4722536 0.4721253
0.6332499 0.4916954 0.4915959
0.6531436 0.5113533 0.5112758
0.6730294 0.5312219 0.5311612
0.6929036 0.5512954 0.5512476
0.7127618 0.5715674 0.5715295
0.7325989 0.5920305 0.5920000
0.7524088 0.6126760 0.6126512
0.7709120 0.6321484 0.6321279
0.7889012 0.6512536 0.6512362
0.8094867 0.6733244 0.6733095
0.8303976 0.6959707 0.6959577
0.8513474 0.7188863 0.7188747
0.8723351 0.7420701 0.7420595
0.8933603 0.7655211 0.7655113
0.9144223 0.7892385 0.7892293
0.9355206 0.8132213 0.8132127
0.9566546 0.8374689 0.8374607
0.9778238 0.8619803 0.8619724
0.1363623 0.1701450 0.1363587
0.1363491 0.1701339 0.1363150
0.1362212 0.1700272 0.1358903
0.1357911 0.1696711 0.1344261
0.1347568 0.1688320 0.1306500
0.1325828 0.1671563 0.1211494
0.1375652 0.1662014 0.1126457
0.1519951 0.1669483 0.1158924
0.1681553 0.1681555 0.1205011
0.1854186 0.1700212 0.1266001
0.2033765 0.1727730 0.1342024
0.2217931 0.1766357 0.1432226
0.2405394 0.1817931 0.1535159
0.2595410 0.1883579 0.1649160
0.2787478 0.1963597 0.1772617
0.2981207 0.2057528 0.1904108
0.3176271 0.2164365 0.2042453
0.3372397 0.2282796 0.2186707
0.3568898 0.2414041 0.2339238
0.3762211 0.2576004 0.2520884
0.3956907 0.2740746 0.2699610
0.4152645 0.2908225 0.2877250
0.4349175 0.3078392 0.3054920
0.4546316 0.3251195 0.3233327
0.4743930 0.3426583 0.3412936
0.4941911 0.3604506 0.3594060
0.5140179 0.3784917 0.3776908
0.5338667 0.3967769 0.3961623
0.5537321 0.4153018 0.4148298
0.5736096 0.4340620 0.4336994
0.5934952 0.4530529 0.4527743
0.6133851 0.4722701 0.4720559
0.6332758 0.4917088 0.4915441
0.6531637 0.5113641 0.5112372
0.6730450 0.5312306 0.5311327
0.6929157 0.5513025 0.5512267
0.7127711 0.5715731 0.5715141
0.7326061 0.5920350 0.5919889
0.7524143 0.6126796 0.6126432
0.7709164 0.6321515 0.6321224
0.7889046 0.6512560 0.6512324
0.8094895 0.6733266 0.6733071
0.8303996 0.6959723 0.6959560
0.8513488 0.7188874 0.7188734
0.8723361 0.7420709 0.7420586
0.8933610 0.7655217 0.7655107
0.9144228 0.7892389 0.7892289
0.9355209 0.8132216 0.8132124
0.9566548 0.8374691 0.8374605
0.9778239 0.8619804 0.8619723
0.1540918 0.1909244 0.1540878
0.1540831 0.1909173 0.1540587
0.1539990 0.1908484 0.1537765
0.1537173 0.1906187 0.1528170
0.1530475 0.1900795 0.1504394
0.1516791 0.1890089 0.1450901
0.1490453 0.1870778 0.1321127
0.1580796 0.1868817 0.1285793
0.1727080 0.1876627 0.1320099
0.1888786 0.1888788 0.1367326
0.2060761 0.1907061 0.1428693
0.2239484 0.1933495 0.1504485
0.2422801 0.1970187 0.1594138
0.2609467 0.2018982 0.1696500
0.2798749 0.2081188 0.1810140
0.2990155 0.2157416 0.1933582
0.3183307 0.2247568 0.2065461
0.3377887 0.2350959 0.2204595
0.3573621 0.2466507 0.2350001
0.3770282 0.2592937 0.2500888
0.3965140 0.2742873 0.2672864
0.4158983 0.2910022 0.2857903
0.4354071 0.3079895 0.3040719
0.4550108 0.3252443 0.3222798
0.4746872 0.3427614 0.3405077
0.4944198 0.3605355 0.3588167
0.5141957 0.3785614 0.3772478
0.5340051 0.3968341 0.3958288
0.5538399 0.4153486 0.4145788
0.5736936 0.4341001 0.4335106
0.5935605 0.4530840 0.4526325
0.6134359 0.4722954 0.4719497
0.6333153 0.4917293 0.4914648
0.6531943 0.5113807 0.5111783
0.6730687 0.5312440 0.5310891
0.6929340 0.5513132 0.5511946
0.7127853 0.5715817 0.5714907
0.7326170 0.5920419 0.5919719
0.7524227 0.6126851 0.6126310
0.7709231 0.6321562 0.6321140
0.7889097 0.6512597 0.6512265
0.8094937 0.6733299 0.6733035
0.8304027 0.6959747 0.6959533
0.8513509 0.7188891 0.7188715
0.8723376 0.7420721 0.7420573
0.8933621 0.7655225 0.7655098
0.9144235 0.7892395 0.7892283
0.9355214 0.8132220 0.8132120
0.9566551 0.8374693 0.8374602
0.9778241 0.8619806 0.8619721
0.1719553 0.2116281 0.1719510
0.1719494 0.2116234 0.1719311
0.1718927 0.2115778 0.1717388
0.1717034 0.2114260 0.1710897
0.1712559 0.2110701 0.1695161
0.1703551 0.2103661 0.1661599
0.1686789 0.2091037 0.1591000
0.1657807 0.2070077 0.1422559
0.1786141 0.2075265 0.1447857
0.1933831 0.2083339 0.1483729
0.2095552 0.2095553 0.1531971
0.2266943 0.2113504 0.1593758
0.2444913 0.2139063 0.1669484
0.2627474 0.2174202 0.1758797
0.2813429 0.2220744 0.1860782
0.3002050 0.2280109 0.1974200
0.3192855 0.2353134 0.2097707
0.3385474 0.2440006 0.2230000
0.3579598 0.2540322 0.2369907
0.3774956 0.2653225 0.2516424
0.3971317 0.2777582 0.2668720
0.4168405 0.2912571 0.2826627
0.4361344 0.3082057 0.3018274
0.4555737 0.3254256 0.3206424
0.4751239 0.3429122 0.3392997
0.4947591 0.3606602 0.3579187
0.5144597 0.3786641 0.3765770
0.5342105 0.3969184 0.3953263
0.5539998 0.4154176 0.4142019
0.5738181 0.4341565 0.4332279
0.5936574 0.4531300 0.4524207
0.6135113 0.4723327 0.4717914
0.6333738 0.4917596 0.4913468
0.6532397 0.5114052 0.5110907
0.6731039 0.5312638 0.5310243
0.6929612 0.5513292 0.5511470
0.7128063 0.5715945 0.5714560
0.7326332 0.5920522 0.5919468
0.7524351 0.6126933 0.6126129
0.7709330 0.6321631 0.6321016
0.7889173 0.6512652 0.6512179
0.8095000 0.6733348 0.6732981
0.8304072 0.6959782 0.6959494
0.8513541 0.7188917 0.7188687
0.8723399 0.7420739 0.7420553
0.8933636 0.7655238 0.7655084
0.9144246 0.7892403 0.7892273
0.9355222 0.8132226 0.8132113
0.9566556 0.8374697 0.8374597
0.9778244 0.8619808 0.8619718
0.1899457 0.2322614 0.1899411
0.1899416 0.2322582 0.1899272
0.1899027 0.2322275 0.1897934
0.1897728 0.2321251 0.1893441
0.1894671 0.2318855 0.1882685
0.1888567 0.2314125 0.1860408
0.1877407 0.2305674 0.1816573
0.1857844 0.2291508 0.1727385
0.1860292 0.2275892 0.1585496
0.1991498 0.2281363 0.1612453
0.2140205 0.2289642 0.1649683
0.2301881 0.2301883 0.1698843
0.2472751 0.2319555 0.1761076
0.2650050 0.2344393 0.1836858
0.2831934 0.2378260 0.1925997
0.3017248 0.2422949 0.2027766
0.3205273 0.2479948 0.2141094
0.3395531 0.2550260 0.2264752
0.3587660 0.2634299 0.2397500
0.3781358 0.2731904 0.2538189
0.3976359 0.2842425 0.2685802
0.4172430 0.2964878 0.2839476
0.4369369 0.3098100 0.2998499
0.4563916 0.3256803 0.3180917
0.4757581 0.3431262 0.3374513
0.4952517 0.3608384 0.3565626
0.5148428 0.3788116 0.3755737
0.5345087 0.3970399 0.3945801
0.5542320 0.4155173 0.4136452
0.5739988 0.4342381 0.4328120
0.5937980 0.4531965 0.4521101
0.6136206 0.4723869 0.4715597
0.6334588 0.4918036 0.4911744
0.6533056 0.5114408 0.5109628
0.6731550 0.5312926 0.5309299
0.6930007 0.5513523 0.5510777
0.7128368 0.5716131 0.5714054
0.7326567 0.5920671 0.5919101
0.7524532 0.6127052 0.6125867
0.7709475 0.6321732 0.6320836
0.7889284 0.6512732 0.6512052
0.8095092 0.6733419 0.6732902
0.8304137 0.6959834 0.6959437
0.8513588 0.7188953 0.7188647
0.8723431 0.7420765 0.7420524
0.8933659 0.7655256 0.7655064
0.9144262 0.7892416 0.7892259
0.9355232 0.8132235 0.8132104
0.9566563 0.8374703 0.8374591
0.9778249 0.8619812 0.8619714
0.2080565 0.2528287 0.2080516
0.2080537 0.2528265 0.2080418
0.2080266 0.2528055 0.2079473
0.2079361 0.2527354 0.2076307
0.2077236 0.2525715 0.2068787
0.2073014 0.2522484 0.2053480
0.2065374 0.2516724 0.2024443
0.2052251 0.2507105 0.1969915
0.2030158 0.2491746 0.1860522
0.2063374 0.2481419 0.1751025
0.2196756 0.2487122 0.1779426
0.2346212 0.2495558 0.1817849
0.2507803 0.2507805 0.1867850
0.2678200 0.2525232 0.1930545
0.2854898 0.2549462 0.2006474
0.3036171 0.2582272 0.2095571
0.3220906 0.2625417 0.2197264
0.3408390 0.2680430 0.2310620
0.3598149 0.2748438 0.2434515
0.3789828 0.2830039 0.2567774
0.3983131 0.2925273 0.2709269
0.4177796 0.3033683 0.2857979
0.4373589 0.3154429 0.3013019
0.4570306 0.3286434 0.3173642
0.4766631 0.3434212 0.3346024
0.4959544 0.3610866 0.3545130
0.5153891 0.3790184 0.3740790
0.5349338 0.3972110 0.3934801
0.5545629 0.4156583 0.4128310
0.5742564 0.4343537 0.4322074
0.5939985 0.4532910 0.4516605
0.6137765 0.4724639 0.4712255
0.6335799 0.4918661 0.4909263
0.6533997 0.5114915 0.5107792
0.6732278 0.5313335 0.5307946
0.6930571 0.5513853 0.5509784
0.7128803 0.5716396 0.5713331
0.7326902 0.5920883 0.5918578
0.7524789 0.6127222 0.6125491
0.7709680 0.6321876 0.6320578
0.7889441 0.6512846 0.6511872
0.8095222 0.6733520 0.6732789
0.8304231 0.6959907 0.6959356
0.8513654 0.7189006 0.7188589
0.8723478 0.7420802 0.7420483
0.8933691 0.7655282 0.7655035
0.9144284 0.7892434 0.7892239
0.9355247 0.8132247 0.8132090
0.9566573 0.8374712 0.8374581
0.9778256 0.8619818 0.8619707
0.2262821 0.2733337 0.2262769
0.2262801 0.2733322 0.2262699
0.2262610 0.2733176 0.2262022
0.2261972 0.2732691 0.2259760
0.2260475 0.2731556 0.2254413
0.2257511 0.2729321 0.2243648
0.2252180 0.2725342 0.2223667
0.2243131 0.2718712 0.2187748
0.2228241 0.2708160 0.2122150
0.2203878 0.2691919 0.1990793
0.2266794 0.2686661 0.1918977
0.2401853 0.2692550 0.1948649
0.2551862 0.2701106 0.1988133
0.2713341 0.2713343 0.2038909
0.2883306 0.2730550 0.2102076
0.3059460 0.2754260 0.2178222
0.3240180 0.2786177 0.2267386
0.3424387 0.2828023 0.2369120
0.3611379 0.2881360 0.2482611
0.3800683 0.2947408 0.2606830
0.3991949 0.3026914 0.2740658
0.4184886 0.3120094 0.2882996
0.4379237 0.3226659 0.3032821
0.4574768 0.3345907 0.3189228
0.4771272 0.3476850 0.3351441
0.4968570 0.3618355 0.3518809
0.5161570 0.3793022 0.3718414
0.5355313 0.3974476 0.3918586
0.5550279 0.4158540 0.4116444
0.5746184 0.4345148 0.4313338
0.5942802 0.4534229 0.4510151
0.6139956 0.4725716 0.4707480
0.6337501 0.4919537 0.4905733
0.6535318 0.5115625 0.5105187
0.6733302 0.5313909 0.5306030
0.6931363 0.5514316 0.5508381
0.7129414 0.5716769 0.5712309
0.7327373 0.5921182 0.5917840
0.7525151 0.6127460 0.6124962
0.7709970 0.6322078 0.6320214
0.7889663 0.6513006 0.6511618
0.8095406 0.6733663 0.6732631
0.8304362 0.6960010 0.6959242
0.8513747 0.7189079 0.7188507
0.8723543 0.7420854 0.7420425
0.8933737 0.7655319 0.7654994
0.9144315 0.7892460 0.7892211
0.9355268 0.8132265 0.8132070
0.9566588 0.8374723 0.8374568
0.9778265 0.8619826 0.8619699
0.2446171 0.2937796 0.2446117
0.2446157 0.2937786 0.2446066
0.2446021 0.2937684 0.2445577
0.2445566 0.2937345 0.2443942
0.2444501 0.2936551 0.2440090
0.2442396 0.2934989 0.2432391
0.2438625 0.2932211 0.2418297
0.2432270 0.2927590 0.2393613
0.2421952 0.2920252 0.2350754
0.2405494 0.2908990 0.2273744
0.2379111 0.2892147 0.2118539
0.2470384 0.2891621 0.2089216
0.2606752 0.2897659 0.2120013
0.2757169 0.2906303 0.2160449
0.2918516 0.2918518 0.2211945
0.3088081 0.2935523 0.2275588
0.3263741 0.2958783 0.2352008
0.3443958 0.2989938 0.2441328
0.3627684 0.3030682 0.2543205
0.3814226 0.3082596 0.2656929
0.4003114 0.3146974 0.2781554
0.4194001 0.3224688 0.2916016
0.4386600 0.3316102 0.3059240
0.4580658 0.3421078 0.3210206
0.4775942 0.3539041 0.3367994
0.4972243 0.3669094 0.3531801
0.5169377 0.3810144 0.3700945
0.5363608 0.3977681 0.3894492
0.5556736 0.4161212 0.4099103
0.5751210 0.4347357 0.4300725
0.5946713 0.4536046 0.4500917
0.6142998 0.4727202 0.4700697
0.6339865 0.4920749 0.4900743
0.6537152 0.5116609 0.5101519
0.6734723 0.5314705 0.5303340
0.6932462 0.5514958 0.5506416
0.7130263 0.5717285 0.5710881
0.7328027 0.5921595 0.5916809
0.7525654 0.6127791 0.6124224
0.7710371 0.6322358 0.6319708
0.7889970 0.6513228 0.6511265
0.8095661 0.6733861 0.6732410
0.8304544 0.6960153 0.6959083
0.8513876 0.7189182 0.7188393
0.8723634 0.7420927 0.7420344
0.8933800 0.7655370 0.7654938
0.9144358 0.7892495 0.7892172
0.9355298 0.8132289 0.8132044
0.9566607 0.8374740 0.8374550
0.9778278 0.8619837 0.8619687
0.2630568 0.3141691 0.2630511
0.2630558 0.3141683 0.2630474
0.2630460 0.3141612 0.2630117
0.2630133 0.3141373 0.2628924
0.2629369 0.3140814 0.2626122
0.2627861 0.3139714 0.2620546
0.2625166 0.3137760 0.2610430
0.2620645 0.3134512 0.2593006
0.2613367 0.3129362 0.2563652
0.2601927 0.3121474 0.2513846
0.2584094 0.3109706 0.2425126
0.2555933 0.3092510 0.2244078
0.2674035 0.3096303 0.2261628
0.2811431 0.3102459 0.2293428
0.2962145 0.3111166 0.2334724
0.3123344 0.3123346 0.2386891
0.3292539 0.3140165 0.2451012
0.3467748 0.3163028 0.2527750
0.3647504 0.3193527 0.2617300
0.3830790 0.3233330 0.2719409
0.4016920 0.3284032 0.2833456
0.4205427 0.3346989 0.2958566
0.4395966 0.3423176 0.3093727
0.4588253 0.3513087 0.3237887
0.4782038 0.3616718 0.3390028
0.4977091 0.3733610 0.3549219
0.5173199 0.3862950 0.3714632
0.5370177 0.4003693 0.3885556
0.5565609 0.4164794 0.4073480
0.5758116 0.4350342 0.4282414
0.5952088 0.4538512 0.4487686
0.6147178 0.4729227 0.4691070
0.6343113 0.4922403 0.4893714
0.6539673 0.5117955 0.5096381
0.6736677 0.5315796 0.5299588
0.6933974 0.5515839 0.5503684
0.7131431 0.5717994 0.5708901
