LUTs/luminance_compensation_bt2020.cube
TITLE "Pre-formation 2012 Luminance Correction for BT.2020 Target"
# Use CIE 2012 Luminance to Compensate for Some Out-of-Domain Values
# This LUT assumes input and output to be E Gamut encoded in Log2 (-10 stop to +15 stop)
# LUT resolution 50
LUT_3D_SIZE 50
0.0008550 0.0008550 0.0008550
0.0200352 0.0102415 0.0102411
0.0400034 0.0196732 0.0196726
0.0599751 0.0294809 0.0294799
0.0799564 0.0397110 0.0397097
0.0999488 0.0503623 0.0503605
0.1199524 0.0614243 0.0614222
0.1399671 0.0728853 0.0728829
0.1599925 0.0847343 0.0847315
0.1800280 0.0969609 0.0969578
0.2000734 0.1095561 0.1095526
0.2201281 0.1225116 0.1225078
0.2401918 0.1358202 0.1358161
0.2602641 0.1494751 0.1494707
0.2803445 0.1634704 0.1634657
0.3004328 0.1778006 0.1777956
0.3205284 0.1924608 0.1924555
0.3406312 0.2074465 0.2074409
0.3607406 0.2227533 0.2227475
0.3808565 0.2383775 0.2383714
0.4009783 0.2543154 0.2543090
0.4211058 0.2705635 0.2705570
0.4412385 0.2871189 0.2871121
0.4613761 0.3039783 0.3039713
0.4815181 0.3211391 0.3211319
0.5016641 0.3385984 0.3385910
0.5218136 0.3563536 0.3563461
0.5419662 0.3744023 0.3743946
0.5621211 0.3927419 0.3927340
0.5822779 0.4113699 0.4113619
0.6024357 0.4302840 0.4302759
0.6225939 0.4494816 0.4494734
0.6427514 0.4689603 0.4689520
0.6629074 0.4887175 0.4887091
0.6830605 0.5087504 0.5087419
0.7032095 0.5290561 0.5290476
0.7233526 0.5496314 0.5496229
0.7434880 0.5704729 0.5704643
0.7636134 0.5915766 0.5915680
0.7824740 0.6116003 0.6115917
0.8025685 0.6331952 0.6331867
0.8232138 0.6556618 0.6556533
0.8438782 0.6784319 0.6784234
0.8645613 0.7015048 0.7014964
0.8852628 0.7248800 0.7248717
0.9059823 0.7485570 0.7485488
0.9267197 0.7725353 0.7725272
0.9474747 0.7968145 0.7968065
0.9682468 0.8213941 0.8213863
0.9890360 0.8462737 0.8462660
0.0105718 0.0205490 0.0105715
0.0208967 0.0208967 0.0125842
0.0402830 0.0243839 0.0202952
0.0600884 0.0316351 0.0297272
0.0800113 0.0408194 0.0398320
0.0999787 0.0509917 0.0504291
0.1199701 0.0618080 0.0614638
0.1399781 0.0731316 0.0729096
0.1599996 0.0848985 0.0847493
0.1800328 0.0970736 0.0969700
0.2000767 0.1096353 0.1095612
0.2201305 0.1225682 0.1225140
0.2401935 0.1358612 0.1358205
0.2602653 0.1495052 0.1494739
0.2803454 0.1634927 0.1634681
0.3004334 0.1778173 0.1777974
0.3205289 0.1924734 0.1924569
0.3406315 0.2074560 0.2074419
0.3607409 0.2227606 0.2227483
0.3808567 0.2383830 0.2383720
0.4009785 0.2543196 0.2543095
0.4211059 0.2705668 0.2705573
0.4412386 0.2871214 0.2871123
0.4613761 0.3039802 0.3039715
0.4815182 0.3211406 0.3211320
0.5016642 0.3385995 0.3385911
0.5218137 0.3563545 0.3563462
0.5419662 0.3744030 0.3743947
0.5621211 0.3927424 0.3927341
0.5822779 0.4113703 0.4113620
0.6024357 0.4302843 0.4302759
0.6225939 0.4494819 0.4494734
0.6427514 0.4689605 0.4689520
0.6629074 0.4887176 0.4887091
0.6830605 0.5087505 0.5087419
0.7032095 0.5290562 0.5290476
0.7233526 0.5496315 0.5496229
0.7434880 0.5704729 0.5704643
0.7636134 0.5915766 0.5915680
0.7824740 0.6116003 0.6115917
0.8025685 0.6331952 0.6331867
0.8232138 0.6556618 0.6556533
0.8438782 0.6784319 0.6784234
0.8645613 0.7015048 0.7014964
0.8852628 0.7248800 0.7248717
0.9059823 0.7485570 0.7485488
0.9267197 0.7725353 0.7725272
0.9474747 0.7968145 0.7968065
0.9682468 0.8213941 0.8213863
0.9890360 0.8462737 0.8462660
0.0203818 0.0410775 0.0203811
0.0249908 0.0411345 0.0208778
0.0417734 0.0417734 0.0246030
0.0609165 0.0441472 0.0318358
0.0804792 0.0490476 0.0409513
0.1002507 0.0562762 0.0510738
0.1201351 0.0652347 0.0618598
0.1400825 0.0754022 0.0731648
0.1600679 0.0864388 0.0849200
0.1800787 0.0981414 0.0970874
0.2001083 0.1103894 0.1096438
0.2201526 0.1231094 0.1225732
0.2402092 0.1362547 0.1358635
0.2602766 0.1497946 0.1495056
0.2803537 0.1637075 0.1634916
0.3004395 0.1779780 0.1778150
0.3205334 0.1925944 0.1924702
0.3406349 0.2075475 0.2074520
0.3607434 0.2228302 0.2227559
0.3808586 0.2384361 0.2383778
0.4009799 0.2543602 0.2543140
0.4211070 0.2705980 0.2705608
0.4412394 0.2871453 0.2871150
0.4613768 0.3039987 0.3039736
0.4815186 0.3211547 0.3211336
0.5016645 0.3386104 0.3385923
0.5218140 0.3563629 0.3563471
0.5419664 0.3744094 0.3743954
0.5621213 0.3927474 0.3927346
0.5822780 0.4113741 0.4113624
0.6024358 0.4302872 0.4302762
0.6225939 0.4494841 0.4494737
0.6427515 0.4689622 0.4689522
0.6629074 0.4887189 0.4887093
0.6830605 0.5087515 0.5087421
0.7032095 0.5290569 0.5290477
0.7233526 0.5496320 0.5496229
0.7434880 0.5704734 0.5704644
0.7636134 0.5915769 0.5915680
0.7824740 0.6116005 0.6115917
0.8025685 0.6331954 0.6331867
0.8232138 0.6556619 0.6556533
0.8438782 0.6784319 0.6784234
0.8645613 0.7015048 0.7014964
0.8852628 0.7248800 0.7248717
0.9059823 0.7485570 0.7485488
0.9267197 0.7725353 0.7725272
0.9474747 0.7968145 0.7968065
0.9682468 0.8213941 0.8213863
0.9890360 0.8462737 0.8462660
0.0305802 0.0615803 0.0305793
0.0326867 0.0616004 0.0307728
0.0448673 0.0618057 0.0324952
0.0625877 0.0625878 0.0370048
0.0815960 0.0646000 0.0441330
0.1009983 0.0684239 0.0530470
0.1206279 0.0742494 0.0631177
0.1404084 0.0819155 0.0739917
0.1602865 0.0911016 0.0854788
0.1802279 0.1014832 0.0974742
0.2002118 0.1127994 0.1099169
0.2202256 0.1248618 0.1227692
0.2402614 0.1375401 0.1360062
0.2603143 0.1507451 0.1496106
0.2803812 0.1644157 0.1635696
0.3004597 0.1785091 0.1778734
0.3205484 0.1929950 0.1925142
0.3406461 0.2078512 0.2074854
0.3607518 0.2230612 0.2227813
0.3808649 0.2386126 0.2383973
0.4009847 0.2544953 0.2543288
0.4211106 0.2707016 0.2705722
0.4412422 0.2872250 0.2871238
0.4613789 0.3040600 0.3039804
0.4815202 0.3212019 0.3211388
0.5016657 0.3386468 0.3385964
0.5218149 0.3563909 0.3563502
0.5419671 0.3744310 0.3743978
0.5621218 0.3927639 0.3927365
0.5822784 0.4113868 0.4113638
0.6024361 0.4302969 0.4302773
0.6225942 0.4494915 0.4494745
0.6427517 0.4689679 0.4689529
0.6629075 0.4887232 0.4887098
0.6830606 0.5087547 0.5087424
0.7032096 0.5290594 0.5290479
0.7233527 0.5496339 0.5496232
0.7434881 0.5704747 0.5704645
0.7636134 0.5915779 0.5915681
0.7824740 0.6116012 0.6115918
0.8025685 0.6331960 0.6331867
0.8232138 0.6556623 0.6556533
0.8438782 0.6784322 0.6784234
0.8645613 0.7015051 0.7014964
0.8852628 0.7248802 0.7248717
0.9059823 0.7485571 0.7485488
0.9267197 0.7725354 0.7725272
0.9474747 0.7968145 0.7968065
0.9682468 0.8213941 0.8213863
0.9890360 0.8462737 0.8462661
0.0412084 0.0820628 0.0412071
0.0422903 0.0820720 0.0413021
0.0503178 0.0821631 0.0421886
0.0653752 0.0824908 0.0448367
0.0833501 0.0833502 0.0498094
0.1022643 0.0851847 0.0569559
0.1215527 0.0884358 0.0657752
0.1410699 0.0933708 0.0758074
0.1607535 0.1000325 0.0867348
0.1805570 0.1082893 0.0983559
0.2004448 0.1179218 0.1105449
0.2203919 0.1286969 0.1232224
0.2403811 0.1404094 0.1363371
0.2604013 0.1528960 0.1498547
0.2804449 0.1660332 0.1637513
0.3005067 0.1797301 0.1780096
0.3205833 0.1939202 0.1926170
0.3406722 0.2085547 0.2075633
0.3607714 0.2235979 0.2228407
0.3808796 0.2390231 0.2384426
0.4009958 0.2548101 0.2543636
0.4211191 0.2709434 0.2705989
0.4412486 0.2874109 0.2871444
0.4613838 0.3042031 0.3039962
0.4815240 0.3213121 0.3211511
0.5016686 0.3387317 0.3386058
0.5218171 0.3564562 0.3563575
0.5419688 0.3744812 0.3744034
0.5621231 0.3928025 0.3927408
0.5822794 0.4114164 0.4113671
0.6024369 0.4303196 0.4302799
0.6225947 0.4495089 0.4494765
0.6427521 0.4689811 0.4689544
0.6629079 0.4887333 0.4887109
0.6830609 0.5087623 0.5087433
0.7032097 0.5290651 0.5290486
0.7233528 0.5496382 0.5496236
0.7434882 0.5704780 0.5704649
0.7636135 0.5915803 0.5915684
0.7824740 0.6116030 0.6115919
0.8025685 0.6331973 0.6331869
0.8232139 0.6556633 0.6556535
0.8438782 0.6784329 0.6784235
0.8645613 0.7015055 0.7014965
0.8852628 0.7248805 0.7248717
0.9059824 0.7485574 0.7485488
0.9267197 0.7725356 0.7725273
0.9474747 0.7968147 0.7968065
0.9682468 0.8213942 0.8213863
0.9890360 0.8462738 0.8462661
0.0522619 0.1025285 0.0522603
0.0528752 0.1025334 0.0523132
0.0580268 0.1025808 0.0528159
0.0698340 0.1027453 0.0544031
0.0859936 0.1031625 0.0576951
0.1040681 0.1040681 0.0630016
0.1229098 0.1057957 0.0702177
0.1421100 0.1086979 0.0790106
0.1615378 0.1130444 0.0890326
0.1811379 0.1189654 0.1000081
0.2008707 0.1264490 0.1117403
0.2207030 0.1353779 0.1240942
0.2406087 0.1455788 0.1369781
0.2605684 0.1568666 0.1503298
0.2805681 0.1690721 0.1641059
0.3005981 0.1820530 0.1782761
0.3206514 0.1956962 0.1928183
0.3407231 0.2099140 0.2077162
0.3608097 0.2246397 0.2229572
0.3809085 0.2398227 0.2385318
0.4010177 0.2554246 0.2544320
0.4211357 0.2714162 0.2706515
0.4412612 0.2877750 0.2871848
0.4613934 0.3044837 0.3040274
0.4815313 0.3215284 0.3211751
0.5016742 0.3388983 0.3386244
0.5218213 0.3565846 0.3563718
0.5419720 0.3745800 0.3744144
0.5621256 0.3928784 0.3927493
0.5822813 0.4114747 0.4113737
0.6024383 0.4303642 0.4302849
0.6225958 0.4495430 0.4494803
0.6427529 0.4690071 0.4689573
0.6629085 0.4887530 0.4887131
0.6830614 0.5087773 0.5087450
0.7032101 0.5290764 0.5290499
0.7233531 0.5496466 0.5496246
0.7434884 0.5704843 0.5704656
0.7636137 0.5915850 0.5915689
0.7824741 0.6116064 0.6115923
0.8025686 0.6331998 0.6331872
0.8232139 0.6556652 0.6556537
0.8438783 0.6784343 0.6784237
0.8645613 0.7015065 0.7014966
0.8852628 0.7248812 0.7248718
0.9059824 0.7485579 0.7485489
0.9267198 0.7725359 0.7725273
0.9474747 0.7968149 0.7968066
0.9682468 0.8213943 0.8213863
0.9890360 0.8462739 0.8462661
0.0637282 0.1229798 0.0637263
0.0641016 0.1229826 0.0637583
0.0674369 0.1230097 0.0640643
0.0762056 0.1231020 0.0650544
0.0899408 0.1233290 0.0672193
0.1066287 0.1238121 0.0709884
0.1247473 0.1247473 0.0765627
0.1435300 0.1264024 0.0838723
0.1626583 0.1290709 0.0926821
0.1820127 0.1330072 0.1027203
0.2015415 0.1383776 0.1137494
0.2212103 0.1452406 0.1255836
0.2409891 0.1535562 0.1380858
0.2608526 0.1632126 0.1511573
0.2807804 0.1740610 0.1647271
0.3007569 0.1859443 0.1787446
0.3207704 0.1987163 0.1931732
0.3408126 0.2122512 0.2079861
0.3608772 0.2264456 0.2231633
0.3809596 0.2412172 0.2386896
0.4010564 0.2565012 0.2545531
0.4211650 0.2722474 0.2707446
0.4412836 0.2884167 0.2872566
0.4614104 0.3049790 0.3040827
0.4815443 0.3219107 0.3212178
0.5016841 0.3391932 0.3386573
0.5218289 0.3568119 0.3563972
0.5419778 0.3747550 0.3744340
0.5621300 0.3930130 0.3927643
0.5822846 0.4115780 0.4113852
0.6024409 0.4304434 0.4302938
0.6225978 0.4496035 0.4494871
0.6427544 0.4690532 0.4689625
0.6629096 0.4887880 0.4887171
0.6830622 0.5088038 0.5087480
0.7032107 0.5290964 0.5290522
0.7233536 0.5496617 0.5496263
0.7434887 0.5704955 0.5704669
0.7636139 0.5915933 0.5915699
0.7824742 0.6116125 0.6115929
0.8025688 0.6332044 0.6331878
0.8232141 0.6556685 0.6556541
0.8438784 0.6784367 0.6784240
0.8645614 0.7015082 0.7014968
0.8852628 0.7248825 0.7248720
0.9059824 0.7485587 0.7485490
0.9267198 0.7725365 0.7725274
0.9474747 0.7968153 0.7968066
0.9682469 0.8213946 0.8213863
0.9890360 0.8462740 0.8462661
0.0755944 0.1434184 0.0755921
0.0758336 0.1434201 0.0756126
0.0780400 0.1434366 0.0758085
0.0843702 0.1434921 0.0764505
0.0954819 0.1436261 0.0778938
0.1102720 0.1439045 0.0805280
0.1272542 0.1444371 0.0846723
0.1453920 0.1453921 0.0904747
0.1641249 0.1469940 0.0978901
0.1831924 0.1494952 0.1067447
0.2024847 0.1531320 0.1168207
0.2219524 0.1580841 0.1279120
0.2415641 0.1644511 0.1398463
0.2612932 0.1722476 0.1524881
0.2811155 0.1814144 0.1657346
0.3010109 0.1918417 0.1795092
0.3209628 0.2033943 0.1937551
0.3409582 0.2159327 0.2084301
0.3609875 0.2293269 0.2235030
0.3810433 0.2434636 0.2389501
0.4011200 0.2582481 0.2547533
0.4212135 0.2736033 0.2708987
0.4413205 0.2894678 0.2873753
0.4614386 0.3057930 0.3041743
0.4815658 0.3225403 0.3212885
0.5017005 0.3396797 0.3387118
0.5218414 0.3571874 0.3564393
0.5419874 0.3750445 0.3744664
0.5621373 0.3932358 0.3927893
0.5822902 0.4117491 0.4114045
0.6024451 0.4305745 0.4303085
0.6226010 0.4497037 0.4494984
0.6427568 0.4691296 0.4689711
0.6629115 0.4888461 0.4887237
0.6830636 0.5088478 0.5087530
0.7032118 0.5291295 0.5290559
0.7233544 0.5496866 0.5496292
0.7434893 0.5705141 0.5704690
0.7636144 0.5916072 0.5915715
0.7824744 0.6116225 0.6115939
0.8025691 0.6332120 0.6331887
0.8232143 0.6556740 0.6556548
0.8438785 0.6784407 0.6784245
0.8645615 0.7015111 0.7014971
0.8852629 0.7248845 0.7248722
0.9059825 0.7485602 0.7485492
0.9267198 0.7725375 0.7725275
0.9474747 0.7968160 0.7968067
0.9682469 0.8213951 0.8213864
0.9890360 0.8462744 0.8462661
0.0878479 0.1638458 0.0878453
0.0880071 0.1638468 0.0878589
0.0895015 0.1638573 0.0879893
0.0940268 0.1638923 0.0884192
0.1026903 0.1639759 0.0894006
0.1152757 0.1641464 0.0912429
0.1306990 0.1644669 0.0942646
0.1478616 0.1650373 0.0987179
0.1660055 0.1660056 0.1047218
0.1846952 0.1675663 0.1122490
0.2037101 0.1699419 0.1211673
0.2229489 0.1733516 0.1312979
0.2423634 0.1779787 0.1424609
0.2619244 0.1839467 0.1544967
0.2816078 0.1913080 0.1672738
0.3013912 0.2000456 0.1806878
0.3212548 0.2100862 0.1946579
0.3411817 0.2213197 0.2091224
0.3611582 0.2336193 0.2240346
0.3811736 0.2468574 0.2393588
0.4012195 0.2609159 0.2550680
0.4212894 0.2756914 0.2711413
0.4413785 0.2910967 0.2875625
0.4614829 0.3070603 0.3043188
0.4815997 0.3235243 0.3214000
0.5017264 0.3404422 0.3387980
0.5218612 0.3577772 0.3565057
0.5420025 0.3754998 0.3745177
0.5621489 0.3935866 0.3928288
0.5822990 0.4120188 0.4114348
0.6024518 0.4307814 0.4303318
0.6226061 0.4498619 0.4495163
0.6427607 0.4692503 0.4689848
0.6629144 0.4889379 0.4887340
0.6830658 0.5089173 0.5087609
0.7032135 0.5291820 0.5290619
0.7233556 0.5497259 0.5496337
0.7434903 0.5705435 0.5704724
0.7636151 0.5916291 0.5915740
0.7824746 0.6116384 0.6115955
0.8025696 0.6332239 0.6331902
0.8232146 0.6556827 0.6556558
0.8438788 0.6784470 0.6784252
0.8645617 0.7015156 0.7014977
0.8852630 0.7248877 0.7248726
0.9059825 0.7485624 0.7485495
0.9267199 0.7725391 0.7725277
0.9474747 0.7968171 0.7968068
0.9682469 0.8213958 0.8213865
0.9890360 0.8462748 0.8462662
0.1004776 0.1842628 0.1004748
0.1005868 0.1842635 0.1004840
0.1016210 0.1842704 0.1005734
0.1048591 0.1842932 0.1008689
0.1114554 0.1843475 0.1015496
0.1217893 0.1844568 0.1028489
0.1353351 0.1846589 0.1050386
0.1511675 0.1850138 0.1083872
0.1684479 0.1856135 0.1131036
0.1865906 0.1865907 0.1192899
0.2052419 0.1881181 0.1269320
0.2242107 0.1903957 0.1359268
0.2434023 0.1936280 0.1461252
0.2627699 0.1979972 0.1573686
0.2822858 0.2036410 0.1695093
0.3019276 0.2106382 0.1824203
0.3216745 0.2190045 0.1959973
0.3415076 0.2286984 0.2101566
0.3614099 0.2396351 0.2248329
0.3813674 0.2517035 0.2399750
0.4013683 0.2647826 0.2555439
0.4214036 0.2787535 0.2715089
0.4414660 0.2935074 0.2878465
0.4615500 0.3089493 0.3045383
0.4816510 0.3249989 0.3215697
0.5017657 0.3415897 0.3389290
0.5218913 0.3586675 0.3566070
0.5420255 0.3761888 0.3745957
0.5621664 0.3941185 0.3928890
0.5823124 0.4124283 0.4114811
0.6024620 0.4310958 0.4303674
0.6226139 0.4501027 0.4495435
0.6427666 0.4694340 0.4690056
0.6629189 0.4890776 0.4887499
0.6830692 0.5090231 0.5087729
0.7032160 0.5292618 0.5290710
0.7233575 0.5497860 0.5496405
0.7434917 0.5705884 0.5704775
0.7636161 0.5916624 0.5915778
0.7824751 0.6116627 0.6115980
0.8025703 0.6332422 0.6331924
0.8232151 0.6556960 0.6556575
0.8438791 0.6784566 0.6784264
0.8645619 0.7015225 0.7014985
0.8852632 0.7248926 0.7248732
0.9059827 0.7485659 0.7485499
0.9267200 0.7725415 0.7725280
0.9474748 0.7968187 0.7968070
0.9682469 0.8213969 0.8213866
0.9890361 0.8462756 0.8462663
0.1134736 0.2046704 0.1134705
0.1135501 0.2046709 0.1134770
0.1142795 0.2046755 0.1135396
0.1166111 0.2046909 0.1137471
0.1215687 0.2047271 0.1142276
0.1298194 0.2047995 0.1151543
0.1413400 0.2049319 0.1167435
0.1555402 0.2051610 0.1192367
0.1716521 0.2055441 0.1228664
0.1890124 0.2061667 0.1278125
0.2071494 0.2071495 0.1341668
0.2257663 0.2086491 0.1419248
0.2446938 0.2108481 0.1510053
0.2638434 0.2139384 0.1612819
0.2831694 0.2180994 0.1726134
0.3026447 0.2234770 0.1848630
0.3222486 0.2301689 0.1979085
0.3419618 0.2382161 0.2116462
0.3617660 0.2476040 0.2259908
0.3816446 0.2582714 0.2408738
0.4015831 0.2701240 0.2562408
0.4215695 0.2830497 0.2720490
0.4415938 0.2969321 0.2882649
0.4616483 0.3116594 0.3048622
0.4817266 0.3271309 0.3218204
0.5018237 0.3432586 0.3391229
0.5219357 0.3599686 0.3567568
0.5420595 0.3771993 0.3747114
0.5621924 0.3949006 0.3929781
0.5823323 0.4130318 0.4115497
0.6024772 0.4315599 0.4304200
0.6226254 0.4504584 0.4495838
0.6427753 0.4697058 0.4690364
0.6629255 0.4892844 0.4887734
0.6830742 0.5091800 0.5087907
0.7032198 0.5293802 0.5290845
0.7233603 0.5498749 0.5496507
0.7434938 0.5706549 0.5704852
0.7636177 0.5917119 0.5915835
0.7824757 0.6116987 0.6116017
0.8025713 0.6332692 0.6331957
0.8232159 0.6557157 0.6556599
0.8438797 0.6784708 0.6784282
0.8645623 0.7015327 0.7014998
0.8852635 0.7248998 0.7248741
0.9059828 0.7485710 0.7485505
0.9267201 0.7725450 0.7725284
0.9474749 0.7968211 0.7968073
0.9682470 0.8213986 0.8213868
0.9890361 0.8462767 0.8462664
0.1268270 0.2250693 0.1268235
0.1268816 0.2250697 0.1268282
0.1274042 0.2250728 0.1268728
0.1290970 0.2250833 0.1270211
0.1328031 0.2251081 0.1273655
0.1392606 0.2251572 0.1280341
0.1487867 0.2252464 0.1291936
0.1611646 0.2253990 0.1310444
0.1758287 0.2256511 0.1338046
0.1921395 0.2260572 0.1376802
0.2095553 0.2266977 0.1428307
0.2276838 0.2276839 0.1493414
0.2462693 0.2291595 0.1572155
0.2651597 0.2312939 0.1663882
0.2842714 0.2342685 0.1767513
0.3035599 0.2382588 0.1881778
0.3229987 0.2434159 0.2005405
0.3425682 0.2498509 0.2137220
0.3622502 0.2576247 0.2276198
0.3820272 0.2667455 0.2421475
0.4018832 0.2771730 0.2572340
0.4218033 0.2888296 0.2728220
0.4417753 0.3016136 0.2888657
0.4617886 0.3154127 0.3053286
0.4818348 0.3301143 0.3221820
0.5019070 0.3456135 0.3394030
0.5219997 0.3618162 0.3569734
0.5421086 0.3786416 0.3748788
0.5622300 0.3960214 0.3931072
0.5823610 0.4138992 0.4116491
0.6024991 0.4322286 0.4304964
0.6226421 0.4509719 0.4496424
0.6427880 0.4700986 0.4690811
0.6629351 0.4895837 0.4888075
0.6830814 0.5094070 0.5088166
0.7032252 0.5295517 0.5291041
0.7233644 0.5500039 0.5496654
0.7434969 0.5707513 0.5704962
0.7636200 0.5917836 0.5915918
0.7824766 0.6117509 0.6116069
0.8025729 0.6333085 0.6332006
0.8232170 0.6557444 0.6556634
0.8438804 0.6784915 0.6784307
0.8645629 0.7015476 0.7015016
0.8852639 0.7249104 0.7248754
0.9059831 0.7485784 0.7485514
0.9267203 0.7725502 0.7725290
0.9474750 0.7968247 0.7968078
0.9682471 0.8214009 0.8213871
0.9890362 0.8462783 0.8462666
0.1405297 0.2454601 0.1405260
0.1405693 0.2454603 0.1405294
0.1409488 0.2454625 0.1405617
0.1421885 0.2454699 0.1406692
0.1449571 0.2454870 0.1409193
0.1499467 0.2455211 0.1414068
0.1576463 0.2455824 0.1422585
0.1681505 0.2456866 0.1436341
0.1811619 0.2458568 0.1457208
0.1961659 0.2461283 0.1487177
0.2126223 0.2465534 0.1528113
0.2300772 0.2472078 0.1581465
0.2481953 0.2481955 0.1648041
0.2667520 0.2496501 0.1727938
0.2856086 0.2517303 0.1820635
0.3046859 0.2546088 0.1925195
0.3239404 0.2584576 0.2040471
0.3433461 0.2634305 0.2165272
0.3628841 0.2696487 0.2298470
0.3825373 0.2771890 0.2439053
0.4022891 0.2860784 0.2586151
0.4221235 0.2962955 0.2739032
0.4420261 0.3077783 0.2897098
0.4619839 0.3204359 0.3059861
0.4819863 0.3341613 0.3226932
0.5020241 0.3488427 0.3397998
0.5220900 0.3643721 0.3572809
0.5421780 0.3806506 0.3751165
0.5622833 0.3975911 0.3932908
0.5824018 0.4151191 0.4117905
0.6025302 0.4331720 0.4306051
0.6226658 0.4516982 0.4497257
0.6428061 0.4706553 0.4691449
0.6629488 0.4900085 0.4888561
0.6830918 0.5097297 0.5088535
0.7032330 0.5297957 0.5291320
0.7233703 0.5501874 0.5496865
0.7435012 0.5708887 0.5705120
0.7636232 0.5918858 0.5916035
0.7824779 0.6118253 0.6116145
0.8025750 0.6333645 0.6332074
0.8232185 0.6557852 0.6556684
0.8438816 0.6785210 0.6784343
0.8645637 0.7015687 0.7015042
0.8852644 0.7249254 0.7248772
0.9059835 0.7485889 0.7485527
0.9267205 0.7725575 0.7725299
0.9474752 0.7968297 0.7968084
0.9682472 0.8214044 0.8213875
0.9890362 0.8462805 0.8462669
0.1545747 0.2658433 0.1545707
0.1546037 0.2658434 0.1545732
0.1548824 0.2658450 0.1545969
0.1557979 0.2658501 0.1546757
0.1578701 0.2658622 0.1548593
0.1616970 0.2658862 0.1552182
0.1678149 0.2659291 0.1558483
0.1765222 0.2660015 0.1568741
0.1877817 0.2661189 0.1584488
0.2012716 0.2663043 0.1607482
0.2165311 0.2665921 0.1639566
0.2330966 0.2670326 0.1682456
0.2505787 0.2676978 0.1737494
0.2686853 0.2686855 0.1805461
0.2872153 0.2701213 0.1886504
0.3060408 0.2721554 0.1980208
0.3250866 0.2749533 0.2085752
0.3443101 0.2786833 0.2202092
0.3636856 0.2835014 0.2328109
0.3831948 0.2895364 0.2462716
0.4028215 0.2968777 0.2604917
0.4225497 0.3055683 0.2753835
0.4423639 0.3156034 0.2908724
0.4622497 0.3269355 0.3068960
0.4821940 0.3394844 0.3234032
0.5021856 0.3531490 0.3403524
0.5222151 0.3678190 0.3577100
0.5422746 0.3833847 0.3754490
0.5623575 0.3997428 0.3935478
0.5824587 0.4168010 0.4119887
0.6025738 0.4344787 0.4307576
0.6226991 0.4527077 0.4498427
0.6428314 0.4714311 0.4692344
0.6629679 0.4906017 0.4889243
0.6831063 0.5101810 0.5089054
0.7032439 0.5301374 0.5291712
0.7233785 0.5504447 0.5497160
0.7435074 0.5710813 0.5705342
0.7636278 0.5920292 0.5916201
0.7824797 0.6119298 0.6116251
0.8025781 0.6334431 0.6332171
0.8232207 0.6558425 0.6556755
0.8438831 0.6785625 0.6784394
0.8645648 0.7015984 0.7015079
0.8852652 0.7249465 0.7248798
0.9059840 0.7486038 0.7485545
0.9267209 0.7725678 0.7725312
0.9474754 0.7968368 0.7968093
0.9682474 0.8214091 0.8213881
0.9890364 0.8462837 0.8462673
0.1689555 0.2862192 0.1689512
0.1689769 0.2862193 0.1689530
0.1691835 0.2862204 0.1689706
0.1698646 0.2862241 0.1690289
0.1714207 0.2862327 0.1691649
0.1743452 0.2862497 0.1694313
0.1791481 0.2862801 0.1699006
0.1862280 0.2863312 0.1706688
0.1957484 0.2864136 0.1718579
0.2075978 0.2865426 0.1736152
0.2214563 0.2867410 0.1761069
0.2369116 0.2870424 0.1795056
0.2535599 0.2874954 0.1839713
0.2710608 0.2881686 0.1896305
0.2891549 0.2891551 0.1965594
0.3076598 0.2905739 0.2047773
0.3264568 0.2925681 0.2142510
0.3454736 0.2952975 0.2249083
0.3646685 0.2989272 0.2366534
0.3840164 0.3036146 0.2493808
0.4034992 0.3094945 0.2629854
0.4231014 0.3166668 0.2773690
0.4428077 0.3251882 0.2924436
0.4626030 0.3350683 0.3081332
0.4824728 0.3462730 0.3243733
0.5024042 0.3587322 0.3411103
0.5223854 0.3723509 0.3583002
0.5424066 0.3870212 0.3759074
0.5624595 0.4026319 0.3939027
0.5825371 0.4190763 0.4122628
0.6026339 0.4362569 0.4309687
0.6227450 0.4540881 0.4500048
0.6428663 0.4724959 0.4693584
0.6629945 0.4914183 0.4890189
0.6831264 0.5108037 0.5089773
0.7032591 0.5306095 0.5292257
0.7233899 0.5508006 0.5497571
0.7435159 0.5713482 0.5705650
0.7636341 0.5922280 0.5916431
0.7824823 0.6120747 0.6116399
0.8025823 0.6335522 0.6332305
0.8232238 0.6559220 0.6556852
0.8438853 0.6786201 0.6784465
0.8645663 0.7016397 0.7015129
0.8852663 0.7249758 0.7248834
0.9059848 0.7486244 0.7485571
0.9267214 0.7725821 0.7725330
0.9474758 0.7968466 0.7968105
0.9682476 0.8214158 0.8213889
0.9890365 0.8462882 0.8462678
0.1836661 0.3065882 0.1836616
0.1836821 0.3065883 0.1836629
0.1838364 0.3065891 0.1836760
0.1843465 0.3065918 0.1837195
0.1855195 0.3065979 0.1838211
0.1877516 0.3066102 0.1840203
0.1914923 0.3066320 0.1843719
0.1971633 0.3066684 0.1849497
0.2050518 0.3067270 0.1858494
0.2152292 0.3068181 0.1871905
0.2275448 0.3069571 0.1891148
0.2416914 0.3071666 0.1917808
0.2572992 0.3074792 0.1953516
0.2740109 0.3079420 0.1999783
0.2915241 0.3086211 0.2057818
0.3096051 0.3096052 0.2128370
0.3280865 0.3110084 0.2211671
0.3468568 0.3129678 0.2307462
0.3658468 0.3156384 0.2415102
0.3850155 0.3191829 0.2533707
0.4043378 0.3237597 0.2662277
0.4237963 0.3295084 0.2799793
0.4433759 0.3365380 0.2945286
0.4630619 0.3449168 0.3097875
0.4828394 0.3546674 0.3256784
0.5026943 0.3657676 0.3421350
0.5226132 0.3781569 0.3591014
0.5425843 0.3917464 0.3765314
0.5625974 0.4064304 0.3943871
0.5826437 0.4220969 0.4126376
0.6027158 0.4386364 0.4312578
0.6228077 0.4559466 0.4502270
0.6429142 0.4739366 0.4695287
0.6630309 0.4925274 0.4891489
0.6831539 0.5116520 0.5090761
0.7032799 0.5312542 0.5293005
0.7234055 0.5512876 0.5498135
0.7435276 0.5717137 0.5706073
0.7636428 0.5925007 0.5916747
0.7824858 0.6122736 0.6116602
0.8025882 0.6337020 0.6332490
