LUTs/luminance_compensation_srgb.cube
TITLE "Pre-formation 2012 Luminance Correction for BT.709 Target"
# Lower Side of Guard Rail Formation for sRGB medium.
# The Guard Rail is designed to leaves valid value as-is, and only touch out of domain values Modified from python script shared by Sakari Kapanen
# This LUT assumes E Gamut encoded in ST2084 (100) curve and then power 0.5
# LUT resolution 50
LUT_3D_SIZE 5
DOMAIN_MIN 0.000000 0.000000 0.000000
DOMAIN_MAX 0.816327 0.816327 0.816327
0.0000000 0.0000000 0.0000000
0.1963893 0.1209253 0.1209216
0.3943997 0.2737182 0.2737115
0.5933924 0.4530040 0.4529957
0.7888965 0.6512501 0.6512416
0.1719553 0.2116281 0.1719510
0.2095552 0.2095553 0.1531971
0.3971317 0.2777582 0.2668720
0.5936574 0.4531300 0.4524207
0.7889173 0.6512652 0.6512179
0.3566751 0.4153364 0.3566684
0.3557812 0.4147594 0.3529404
0.4142757 0.4142760 0.3288260
0.5981877 0.4722571 0.4489473
0.7896094 0.6517641 0.6504018
0.5494968 0.6140264 0.5494893
0.5494661 0.6140170 0.5492888
0.5483941 0.6137113 0.5418364
0.6160656 0.6160659 0.5206348
0.7959320 0.6729135 0.6495991
0.7484390 0.8089951 0.7484318
0.7484397 0.8089968 0.7484237
0.7484632 0.8090550 0.7481536
0.7488271 0.8100659 0.7427661
0.8161601 0.8161604 0.7260562
0.1140659 0.1140664 0.1765264
0.1956025 0.1430379 0.1956012
0.3941605 0.2753185 0.2842846
0.5933703 0.4531107 0.4537927
0.7888943 0.6512550 0.6512852
0.1806529 0.2143451 0.2143424
0.2040816 0.2040816 0.2040816
0.3974339 0.2762688 0.2762634
0.5936351 0.4532370 0.4532288
0.7889151 0.6512700 0.6512615
0.3570929 0.4154229 0.3596882
0.3562126 0.4148452 0.3562062
0.4136358 0.4136360 0.3282450
0.5983347 0.4717404 0.4489317
0.7896072 0.6517690 0.6504466
0.5495208 0.6140290 0.5496822
0.5494901 0.6140197 0.5494826
0.5484198 0.6137138 0.5420650
0.6160435 0.6160438 0.5206129
0.7959453 0.6728911 0.6496046
0.7484400 0.8089950 0.7484415
0.7484407 0.8089967 0.7484335
0.7484643 0.8090549 0.7481635
0.7488282 0.8100658 0.7427778
0.8161602 0.8161604 0.7260562
0.2587600 0.2587608 0.3614164
0.2672280 0.2604207 0.3622664
0.3911697 0.3095864 0.3911678
0.5926627 0.4565274 0.4759498
0.7888215 0.6514149 0.6527206
0.2666742 0.2731401 0.3660388
0.2640775 0.2640782 0.3677160
0.3930401 0.3112705 0.3930384
0.5929199 0.4566629 0.4756472
0.7888423 0.6514299 0.6526980
0.3691677 0.4183563 0.4183525
0.3686052 0.4177662 0.4177625
0.4081633 0.4081633 0.4081633
0.6014040 0.4607129 0.4607077
0.7895337 0.6519299 0.6519216
0.5503132 0.6141167 0.5558036
0.5502839 0.6141072 0.5556308
0.5492671 0.6137959 0.5492602
0.6153001 0.6153003 0.5198765
0.7963920 0.6721352 0.6497896
0.7484742 0.8089924 0.7487666
0.7484749 0.8089941 0.7487586
0.7484986 0.8090523 0.7484914
0.7488650 0.8100628 0.7431633
0.8161620 0.8161623 0.7260582
0.4287883 0.4287893 0.5511561
0.4293019 0.4287867 0.5511164
0.4478333 0.4324625 0.5526096
0.5862454 0.4931952 0.5862433
0.7875805 0.6540677 0.6733903
0.4290088 0.4295237 0.5510776
0.4285820 0.4285830 0.5509384
0.4476627 0.4326571 0.5528805
0.5864147 0.4933611 0.5864126
0.7876009 0.6540833 0.6733815
0.4474494 0.4613093 0.5610244
0.4473574 0.4609204 0.5611717
0.4467168 0.4467175 0.5699846
0.5919991 0.4988407 0.5919974
0.7882820 0.6545995 0.6730753
0.5620557 0.6157537 0.6157496
0.5620443 0.6157422 0.6157382
0.5616626 0.6153601 0.6153563
0.6122449 0.6122449 0.6122449
0.8007733 0.6639572 0.6639516
0.7490623 0.8089476 0.7541448
0.7490631 0.8089493 0.7541381
0.7490890 0.8090071 0.7539153
0.7494984 0.8100111 0.7494918
0.8161938 0.8161941 0.7260919
0.6159732 0.6159742 0.7394283
0.6159575 0.6159290 0.7394160
0.6167037 0.6156981 0.7390670
0.6323487 0.6167171 0.7378908
0.7713526 0.6807894 0.7713507
0.6159475 0.6159781 0.7393874
0.6159176 0.6159187 0.7393749
0.6166336 0.6156570 0.7390313
0.6323403 0.6167295 0.7379061
0.7713735 0.6808112 0.7713715
0.6154328 0.6164324 0.7383539
0.6154103 0.6163814 0.7383483
0.6147022 0.6147033 0.7382054
0.6321641 0.6172537 0.7385259
0.7720655 0.6815348 0.7720636
0.6313676 0.6453503 0.7451782
0.6313755 0.6453415 0.7451985
0.6316495 0.6450516 0.7458866
0.6400421 0.6400429 0.7624639
0.7830626 0.6930544 0.7830610
0.7580799 0.8083037 0.8082999
0.7580815 0.8083052 0.8083015
0.7581360 0.8083578 0.8083541
0.7590772 0.8092662 0.8092627
0.8163265 0.8163265 0.8163265
