LUTs/luminance_compensation_bt2020.cube
TITLE "Pre-formation 2012 Luminance Correction for BT.2020 Target"
# Use CIE 2012 Luminance to Compensate for Some Out-of-Domain Values
# This LUT assumes input and output to be E Gamut encoded in Log2 (-10 stop to +15 stop)
# LUT resolution 50
LUT_3D_SIZE 8
0.0008550 0.0008550 0.0008550
0.1399671 0.0728853 0.0728829
0.2803445 0.1634704 0.1634657
0.4211058 0.2705635 0.2705570
0.5621211 0.3927419 0.3927340
0.7032095 0.5290561 0.5290476
0.8438782 0.6784319 0.6784234
0.9890360 0.8462737 0.8462660
0.0755944 0.1434184 0.0755921
0.1453920 0.1453921 0.0904747
0.2811155 0.1814144 0.1657346
0.4212135 0.2736033 0.2708987
0.5621373 0.3932358 0.3927893
0.7032118 0.5291295 0.5290559
0.8438785 0.6784407 0.6784245
0.9890360 0.8462744 0.8462661
0.1689555 0.2862192 0.1689512
0.1862280 0.2863312 0.1706688
0.2891549 0.2891551 0.1965594
0.4231014 0.3166668 0.2773690
0.5624595 0.4026319 0.3939027
0.7032591 0.5306095 0.5292257
0.8438853 0.6786201 0.6784465
0.9890365 0.8462882 0.8462678
0.2785846 0.4286724 0.2785788
0.2814822 0.4286846 0.2788283
0.3225797 0.4289449 0.2836929
0.4319399 0.4319401 0.3157154
0.5648680 0.4568637 0.4030373
0.7036731 0.5428106 0.5307345
0.8439464 0.6802204 0.6786449
0.9890409 0.8464127 0.8462831
0.4029535 0.5708471 0.4029466
0.4034200 0.5708486 0.4029858
0.4123010 0.5708779 0.4037792
0.4636244 0.5711633 0.4105411
0.5739607 0.5739608 0.4460452
0.7061471 0.5985090 0.5406443
0.8443785 0.6909354 0.6800672
0.9890725 0.8473132 0.8463944
0.5410914 0.7127240 0.5410839
0.5411600 0.7127241 0.5410896
0.5425441 0.7127268 0.5412056
0.5539667 0.7127516 0.5422442
0.6061820 0.7129547 0.5493615
0.7142107 0.7142109 0.5852259
0.8469708 0.7413075 0.6893896
0.9892986 0.8535215 0.8471975
0.6929813 0.8548713 0.6929739
0.6929894 0.8548713 0.6929746
0.6931541 0.8548715 0.6929882
0.6946235 0.8548737 0.6931112
0.7044693 0.8548896 0.6940003
0.7507809 0.8550245 0.7001343
0.8570752 0.8570753 0.7369388
0.9909644 0.8904887 0.8535103
0.8593151 0.9981271 0.8593085
0.8593157 0.9981271 0.8593085
0.8593283 0.9981271 0.8593096
0.8594417 0.9981272 0.8593190
0.8602621 0.9981283 0.8593874
0.8659221 0.9981364 0.8598837
0.8996991 0.9982138 0.8639444
0.9999442 0.9999444 0.8981127
0.0745597 0.0745600 0.1219905
0.1388296 0.0876661 0.1388290
0.2829577 0.1352359 0.1634048
0.4214307 0.2677102 0.2705652
0.5621766 0.3923100 0.3927444
0.7032190 0.5289946 0.5290512
0.8438796 0.6784250 0.6784243
0.9890361 0.8462731 0.8462661
0.0818874 0.1436955 0.1436949
0.1428571 0.1428571 0.1428571
0.2832227 0.1655009 0.1654985
0.4215322 0.2709107 0.2709044
0.5621927 0.3928074 0.3927996
0.7032213 0.5290681 0.5290596
0.8438799 0.6784338 0.6784253
0.9890361 0.8462738 0.8462662
0.1398205 0.2858966 0.1669291
0.1687691 0.2859613 0.1687669
0.2882011 0.2882012 0.1958070
0.4233142 0.3154931 0.2773362
0.5625123 0.4022659 0.3939118
0.7032685 0.5305495 0.5292293
0.8438867 0.6786132 0.6784474
0.9890366 0.8462876 0.8462679
0.2755271 0.4286554 0.2783230
0.2785799 0.4286670 0.2785743
0.3212038 0.4289153 0.2834713
0.4318433 0.4318435 0.3156306
0.5649025 0.4567236 0.4030384
0.7036821 0.5427617 0.5307379
0.8439479 0.6802137 0.6786458
0.9890410 0.8464122 0.8462832
0.4024875 0.5708499 0.4029112
0.4029573 0.5708513 0.4029504
0.4118989 0.5708804 0.4037445
0.4634534 0.5711636 0.4105124
0.5739511 0.5739512 0.4460360
0.7061533 0.5984914 0.5406461
0.8443798 0.6909299 0.6800681
0.9890726 0.8473127 0.8463945
0.5410242 0.7127254 0.5410797
0.5410929 0.7127255 0.5410854
0.5424784 0.7127282 0.5412015
0.5539117 0.7127529 0.5422402
0.6061593 0.7129558 0.5493583
0.7142108 0.7142110 0.5852260
0.8469718 0.7413055 0.6893901
0.9892987 0.8535210 0.8471976
0.6929735 0.8548715 0.6929735
0.6929816 0.8548716 0.6929742
0.6931463 0.8548718 0.6929878
0.6946160 0.8548739 0.6931108
0.7044629 0.8548898 0.6939999
0.7507782 0.8550247 0.7001340
0.8570752 0.8570753 0.7369388
0.9909645 0.8904885 0.8535103
0.8593145 0.9981271 0.8593084
0.8593151 0.9981271 0.8593085
0.8593277 0.9981271 0.8593095
0.8594412 0.9981272 0.8593189
0.8602615 0.9981283 0.8593873
0.8659215 0.9981364 0.8598837
0.8996989 0.9982138 0.8639443
0.9999442 0.9999444 0.8981127
0.1650235 0.1650241 0.2489162
0.1753271 0.1665747 0.2507522
0.2778083 0.1906811 0.2778072
0.4249545 0.2289079 0.2989838
0.5633606 0.3825851 0.3929869
0.7034134 0.5277247 0.5291262
0.8439088 0.6782850 0.6784421
0.9890382 0.8462624 0.8462675
0.1600099 0.1712071 0.2557662
0.1726755 0.1726759 0.2589309
0.2799516 0.1923766 0.2799508
0.4254960 0.2282460 0.2973248
0.5633739 0.3831689 0.3930408
0.7034157 0.5277998 0.5291345
0.8439091 0.6782938 0.6784432
0.9890382 0.8462631 0.8462676
0.1807608 0.2865287 0.2865279
0.1805255 0.2862140 0.2862135
0.2857143 0.2857143 0.2857143
0.4285714 0.2857143 0.2857143
0.5636378 0.3941323 0.3941256
0.7034618 0.5293119 0.5293036
0.8439159 0.6784737 0.6784652
0.9890387 0.8462769 0.8462693
0.1551892 0.4285639 0.2889566
0.1514872 0.4285700 0.2863449
0.2857143 0.4285714 0.2857143
0.4298429 0.4298430 0.3138759
0.5656341 0.4537490 0.4030757
0.7038654 0.5417536 0.5308063
0.8439769 0.6800781 0.6786635
0.9890430 0.8464015 0.8462846
0.3920922 0.5709106 0.4021784
0.3926445 0.5709118 0.4022184
0.4030343 0.5709355 0.4030283
0.4598285 0.5711737 0.4099194
0.5737550 0.5737552 0.4458485
0.7062804 0.5981293 0.5406839
0.8444075 0.6908182 0.6800847
0.9890746 0.8473022 0.8463958
0.5396393 0.7127540 0.5409952
0.5397096 0.7127541 0.5410010
0.5411247 0.7127567 0.5411173
0.5527816 0.7127805 0.5421588
0.6056964 0.7129768 0.5492940
0.7142116 0.7142118 0.5852268
0.8469919 0.7412652 0.6894012
0.9893007 0.8535118 0.8471989
0.6928144 0.8548767 0.6929660
0.6928225 0.8548768 0.6929666
0.6929876 0.8548770 0.6929803
0.6944611 0.8548791 0.6931033
0.7043316 0.8548949 0.6939926
0.7507221 0.8550290 0.7001284
0.8570753 0.8570754 0.7369389
0.9909661 0.8904844 0.8535113
0.8593024 0.9981274 0.8593079
0.8593030 0.9981274 0.8593079
0.8593156 0.9981275 0.8593090
0.8594291 0.9981276 0.8593184
0.8602496 0.9981287 0.8593868
0.8659109 0.9981368 0.8598831
0.8996936 0.9982141 0.8639439
0.9999442 0.9999444 0.8981127
0.2701061 0.2701069 0.3795777
0.2713919 0.2700365 0.3794685
0.2998402 0.2756972 0.3856178
0.4170642 0.3067787 0.4170630
0.5664675 0.3501080 0.4408951
0.7052573 0.5144782 0.5298618
0.8441735 0.6769987 0.6786043
0.9890568 0.8461652 0.8462799
0.2684529 0.2698477 0.3792971
0.2700065 0.2700072 0.3794598
0.2998736 0.2765390 0.3866306
0.4173964 0.3070695 0.4173952
0.5665545 0.3500365 0.4407249
0.7052591 0.5145712 0.5298698
0.8441739 0.6770078 0.6786054
0.9890569 0.8461659 0.8462800
0.2721398 0.3030653 0.3990482
0.2727142 0.3026230 0.3997227
0.2977123 0.2977126 0.4118413
0.4239761 0.3128415 0.4239755
0.5683209 0.3484485 0.4369555
0.7052942 0.5164400 0.5300321
0.8441804 0.6771918 0.6786273
0.9890573 0.8461797 0.8462817
0.2945883 0.4288722 0.4288712
0.2945780 0.4288600 0.4288591
0.2943695 0.4286135 0.4286133
0.4285714 0.4285714 0.4285714
0.5714286 0.4285714 0.4285714
0.7056022 0.5314840 0.5314771
0.8442397 0.6788325 0.6788242
0.9890617 0.8463046 0.8462970
0.2723311 0.5713406 0.4331929
0.2719264 0.5713464 0.4328970
0.2857143 0.5714286 0.4285714
0.4285714 0.5714286 0.4285714
0.5719405 0.5719405 0.4441143
0.7074747 0.5946561 0.5410520
0.8446585 0.6897942 0.6802362
0.9890932 0.8472070 0.8464082
0.5254117 0.7130211 0.5402120
0.5254989 0.7130212 0.5402179
0.5272523 0.7130228 0.5403372
0.5414103 0.7130376 0.5414042
0.6012758 0.7131732 0.5486995
0.7142190 0.7142191 0.5852344
0.8471744 0.7408984 0.6895020
0.9893188 0.8534280 0.8472107
0.6913560 0.8549238 0.6928972
0.6913643 0.8549238 0.6928979
0.6915335 0.8549241 0.6929116
0.6930422 0.8549260 0.6930349
0.7031306 0.8549408 0.6939267
0.7502123 0.8550681 0.7000774
0.8570761 0.8570762 0.7369398
0.9909803 0.8904482 0.8535201
0.8591928 0.9981308 0.8593026
0.8591934 0.9981308 0.8593027
0.8592060 0.9981308 0.8593037
0.8593197 0.9981309 0.8593131
0.8601420 0.9981320 0.8593815
0.8658144 0.9981401 0.8598780
0.8996458 0.9982170 0.8639397
0.9999443 0.9999444 0.8981127
0.3879735 0.3879744 0.5127550
0.3881390 0.3879231 0.5126956
0.3920519 0.3875653 0.5122315
0.4311026 0.3965916 0.5212991
0.5564065 0.4340444 0.5564052
0.7084305 0.4841895 0.5831164
0.8461687 0.6662362 0.6798369
0.9891933 0.8454489 0.8463706
0.3875810 0.3877997 0.5125695
0.3877584 0.3877593 0.5125219
0.3918310 0.3875455 0.5122137
0.4311467 0.3967456 0.5214683
0.5564655 0.4341004 0.5564642
0.7084444 0.4841814 0.5830955
0.8461689 0.6662471 0.6798379
0.9891933 0.8454496 0.8463707
0.3830251 0.3879034 0.5127595
0.3833101 0.3879524 0.5128087
0.3890372 0.3890381 0.5139071
0.4321132 0.4000306 0.5250700
0.5576604 0.4352363 0.5576591
0.7087279 0.4840141 0.5826651
0.8461741 0.6664690 0.6798587
0.9891938 0.8454637 0.8463724
0.3961445 0.4401854 0.5402350
0.3962443 0.4401484 0.5403410
0.3983583 0.4393740 0.5425865
0.4337625 0.4337628 0.5616630
0.5678845 0.4449861 0.5678842
0.7112668 0.4822559 0.5782571
0.8462204 0.6684419 0.6800454
0.9891980 0.8455903 0.8463876
0.4216183 0.5708217 0.5708207
0.4216214 0.5708250 0.5708240
0.4216843 0.5708918 0.5708909
0.4285714 0.5714286 0.5714286
0.5714286 0.5714286 0.5714286
0.7142857 0.5714286 0.5714286
0.8465483 0.6813931 0.6813861
0.9892290 0.8465058 0.8464983
0.3973280 0.7140816 0.5762657
0.3972665 0.7140833 0.5762256
0.3959972 0.7141194 0.5754027
0.4285714 0.7142857 0.5714286
0.5714286 0.7142857 0.5714286
0.7142726 0.7142727 0.5852895
0.8485424 0.7380428 0.6902624
0.9894507 0.8528116 0.8472976
0.6793787 0.8552739 0.6923820
0.6793888 0.8552739 0.6923826
0.6795941 0.8552740 0.6923966
0.6814205 0.8552749 0.6925224
0.6934382 0.8552822 0.6934320
0.7462831 0.8553579 0.6996957
0.8570819 0.8570820 0.7369461
0.9910844 0.8901823 0.8535840
0.8583863 0.9981549 0.8592645
0.8583869 0.9981549 0.8592645
0.8583997 0.9981549 0.8592656
0.8585152 0.9981551 0.8592750
0.8593500 0.9981561 0.8593435
0.8651049 0.9981638 0.8598408
0.8992961 0.9982382 0.8639089
0.9999447 0.9999448 0.8981132
0.5165769 0.5165780 0.6468824
0.5165930 0.5165618 0.6468656
0.5169439 0.5162610 0.6465523
0.5214541 0.5151465 0.6453356
0.5632098 0.5256028 0.6551516
0.6954346 0.5709851 0.6954333
0.8507412 0.6304006 0.7256742
0.9902089 0.8397600 0.8470493
0.5164959 0.5165291 0.6468338
0.5165123 0.5165134 0.6468174
0.5168702 0.5162191 0.6465108
0.5214187 0.5151400 0.6453295
0.5632226 0.5256315 0.6551808
0.6954451 0.5709957 0.6954438
0.8507432 0.6303999 0.7256717
0.9902090 0.8397608 0.8470494
0.5150260 0.5157189 0.6460289
0.5150488 0.5157091 0.6460185
0.5155283 0.5155293 0.6458269
0.5207630 0.5150761 0.6452755
0.5634845 0.5262207 0.6557799
0.6956581 0.5712128 0.6956568
0.8507838 0.6303853 0.7256208
0.9902094 0.8397765 0.8470511
0.5091408 0.5162094 0.6466196
0.5091859 0.5162182 0.6466279
0.5101005 0.5163998 0.6468000
0.5181755 0.5181765 0.6484902
0.5660013 0.5318281 0.6614697
0.6975608 0.5731525 0.6975596
0.8511503 0.6302494 0.7251526
0.9902131 0.8399185 0.8470658
0.5296208 0.5774790 0.6785654
0.5296393 0.5774779 0.6785835
0.5300173 0.5774544 0.6789537
0.5335716 0.5772096 0.6824319
0.5749617 0.5749619 0.7047779
0.7103245 0.5862086 0.7103241
0.8537781 0.6290019 0.7212112
0.9902400 0.8409433 0.8471730
0.5606955 0.7123487 0.7123477
0.5606970 0.7123501 0.7123491
0.5607272 0.7123796 0.7123786
0.5609994 0.7126451 0.7126442
0.5714286 0.7142857 0.7142857
0.7142857 0.7142857 0.7142857
0.8571429 0.7142857 0.7142857
0.9904324 0.8479540 0.8479472
0.5284069 0.8569169 0.7185522
0.5283966 0.8569172 0.7185468
0.5281871 0.8569233 0.7184368
0.5262613 0.8569782 0.7174325
0.5714286 0.8571429 0.7142857
0.7142857 0.8571429 0.7142857
0.8571241 0.8571241 0.7369923
0.9918574 0.8881485 0.8540611
0.8520507 0.9983333 0.8589812
0.8520514 0.9983333 0.8589813
0.8520659 0.9983333 0.8589823
0.8521959 0.9983334 0.8589919
0.8531354 0.9983342 0.8590613
0.8595707 0.9983395 0.8595648
0.8966386 0.9983943 0.8636807
0.9999477 0.9999478 0.8981166
0.6476745 0.6476755 0.7746919
0.6476739 0.6476711 0.7746876
0.6476624 0.6475809 0.7746010
0.6476128 0.6468242 0.7738743
0.6493111 0.6435764 0.7707200
0.6852423 0.6515309 0.7776811
0.8334365 0.7160092 0.8334353
0.9954837 0.7924248 0.8715885
0.6476587 0.6476636 0.7746807
0.6476581 0.6476592 0.7746764
0.6476468 0.6475691 0.7745900
0.6475987 0.6468139 0.7738646
0.6493042 0.6435730 0.7707168
0.6852456 0.6515363 0.7776862
0.8334383 0.7160110 0.8334371
0.9954838 0.7924247 0.8715881
0.6473426 0.6474264 0.7744574
0.6473422 0.6474221 0.7744533
0.6473345 0.6473356 0.7743702
0.6473169 0.6466098 0.7736726
0.6491661 0.6435062 0.7706547
0.6853118 0.6516454 0.7777903
0.8334734 0.7160491 0.8334722
0.9954867 0.7924224 0.8715814
0.6448664 0.6456682 0.7728040
0.6448673 0.6456653 0.7728012
0.6448871 0.6456052 0.7727431
0.6451018 0.6451028 0.7722566
0.6480836 0.6430726 0.7702543
0.6859181 0.6526414 0.7787406
0.8337902 0.7163920 0.8337890
0.9955129 0.7924019 0.8715205
0.6377712 0.6441412 0.7714377
0.6377763 0.6441421 0.7714384
0.6378810 0.6441589 0.7714531
0.6388284 0.6443175 0.7715924
0.6457696 0.6457706 0.7728889
0.6906333 0.6603117 0.7860420
0.8360502 0.7188396 0.8360491
0.9957032 0.7922496 0.8710711
0.6641644 0.7069505 0.8075675
0.6641681 0.7069516 0.8075708
0.6642421 0.7069737 0.8076388
0.6649129 0.7071724 0.8082548
0.6699104 0.7085820 0.8128387
0.7152674 0.7152678 0.8377428
0.8504008 0.7344344 0.8504004
0.9970770 0.7910141 0.8674730
0.7119084 0.8542517 0.8542508
0.7119086 0.8542520 0.8542511
0.7119145 0.8542573 0.8542564
0.7119670 0.8543048 0.8543039
0.7123490 0.8546501 0.8546493
0.7150725 0.8571100 0.8571100
0.8571429 0.8571429 0.8571429
0.9996410 0.8590650 0.8590647
0.6492157 0.9999151 0.8597647
0.6492136 0.9999151 0.8597640
0.6491716 0.9999155 0.8597511
0.6487908 0.9999194 0.8596341
0.6459456 0.9999478 0.8587723
0.7142857 1.0000000 0.8571429
0.8614199 0.9998759 0.8614195
0.9999730 0.9999731 0.8981460
0.7316619 0.7316629 0.8527782
0.7316603 0.7316610 0.8527764
0.7316279 0.7316221 0.8527408
0.7313371 0.7312723 0.8524202
0.7292733 0.7287797 0.8501339
0.7168497 0.7132857 0.8358647
0.8034205 0.7792917 0.8955013
0.9803590 0.8797506 0.9803580
0.7316567 0.7316581 0.8527738
0.7316551 0.7316561 0.8527720
0.7316228 0.7316173 0.8527364
0.7313320 0.7312675 0.8524158
0.7292684 0.7287751 0.8501297
0.7168461 0.7132824 0.8358617
0.8034218 0.7792932 0.8955027
0.9803591 0.8797507 0.9803581
0.7315522 0.7315600 0.8526843
0.7315506 0.7315581 0.8526825
0.7315183 0.7315193 0.8526470
0.7312281 0.7311702 0.8523269
0.7291687 0.7286819 0.8500445
0.7167737 0.7132161 0.8358008
0.8034483 0.7793242 0.8955306
0.9803616 0.8797536 0.9803606
0.7306162 0.7306832 0.8518834
0.7306147 0.7306813 0.8518817
0.7305830 0.7306431 0.8518466
0.7302982 0.7302992 0.8515313
0.7282767 0.7278484 0.8492824
0.7161270 0.7126243 0.8352566
0.8036871 0.7796032 0.8957820
0.9803842 0.8797795 0.9803832
0.7242241 0.7247252 0.8464349
0.7242227 0.7247235 0.8464334
0.7241952 0.7246893 0.8464020
0.7239473 0.7243818 0.8461192
0.7221902 0.7221912 0.8441039
0.7143865 0.7112910 0.8340345
0.8053944 0.7816044 0.8975840
0.9805487 0.8799680 0.9805477
0.7298589 0.7336325 0.8546314
0.7298604 0.7336337 0.8546325
0.7298916 0.7336579 0.8546545
0.7301727 0.7338755 0.8548524
0.7321951 0.7354376 0.8562722
0.7457137 0.7457146 0.8655883
0.8163507 0.7947169 0.9093627
0.9817320 0.8813246 0.9817311
0.8172227 0.8473064 0.9446112
0.8172231 0.8473066 0.9446116
0.8172318 0.8473103 0.9446191
0.8173106 0.8473446 0.9446870
0.8178842 0.8475927 0.9451813
0.8220587 0.8493304 0.9487752
0.8593079 0.8593083 0.9667331
0.9908163 0.8917591 0.9908158
0.8761295 0.9976159 0.9976151
0.8761295 0.9976159 0.9976152
0.8761299 0.9976163 0.9976155
0.8761339 0.9976196 0.9976189
0.8761629 0.9976441 0.9976433
0.8763736 0.9978219 0.9978212
0.8781408 0.9993125 0.9993123
1.0000000 1.0000000 1.0000000
