LUTs/luminance_compensation_p3.cube
TITLE "Pre-formation 2012 Luminance Correction for P3 Target"
# Lower Side of Guard Rail Formation for P3 medium.
# The Guard Rail is designed to leaves valid value as-is, and only touch out of domain values Modified from python script shared by Sakari Kapanen
# This LUT assumes E Gamut encoded in ST2084 (100) curve and then power 0.5
# LUT resolution 50
LUT_3D_SIZE 50
0.0000000 0.0000000 0.0000000
0.0199063 0.0101318 0.0101318
0.0397340 0.0194393 0.0194393
0.0595724 0.0291192 0.0291192
0.0794278 0.0392195 0.0392195
0.0993013 0.0497399 0.0497399
0.1191925 0.0606706 0.0606706
0.1391005 0.0720005 0.0720005
0.1590248 0.0837186 0.0837186
0.1789643 0.0958153 0.0958153
0.1989185 0.1082815 0.1082815
0.2188866 0.1211093 0.1211093
0.2388680 0.1342916 0.1342916
0.2588619 0.1478219 0.1478219
0.2788679 0.1616944 0.1616944
0.2988855 0.1759038 0.1759038
0.3189139 0.1904454 0.1904454
0.3389529 0.2053145 0.2053145
0.3590018 0.2205072 0.2205072
0.3790601 0.2360198 0.2360198
0.3991275 0.2518485 0.2518485
0.4192033 0.2679903 0.2679903
0.4392871 0.2844419 0.2844419
0.4593784 0.3012004 0.3012004
0.4794767 0.3182632 0.3182632
0.4995813 0.3356274 0.3356274
0.5196918 0.3532905 0.3532905
0.5398074 0.3712500 0.3712500
0.5599276 0.3895035 0.3895035
0.5800514 0.4080485 0.4080485
0.6001782 0.4268826 0.4268826
0.6203070 0.4460033 0.4460033
0.6404368 0.4654080 0.4654080
0.6605663 0.4850941 0.4850941
0.6806942 0.5050588 0.5050588
0.7008190 0.5252990 0.5252990
0.7209387 0.5458115 0.5458115
0.7410512 0.5665924 0.5665924
0.7611539 0.5876375 0.5876375
0.7807439 0.6084088 0.6084088
0.7995298 0.6285703 0.6285703
0.8202258 0.6510560 0.6510560
0.8409452 0.6738540 0.6738540
0.8616875 0.6969638 0.6969638
0.8824523 0.7203850 0.7203850
0.9032394 0.7441172 0.7441172
0.9240483 0.7681600 0.7681600
0.9448787 0.7925131 0.7925131
0.9657304 0.8171762 0.8171762
0.9866028 0.8421490 0.8421490
0.0140690 0.0209588 0.0140690
0.0209396 0.0209396 0.0129324
0.0400849 0.0242774 0.0202193
0.0597173 0.0313437 0.0294318
0.0794984 0.0403666 0.0393746
0.0993399 0.0503920 0.0498269
0.1192152 0.0610686 0.0607235
0.1391148 0.0722560 0.0720344
0.1590340 0.0838891 0.0837413
0.1789705 0.0959324 0.0958308
0.1989228 0.1083637 0.1082924
0.2188896 0.1211681 0.1211171
0.2388701 0.1343343 0.1342973
0.2588635 0.1478533 0.1478261
0.2788691 0.1617177 0.1616975
0.2988863 0.1759212 0.1759062
0.3189145 0.1904585 0.1904471
0.3389533 0.2053244 0.2053158
0.3590021 0.2205148 0.2205083
0.3790604 0.2360255 0.2360205
0.3991277 0.2518529 0.2518491
0.4192034 0.2679937 0.2679907
0.4392872 0.2844445 0.2844422
0.4593785 0.3012024 0.3012007
0.4794767 0.3182647 0.3182634
0.4995814 0.3356286 0.3356275
0.5196918 0.3532914 0.3532906
0.5398075 0.3712507 0.3712501
0.5599276 0.3895041 0.3895036
0.5800515 0.4080489 0.4080486
0.6001782 0.4268829 0.4268827
0.6203070 0.4460035 0.4460033
0.6404368 0.4654082 0.4654081
0.6605663 0.4850943 0.4850942
0.6806942 0.5050589 0.5050588
0.7008190 0.5252991 0.5252991
0.7209387 0.5458115 0.5458115
0.7410512 0.5665924 0.5665924
0.7611539 0.5876376 0.5876375
0.7807439 0.6084088 0.6084088
0.7995298 0.6285703 0.6285703
0.8202258 0.6510560 0.6510560
0.8409452 0.6738540 0.6738540
0.8616875 0.6969638 0.6969638
0.8824523 0.7203850 0.7203850
0.9032394 0.7441172 0.7441172
0.9240483 0.7681600 0.7681600
0.9448787 0.7925131 0.7925131
0.9657304 0.8171762 0.8171762
0.9866028 0.8421490 0.8421490
0.0276838 0.0418633 0.0276838
0.0269444 0.0413939 0.0238337
0.0418557 0.0418557 0.0253293
0.0607281 0.0441092 0.0320298
0.0800851 0.0488168 0.0407761
0.0996858 0.0558423 0.0506401
0.1194266 0.0646122 0.0612247
0.1392489 0.0746082 0.0723581
0.1591219 0.0854867 0.0839580
0.1790298 0.0970408 0.0959801
0.1989636 0.1091472 0.1083975
0.2189182 0.1217306 0.1211924
0.2388905 0.1347436 0.1343520
0.2588782 0.1481543 0.1478664
0.2788798 0.1619412 0.1617274
0.2988942 0.1760885 0.1759286
0.3189204 0.1905845 0.1904640
0.3389577 0.2054199 0.2053287
0.3590054 0.2205874 0.2205180
0.3790628 0.2360809 0.2360280
0.3991295 0.2518954 0.2518548
0.4192048 0.2680262 0.2679951
0.4392883 0.2844695 0.2844456
0.4593793 0.3012217 0.3012033
0.4794774 0.3182795 0.3182654
0.4995819 0.3356400 0.3356291
0.5196922 0.3533002 0.3532918
0.5398077 0.3712575 0.3712510
0.5599278 0.3895093 0.3895043
0.5800516 0.4080529 0.4080491
0.6001784 0.4268860 0.4268831
0.6203071 0.4460059 0.4460036
0.6404368 0.4654100 0.4654083
0.6605663 0.4850956 0.4850944
0.6806942 0.5050600 0.5050590
0.7008190 0.5252999 0.5252992
0.7209387 0.5458121 0.5458116
0.7410512 0.5665928 0.5665924
0.7611539 0.5876379 0.5876376
0.7807439 0.6084091 0.6084088
0.7995298 0.6285704 0.6285703
0.8202258 0.6510561 0.6510560
0.8409452 0.6738541 0.6738540
0.8616875 0.6969639 0.6969638
0.8824523 0.7203850 0.7203850
0.9032394 0.7441172 0.7441172
0.9240483 0.7681600 0.7681600
0.9448787 0.7925131 0.7925131
0.9657304 0.8171762 0.8171762
0.9866028 0.8421490 0.8421490
0.0416364 0.0626809 0.0416364
0.0413786 0.0625175 0.0404416
0.0455418 0.0619515 0.0341491
0.0627031 0.0627031 0.0381024
0.0814225 0.0646096 0.0446414
0.1006043 0.0682560 0.0530840
0.1200439 0.0738706 0.0627999
0.1396621 0.0813227 0.0734000
0.1594011 0.0903067 0.0846648
0.1792211 0.1005019 0.0964705
0.1990968 0.1116468 0.1087443
0.2190123 0.1235502 0.1214416
0.2389577 0.1360793 0.1345335
0.2589268 0.1491429 0.1480000
0.2789153 0.1626782 0.1618268
0.2989203 0.1766415 0.1760031
0.3189398 0.1910018 0.1905202
0.3389722 0.2057363 0.2053713
0.3590162 0.2208283 0.2205505
0.3790710 0.2362650 0.2360528
0.3991357 0.2520364 0.2518739
0.4192095 0.2681345 0.2680097
0.4392919 0.2845527 0.2844569
0.4593820 0.3012858 0.3012120
0.4794794 0.3183289 0.3182721
0.4995834 0.3356780 0.3356343
0.5196934 0.3533295 0.3532958
0.5398087 0.3712800 0.3712541
0.5599285 0.3895266 0.3895067
0.5800522 0.4080662 0.4080510
0.6001788 0.4268962 0.4268845
0.6203074 0.4460136 0.4460047
0.6404371 0.4654159 0.4654091
0.6605665 0.4851001 0.4850950
0.6806944 0.5050634 0.5050595
0.7008191 0.5253025 0.5252995
0.7209388 0.5458140 0.5458118
0.7410513 0.5665943 0.5665926
0.7611540 0.5876390 0.5876377
0.7807440 0.6084098 0.6084089
0.7995298 0.6285710 0.6285704
0.8202258 0.6510565 0.6510560
0.8409452 0.6738544 0.6738540
0.8616875 0.6969641 0.6969638
0.8824523 0.7203852 0.7203850
0.9032394 0.7441173 0.7441172
0.9240483 0.7681601 0.7681600
0.9448787 0.7925131 0.7925131
0.9657304 0.8171762 0.8171762
0.9866028 0.8421490 0.8421490
0.0559372 0.0834284 0.0559372
0.0558167 0.0833550 0.0553836
0.0545732 0.0826511 0.0486308
0.0660264 0.0826699 0.0468988
0.0834932 0.0834932 0.0512684
0.1021058 0.0852301 0.0577843
0.1211629 0.0883181 0.0660598
0.1404790 0.0930469 0.0756566
0.1599868 0.0994852 0.0862390
0.1796381 0.1075202 0.0975814
0.1993940 0.1169426 0.1095384
0.2192254 0.1275230 0.1220162
0.2391117 0.1390561 0.1349538
0.2590389 0.1513770 0.1483105
0.2789975 0.1643600 0.1620581
0.2989811 0.1779121 0.1761766
0.3189849 0.1919652 0.1906512
0.3390059 0.2064693 0.2054707
0.3590416 0.2213878 0.2206262
0.3790901 0.2366931 0.2361107
0.3991501 0.2523648 0.2519183
0.4192205 0.2683868 0.2680439
0.4393002 0.2847469 0.2844832
0.4593884 0.3014353 0.3012323
0.4794843 0.3184440 0.3182877
0.4995871 0.3357667 0.3356463
0.5196962 0.3533978 0.3533051
0.5398108 0.3713326 0.3712613
0.5599301 0.3895670 0.3895122
0.5800534 0.4080972 0.4080552
0.6001797 0.4269199 0.4268877
0.6203082 0.4460318 0.4460072
0.6404376 0.4654298 0.4654110
0.6605669 0.4851107 0.4850964
0.6806947 0.5050713 0.5050606
0.7008193 0.5253085 0.5253004
0.7209390 0.5458186 0.5458125
0.7410514 0.5665977 0.5665931
0.7611541 0.5876415 0.5876381
0.7807440 0.6084117 0.6084092
0.7995299 0.6285724 0.6285706
0.8202259 0.6510575 0.6510562
0.8409452 0.6738551 0.6738541
0.8616875 0.6969646 0.6969639
0.8824524 0.7203856 0.7203851
0.9032394 0.7441176 0.7441172
0.9240483 0.7681603 0.7681600
0.9448788 0.7925133 0.7925131
0.9657304 0.8171763 0.8171762
0.9866028 0.8421491 0.8421490
0.0705684 0.1041171 0.0705684
0.0705037 0.1040794 0.0702690
0.0698609 0.1037162 0.0670980
0.0712819 0.1029611 0.0573356
0.0866425 0.1033687 0.0601437
0.1042346 0.1042346 0.0648112
0.1227653 0.1058695 0.0713617
0.1417251 0.1086197 0.0795553
0.1609442 0.1127677 0.0890753
0.1803589 0.1184641 0.0996410
0.1999290 0.1257153 0.1110387
0.2196197 0.1344169 0.1231155
0.2394019 0.1444032 0.1357648
0.2592529 0.1554921 0.1489130
0.2791559 0.1675142 0.1625087
0.2990987 0.1803261 0.1765156
0.3190728 0.1938127 0.1909076
0.3390717 0.2078845 0.2056655
0.3590911 0.2224731 0.2207749
0.3791275 0.2375267 0.2362245
0.3991785 0.2530058 0.2520056
0.4192420 0.2688803 0.2681110
0.4393166 0.2851271 0.2845349
0.4594008 0.3017284 0.3012722
0.4794938 0.3186700 0.3183185
0.4995944 0.3359409 0.3356701
0.5197018 0.3535320 0.3533234
0.5398150 0.3714360 0.3712754
0.5599334 0.3896465 0.3895231
0.5800559 0.4081583 0.4080636
0.6001816 0.4269667 0.4268942
0.6203096 0.4460676 0.4460121
0.6404387 0.4654570 0.4654148
0.6605678 0.4851314 0.4850993
0.6806953 0.5050870 0.5050627
0.7008198 0.5253203 0.5253020
0.7209393 0.5458274 0.5458137
0.7410517 0.5666043 0.5665940
0.7611543 0.5876464 0.5876388
0.7807441 0.6084153 0.6084096
0.7995300 0.6285751 0.6285710
0.8202260 0.6510595 0.6510565
0.8409453 0.6738565 0.6738543
0.8616876 0.6969656 0.6969641
0.8824524 0.7203863 0.7203852
0.9032394 0.7441181 0.7441173
0.9240483 0.7681606 0.7681601
0.9448788 0.7925135 0.7925131
0.9657304 0.8171765 0.8171762
0.9866028 0.8421492 0.8421490
0.0855106 0.1247552 0.0855106
0.0854727 0.1247340 0.0853336
0.0851019 0.1245302 0.0835476
0.0837874 0.1238558 0.0761986
0.0913206 0.1235707 0.0705812
0.1072822 0.1240404 0.0738073
0.1249334 0.1249334 0.0787113
0.1433977 0.1264992 0.0853242
0.1622778 0.1290241 0.0934890
0.1814173 0.1327697 0.1029691
0.2007541 0.1379177 0.1135306
0.2202522 0.1445434 0.1249774
0.2398811 0.1526203 0.1371574
0.2596137 0.1620465 0.1499576
0.2794268 0.1726786 0.1632952
0.2993022 0.1843616 0.1771101
0.3192258 0.1969494 0.1913588
0.3391870 0.2103149 0.2060092
0.3591782 0.2243530 0.2210375
0.3791934 0.2389796 0.2364257
0.3992285 0.2541282 0.2521602
0.4192800 0.2697474 0.2682300
0.4393455 0.2857969 0.2846266
0.4594229 0.3022457 0.3013429
0.4795106 0.3190695 0.3183730
0.4996072 0.3362492 0.3357122
0.5197116 0.3537698 0.3533559
0.5398225 0.3716191 0.3713005
0.5599391 0.3897873 0.3895424
0.5800602 0.4082664 0.4080784
0.6001849 0.4270496 0.4269056
0.6203121 0.4461309 0.4460209
0.6404406 0.4655054 0.4654215
0.6605692 0.4851681 0.4851044
0.6806964 0.5051149 0.5050666
0.7008206 0.5253413 0.5253049
0.7209399 0.5458432 0.5458159
0.7410522 0.5666161 0.5665957
0.7611546 0.5876552 0.5876400
0.7807442 0.6084216 0.6084104
0.7995303 0.6285799 0.6285717
0.8202261 0.6510630 0.6510570
0.8409454 0.6738591 0.6738547
0.8616876 0.6969674 0.6969643
0.8824525 0.7203876 0.7203854
0.9032395 0.7441190 0.7441174
0.9240484 0.7681612 0.7681602
0.9448788 0.7925139 0.7925132
0.9657304 0.8171768 0.8171763
0.9866029 0.8421494 0.8421490
0.1007457 0.1453484 0.1007457
0.1007221 0.1453358 0.1006348
0.1004939 0.1452147 0.0995392
0.0997080 0.1448129 0.0954787
0.0977680 0.1438928 0.0820786
0.1116099 0.1441676 0.0842917
0.1279145 0.1446836 0.0878470
0.1455944 0.1455944 0.0929506
0.1640030 0.1471094 0.0996404
0.1828154 0.1494735 0.1078106
0.2018877 0.1529266 0.1172799
0.2211582 0.1576601 0.1278522
0.2405930 0.1637880 0.1393498
0.2601654 0.1713384 0.1516257
0.2798502 0.1802631 0.1645641
0.2996253 0.1904596 0.1780766
0.3194715 0.2017966 0.1920962
0.3393738 0.2141362 0.2065731
0.3593201 0.2273479 0.2214696
0.3793014 0.2413173 0.2367576
0.3993107 0.2559479 0.2524155
0.4193427 0.2711611 0.2684267
0.4393933 0.2868936 0.2847782
0.4594594 0.3030955 0.3014599
0.4795385 0.3197272 0.3184634
0.4996285 0.3367577 0.3357820
0.5197279 0.3541625 0.3534098
0.5398350 0.3719219 0.3713420
0.5599486 0.3900205 0.3895744
0.5800675 0.4084456 0.4081030
0.6001904 0.4271870 0.4269245
0.6203163 0.4462360 0.4460354
0.6404438 0.4655855 0.4654325
0.6605716 0.4852290 0.4851128
0.6806982 0.5051610 0.5050730
0.7008220 0.5253761 0.5253098
0.7209410 0.5458694 0.5458196
0.7410529 0.5666357 0.5665984
0.7611552 0.5876697 0.5876421
0.7807445 0.6084322 0.6084117
0.7995306 0.6285879 0.6285729
0.8202264 0.6510688 0.6510579
0.8409456 0.6738633 0.6738554
0.8616878 0.6969705 0.6969648
0.8824526 0.7203897 0.7203857
0.9032396 0.7441205 0.7441177
0.9240484 0.7681623 0.7681603
0.9448788 0.7925147 0.7925133
0.9657304 0.8171772 0.8171763
0.9866029 0.8421497 0.8421491
0.1162579 0.1659013 0.1162579
0.1162427 0.1658935 0.1161855
0.1160958 0.1658185 0.1154775
0.1155971 0.1655693 0.1129730
0.1143671 0.1649906 0.1059790
0.1174738 0.1644325 0.0958639
0.1320097 0.1647474 0.0984087
0.1485287 0.1652986 0.1022345
0.1662212 0.1662212 0.1075130
0.1845817 0.1676967 0.1142874
0.2033355 0.1699403 0.1224861
0.2223497 0.1731723 0.1319673
0.2415627 0.1775848 0.1425648
0.2609421 0.1833138 0.1541183
0.2804632 0.1904245 0.1664878
0.3001034 0.1989110 0.1795576
0.3198415 0.2087087 0.1932354
0.3396585 0.2197131 0.2074494
0.3595385 0.2318003 0.2221442
0.3794686 0.2448433 0.2372773
0.3994386 0.2587234 0.2528162
0.4194406 0.2733358 0.2687359
0.4394682 0.2885917 0.2850171
0.4595167 0.3044178 0.3016445
0.4795823 0.3207546 0.3186060
0.4996621 0.3375544 0.3358921
0.5197535 0.3547790 0.3534948
0.5398546 0.3723981 0.3714076
0.5599636 0.3903876 0.3896249
0.5800789 0.4087280 0.4081419
0.6001992 0.4274036 0.4269543
0.6203229 0.4464018 0.4460583
0.6404488 0.4657120 0.4654500
0.6605754 0.4853253 0.4851262
0.6807011 0.5052339 0.5050831
0.7008242 0.5254312 0.5253174
0.7209426 0.5459107 0.5458253
0.7410541 0.5666666 0.5666028
0.7611561 0.5876927 0.5876453
0.7807449 0.6084489 0.6084139
0.7995313 0.6286006 0.6285748
0.8202269 0.6510781 0.6510593
0.8409459 0.6738699 0.6738564
0.8616880 0.6969752 0.6969655
0.8824527 0.7203931 0.7203862
0.9032397 0.7441229 0.7441180
0.9240485 0.7681640 0.7681606
0.9448789 0.7925158 0.7925135
0.9657304 0.8171780 0.8171764
0.9866029 0.8421502 0.8421492
0.1320336 0.1864176 0.1320336
0.1320235 0.1864126 0.1319848
0.1319258 0.1863647 0.1315107
0.1315968 0.1862054 0.1298731
0.1308027 0.1858346 0.1256332
0.1291228 0.1851128 0.1148758
0.1374660 0.1849607 0.1100683
0.1524597 0.1853082 0.1128933
0.1691210 0.1858865 0.1169487
0.1868168 0.1868168 0.1223843
0.2051349 0.1882603 0.1292476
0.2238373 0.1904099 0.1374908
0.2428002 0.1934696 0.1470011
0.2619628 0.1976282 0.1576368
0.2812931 0.2030340 0.1692530
0.3007681 0.2097777 0.1817171
0.3203670 0.2178862 0.1949149
0.3400699 0.2273275 0.2087522
0.3598584 0.2380233 0.2231534
0.3797161 0.2498668 0.2380585
0.3996294 0.2627388 0.2534208
0.4195873 0.2765204 0.2692038
0.4395809 0.2911021 0.2853791
0.4596032 0.3063870 0.3019246
0.4796487 0.3222932 0.3188227
0.4997130 0.3387526 0.3360597
0.5197925 0.3557094 0.3536243
0.5398844 0.3731186 0.3715076
0.5599864 0.3909441 0.3897020
0.5800963 0.4091566 0.4082012
0.6002124 0.4277329 0.4269999
0.6203330 0.4466541 0.4460932
0.6404565 0.4659046 0.4654767
0.6605812 0.4854718 0.4851465
0.6807055 0.5053450 0.5050986
0.7008275 0.5255150 0.5253291
0.7209451 0.5459737 0.5458341
0.7410560 0.5667137 0.5666094
0.7611575 0.5877278 0.5876502
0.7807455 0.6084744 0.6084171
0.7995322 0.6286198 0.6285777
0.8202276 0.6510921 0.6510614
0.8409464 0.6738801 0.6738579
0.8616884 0.6969825 0.6969666
0.8824530 0.7203983 0.7203870
0.9032398 0.7441265 0.7441186
0.9240486 0.7681665 0.7681610
0.9448789 0.7925175 0.7925138
0.9657305 0.8171792 0.8171766
0.9866029 0.8421510 0.8421493
0.1480606 0.2069002 0.1480606
0.1480537 0.2068969 0.1480270
0.1479872 0.2068656 0.1477010
0.1477641 0.2067613 0.1465901
0.1472319 0.2065184 0.1438240
0.1461373 0.2060436 0.1375315
0.1444194 0.2052480 0.1225768
0.1576193 0.2054751 0.1246518
0.1729306 0.2058492 0.1277179
0.1896901 0.2064485 0.1319729
0.2073836 0.2073836 0.1375522
0.2256638 0.2088003 0.1445065
0.2443205 0.2108744 0.1528054
0.2632375 0.2137965 0.1623586
0.2823554 0.2177505 0.1730438
0.3016419 0.2228915 0.1847297
0.3210754 0.2293281 0.1972910
0.3406364 0.2371124 0.2106161
0.3603064 0.2462396 0.2246097
0.3800674 0.2566560 0.2391933
0.3999031 0.2682725 0.2543035
0.4197996 0.2809800 0.2698895
0.4397451 0.2946627 0.2859113
0.4597298 0.3092087 0.3023373
0.4797461 0.3245156 0.3191425
0.4997878 0.3404940 0.3363073
0.5198499 0.3570681 0.3538158
0.5399284 0.3741747 0.3716555
0.5600201 0.3917621 0.3898161
0.5801220 0.4097882 0.4082891
0.6002321 0.4282189 0.4270674
0.6203480 0.4470268 0.4461449
0.6404679 0.4661894 0.4655163
0.6605898 0.4856887 0.4851766
0.6807120 0.5055095 0.5051215
0.7008324 0.5256393 0.5253465
0.7209487 0.5460671 0.5458472
0.7410587 0.5667836 0.5666192
0.7611595 0.5877797 0.5876575
0.7807463 0.6085121 0.6084218
0.7995336 0.6286484 0.6285821
0.8202286 0.6511129 0.6510646
0.8409471 0.6738951 0.6738602
0.8616889 0.6969933 0.6969682
0.8824533 0.7204060 0.7203881
0.9032401 0.7441319 0.7441194
0.9240488 0.7681702 0.7681615
0.9448791 0.7925201 0.7925141
0.9657306 0.8171809 0.8171769
0.9866030 0.8421521 0.8421494
0.1643285 0.2273514 0.1643285
0.1643237 0.2273493 0.1643048
0.1642775 0.2273284 0.1640760
0.1641230 0.2272589 0.1633028
0.1637571 0.2270969 0.1614199
0.1630163 0.2267797 0.1573658
0.1616247 0.2262221 0.1486583
0.1641650 0.2257255 0.1372852
0.1778667 0.2259746 0.1395848
0.1934069 0.2263704 0.1428614
0.2102362 0.2269860 0.1472933
0.2279236 0.2279236 0.1530055
0.2461696 0.2293172 0.1600518
0.2647850 0.2313293 0.1684149
0.2836609 0.2341392 0.1780217
0.3027385 0.2379257 0.1887661
0.3219858 0.2428477 0.2005287
0.3413816 0.2490263 0.2131909
0.3609080 0.2565333 0.2266440
0.3805473 0.2653865 0.2407926
0.4002823 0.2755542 0.2555560
0.4200970 0.2869647 0.2708677
0.4399769 0.2995202 0.2866737
0.4599097 0.3131098 0.3029303
0.4798853 0.3276213 0.3196032
0.4998952 0.3429485 0.3366645
0.5199326 0.3589960 0.3540925
0.5399919 0.3756811 0.3718695
0.5600687 0.3929337 0.3899813
0.5801593 0.4106955 0.4084163
0.6002605 0.4289188 0.4271652
0.6203696 0.4475645 0.4462199
0.6404843 0.4666010 0.4655737
0.6606023 0.4860025 0.4852204
0.6807214 0.5057477 0.5051547
0.7008395 0.5258193 0.5253716
0.7209541 0.5462025 0.5458662
0.7410627 0.5668849 0.5666334
0.7611625 0.5878551 0.5876681
0.7807476 0.6085669 0.6084287
0.7995357 0.6286898 0.6285883
0.8202300 0.6511431 0.6510691
0.8409482 0.6739170 0.6738635
0.8616896 0.6970090 0.6969706
0.8824538 0.7204171 0.7203898
0.9032404 0.7441397 0.7441206
0.9240490 0.7681757 0.7681623
0.9448792 0.7925238 0.7925147
0.9657307 0.8171835 0.8171773
0.9866031 0.8421538 0.8421497
0.1808276 0.2477734 0.1808276
0.1808243 0.2477719 0.1808107
0.1807917 0.2477578 0.1806476
0.1806830 0.2477109 0.1800990
0.1804266 0.2476014 0.1787811
0.1799125 0.2473867 0.1760312
0.1789654 0.2470082 0.1705366
0.1772843 0.2463888 0.1589742
0.1840956 0.2461909 0.1523456
0.1981702 0.2464585 0.1548445
0.2138802 0.2468719 0.1583074
0.2307596 0.2475001 0.1628981
0.2484386 0.2484386 0.1687345
0.2666532 0.2498119 0.1758730
0.2852312 0.2517719 0.1843063
0.3040696 0.2544887 0.1939755
0.3231108 0.2581365 0.2047876
0.3423226 0.2628757 0.2166334
0.3616844 0.2688369 0.2294008
0.3811791 0.2761070 0.2429839
0.4007900 0.2847231 0.2572876
0.4205006 0.2946727 0.2722297
0.4402951 0.3059004 0.2877409
0.4601589 0.3183199 0.3037642
0.4800794 0.3318267 0.3202530
0.5000457 0.3463096 0.3371698
0.5200489 0.3616600 0.3544846
0.5400815 0.3777775 0.3721731
0.5601376 0.3945733 0.3902160
0.5802121 0.4119708 0.4085973
0.6003008 0.4299059 0.4273045
0.6204004 0.4483250 0.4463268
0.6405077 0.4671843 0.4656554
0.6606201 0.4864478 0.4852827
0.6807348 0.5060861 0.5052021
0.7008496 0.5260753 0.5254075
0.7209617 0.5463952 0.5458932
0.7410684 0.5670291 0.5666537
0.7611667 0.5879625 0.5876833
0.7807494 0.6086450 0.6084385
0.7995386 0.6287489 0.6285973
0.8202321 0.6511862 0.6510756
0.8409497 0.6739482 0.6738682
0.8616907 0.6970313 0.6969740
0.8824546 0.7204330 0.7203922
0.9032410 0.7441509 0.7441223
0.9240494 0.7681834 0.7681635
0.9448795 0.7925292 0.7925155
0.9657308 0.8171871 0.8171778
0.9866032 0.8421562 0.8421501
0.1975496 0.2681677 0.1975496
0.1975472 0.2681667 0.1975374
0.1975240 0.2681571 0.1974196
0.1974465 0.2681250 0.1970246
0.1972643 0.2680503 0.1960839
0.1969010 0.2679035 0.1941582
0.1962399 0.2676443 0.1904638
0.1950929 0.2672183 0.1833706
0.1931319 0.2665570 0.1684046
0.2041488 0.2666435 0.1677360
0.2185070 0.2669266 0.1704127
0.2343455 0.2673542 0.1740420
0.2512612 0.2679921 0.1787770
0.2689299 0.2689299 0.1847305
0.2871156 0.2702850 0.1919608
0.3056595 0.2722006 0.2004691
0.3244637 0.2748392 0.2102078
0.3434716 0.2783707 0.2210949
0.3626512 0.2829564 0.2330301
0.3819820 0.2887338 0.2459072
0.4014477 0.2958021 0.2596231
0.4210323 0.3042145 0.2740831
0.4407202 0.3139751 0.2892037
0.4604955 0.3250440 0.3049136
0.4803439 0.3373461 0.3211528
0.5002523 0.3507835 0.3378720
0.5202094 0.3652473 0.3550310
0.5402058 0.3806271 0.3725971
0.5602334 0.3968187 0.3905442
0.5802857 0.4137279 0.4088507
0.6003572 0.4312722 0.4274996
0.6204435 0.4493814 0.4464766
0.6405405 0.4679968 0.4657701
0.6606450 0.4870694 0.4853702
0.6807537 0.5065594 0.5052686
0.7008638 0.5264337 0.5254579
0.7209723 0.5466653 0.5459312
0.7410764 0.5672315 0.5666822
0.7611727 0.5881132 0.5877046
0.7807520 0.6087546 0.6084524
0.7995427 0.6288318 0.6286098
0.8202351 0.6512467 0.6510848
0.8409518 0.6739920 0.6738748
0.8616922 0.6970627 0.6969787
0.8824556 0.7204553 0.7203956
0.9032417 0.7441666 0.7441246
0.9240499 0.7681943 0.7681652
0.9448798 0.7925367 0.7925166
0.9657311 0.8171921 0.8171786
0.9866033 0.8421596 0.8421506
0.2144868 0.2885358 0.2144868
0.2144850 0.2885351 0.2144778
0.2144683 0.2885285 0.2143918
0.2144125 0.2885065 0.2141041
0.2142815 0.2884550 0.2134227
0.2140215 0.2883540 0.2120450
0.2135517 0.2881752 0.2094666
0.2127483 0.2878807 0.2047589
0.2114102 0.2874209 0.1958976
0.2114536 0.2868857 0.1813822
0.2242848 0.2870829 0.1834382
0.2388628 0.2873788 0.1862746
0.2548000 0.2878178 0.1900540
0.2717416 0.2884628 0.1949212
0.2893989 0.2893989 0.2009854
0.3075576 0.2907374 0.2083070
0.3260701 0.2926146 0.2168939
0.3448429 0.2951867 0.2267079
0.3638204 0.2986198 0.2376765
0.3829705 0.3030759 0.2497071
0.4022730 0.3086977 0.2626985
0.4217120 0.3155946 0.2765504
0.4412725 0.3238332 0.2911687
0.4609391 0.3334327 0.3064688
0.4806966 0.3443668 0.3223773
0.5005303 0.3565712 0.3388320
0.5204270 0.3699548 0.3557807
0.5403751 0.3844114 0.3731806
0.5603645 0.3998298 0.3909968
0.5803868 0.4161025 0.4092008
0.6004349 0.4331302 0.4277695
0.6205029 0.4508251 0.4466841
0.6405859 0.4691114 0.4659290
0.6606794 0.4879249 0.4854916
0.6807798 0.5072121 0.5053609
0.7008835 0.5269290 0.5255278
0.7209871 0.5470389 0.5459839
0.7410875 0.5675117 0.5667217
0.7611809 0.5883222 0.5877341
0.7807556 0.6089066 0.6084716
0.7995483 0.6289470 0.6286273
0.8202392 0.6513307 0.6510975
0.8409547 0.6740527 0.6738840
0.8616942 0.6971064 0.6969853
0.8824571 0.7204863 0.7204003
0.9032427 0.7441884 0.7441279
0.9240506 0.7682095 0.7681675
0.9448803 0.7925471 0.7925182
0.9657314 0.8171992 0.8171796
0.9866035 0.8421643 0.8421513
0.2316321 0.3088790 0.2316321
0.2316308 0.3088785 0.2316255
0.2316186 0.3088739 0.2315622
0.2315781 0.3088587 0.2313506
0.2314832 0.3088231 0.2308515
0.2312951 0.3087531 0.2298506
0.2309571 0.3086293 0.2280070
0.2303843 0.3084249 0.2247419
0.2294456 0.3081047 0.2189571
0.2279268 0.3076240 0.2081444
0.2313367 0.3073009 0.1972371
0.2444776 0.3075087 0.1994372
0.2592282 0.3078151 0.2024178
0.2752419 0.3082633 0.2063333
0.2922016 0.3089132 0.2113225
0.3098467 0.3098467 0.2174920
0.3279801 0.3111698 0.2249041
0.3464636 0.3130132 0.2335724
0.3652073 0.3155282 0.2434668
0.3841567 0.3188778 0.2545227
0.4032798 0.3232240 0.2666541
0.4225563 0.3287140 0.2797646
0.4419709 0.3354660 0.2937561
0.4615091 0.3435580 0.3085352
0.4811560 0.3530222 0.3240164
0.5008967 0.3638450 0.3401246
0.5207165 0.3759721 0.3567949
0.5406021 0.3893191 0.3739730
0.5605413 0.4037825 0.3916133
0.5805238 0.4192509 0.4096787
0.6005405 0.4356138 0.4281387
0.6205840 0.4527673 0.4469682
0.6406478 0.4706185 0.4661469
0.6607266 0.4890862 0.4856581
0.6808155 0.5081011 0.5054876
0.7009105 0.5276051 0.5256238
0.7210074 0.5475500 0.5460563
