LUTs/luminance_compensation_srgb.cube
TITLE "Pre-formation 2012 Luminance Correction for BT.709 Target"
# Lower Side of Guard Rail Formation for sRGB medium.
# The Guard Rail is designed to leaves valid value as-is, and only touch out of domain values Modified from python script shared by Sakari Kapanen
# This LUT assumes E Gamut encoded in ST2084 (100) curve and then power 0.5
# LUT resolution 50
LUT_3D_SIZE 8
0.0000000 0.0000000 0.0000000
0.1373015 0.0810870 0.0810843
0.2754222 0.1785528 0.1785478
0.4142693 0.2905274 0.2905206
0.5535625 0.4152280 0.4152200
0.6928868 0.5512855 0.5512770
0.8303949 0.6959686 0.6959601
0.9778236 0.8619801 0.8619726
0.1187749 0.1492834 0.1187716
0.1473812 0.1473813 0.1045144
0.2779237 0.1870612 0.1746202
0.4148495 0.2907013 0.2889250
0.5536614 0.4152711 0.4149931
0.6929036 0.5512954 0.5512476
0.8303976 0.6959707 0.6959577
0.9778238 0.8619803 0.8619724
0.2446171 0.2937796 0.2446117
0.2432270 0.2927590 0.2393613
0.2918516 0.2918518 0.2211945
0.4194001 0.3224688 0.2916016
0.5556736 0.4161212 0.4099103
0.6932462 0.5514958 0.5506416
0.8304544 0.6960153 0.6959083
0.9778278 0.8619837 0.8619687
0.3756556 0.4354228 0.3756489
0.3755096 0.4353302 0.3750410
0.3723669 0.4334424 0.3600666
0.4345763 0.4345766 0.3473514
0.5605237 0.4622811 0.4204354
0.6963147 0.5532388 0.5443099
0.8309653 0.6964148 0.6954495
0.9778643 0.8620143 0.8619347
0.5104717 0.5746918 0.5104643
0.5104571 0.5746855 0.5103829
0.5101556 0.5745571 0.5086844
0.5071599 0.5734260 0.4884119
0.5759240 0.5759243 0.4811760
0.7008469 0.6029553 0.5583114
0.8345963 0.6991981 0.6913737
0.9781300 0.8622365 0.8616826
0.6451713 0.7088715 0.6451638
0.6451715 0.7088728 0.6451548
0.6451754 0.7088998 0.6449712
0.6452068 0.7091450 0.6432445
0.6451979 0.7110055 0.6254274
0.7141081 0.7141084 0.6195251
0.8400803 0.7438312 0.7039383
0.9800364 0.8638119 0.8595979
0.7914471 0.8500774 0.7914401
0.7914472 0.8500776 0.7914391
0.7914489 0.8500817 0.7914199
0.7914641 0.8501189 0.7912459
0.7915715 0.8503902 0.7899263
0.7921363 0.8523646 0.7766713
0.8569826 0.8569828 0.7696494
0.9848216 0.8932643 0.8649381
0.9450391 0.9941681 0.9450332
0.9450391 0.9941681 0.9450331
0.9450393 0.9941684 0.9450317
0.9450404 0.9941711 0.9450192
0.9450485 0.9941902 0.9449273
0.9451062 0.9943300 0.9442402
0.9455058 0.9955196 0.9369173
0.9998679 0.9998681 0.9264242
0.0764925 0.0764928 0.1225587
0.1369903 0.0973499 0.1369893
0.2751686 0.1805411 0.1909939
0.4142261 0.2908073 0.2924932
0.5535544 0.4152700 0.4155304
0.6928853 0.5512912 0.5513218
0.8303946 0.6959691 0.6959653
0.9778235 0.8619802 0.8619730
0.1254762 0.1515318 0.1515296
0.1428571 0.1428571 0.1428571
0.2790055 0.1812761 0.1812726
0.4148043 0.2909836 0.2909769
0.5536533 0.4153132 0.4153052
0.6929021 0.5513011 0.5512926
0.8303974 0.6959713 0.6959629
0.9778237 0.8619803 0.8619728
0.2451862 0.2939213 0.2485598
0.2438251 0.2929000 0.2438201
0.2908164 0.2908166 0.2203161
0.4196399 0.3214407 0.2914646
0.5556648 0.4161642 0.4102613
0.6932447 0.5515016 0.5506873
0.8304542 0.6960158 0.6959135
0.9778278 0.8619837 0.8619691
0.3757269 0.4354370 0.3761754
0.3755812 0.4353443 0.3755745
0.3724475 0.4334560 0.3607951
0.4344716 0.4344718 0.3472553
0.5605625 0.4621604 0.4204232
0.6963131 0.5532448 0.5443632
0.8309651 0.6964153 0.6954548
0.9778643 0.8620143 0.8619351
0.5104815 0.5746931 0.5105406
0.5104668 0.5746868 0.5104594
0.5101655 0.5745584 0.5087638
0.5071714 0.5734272 0.4885325
0.5759136 0.5759139 0.4811658
0.7008541 0.6029408 0.5583117
0.8345960 0.6991987 0.6913798
0.9781300 0.8622366 0.8616830
0.6451724 0.7088714 0.6451741
0.6451726 0.7088727 0.6451651
0.6451765 0.7088997 0.6449815
0.6452079 0.7091450 0.6432554
0.6451992 0.7110054 0.6254443
0.7141082 0.7141085 0.6195251
0.8400815 0.7438297 0.7039388
0.9800364 0.8638120 0.8595984
0.7914472 0.8500774 0.7914412
0.7914473 0.8500776 0.7914403
0.7914490 0.8500817 0.7914211
0.7914642 0.8501189 0.7912470
0.7915717 0.8503902 0.7899275
0.7921365 0.8523646 0.7766731
0.8569826 0.8569828 0.7696494
0.9848217 0.8932642 0.8649382
0.9450391 0.9941681 0.9450333
0.9450392 0.9941681 0.9450332
0.9450393 0.9941684 0.9450318
0.9450404 0.9941711 0.9450192
0.9450485 0.9941902 0.9449273
0.9451062 0.9943300 0.9442403
0.9455058 0.9955196 0.9369174
0.9998679 0.9998681 0.9264242
0.1685470 0.1685476 0.2496713
0.1789095 0.1709122 0.2512409
0.2738080 0.2072424 0.2738064
0.4134254 0.2961387 0.3226892
0.5533921 0.4161165 0.4215456
0.6928550 0.5514072 0.5522290
0.8303895 0.6959808 0.6960707
0.9778232 0.8619810 0.8619810
0.1784261 0.1858920 0.2562315
0.1756958 0.1756962 0.2589079
0.2758755 0.2089858 0.2758741
0.4139673 0.2963555 0.3220954
0.5534903 0.4161606 0.4213518
0.6928718 0.5514171 0.5522004
0.8303923 0.6959830 0.6960683
0.9778234 0.8619812 0.8619808
0.2553188 0.2968234 0.2968202
0.2543797 0.2958013 0.2957982
0.2857143 0.2857143 0.2857143
0.4251258 0.2998190 0.2998171
0.5554866 0.4170320 0.4170247
0.6932142 0.5516180 0.5516095
0.8304490 0.6960275 0.6960191
0.9778274 0.8619846 0.8619771
0.3771532 0.4357259 0.3860392
0.3770149 0.4356328 0.3855573
0.3740551 0.4337339 0.3740495
0.4322993 0.4322995 0.3452643
0.5613924 0.4596063 0.4201870
0.6962801 0.5533650 0.5454387
0.8309599 0.6964271 0.6955624
0.9778640 0.8620152 0.8619431
0.5106789 0.5747197 0.5120752
0.5106644 0.5747134 0.5119967
0.5103661 0.5745847 0.5103588
0.5074053 0.5734504 0.4909422
0.5757018 0.5757021 0.4809593
0.7010011 0.6026429 0.5583188
0.8345907 0.6992109 0.6915034
0.9781297 0.8622375 0.8616912
0.6451947 0.7088701 0.6453827
0.6451948 0.7088714 0.6453738
0.6451988 0.7088984 0.6451913
0.6452307 0.7091435 0.6434756
0.6452264 0.7110033 0.6257861
0.7141094 0.7141097 0.6195264
0.8401063 0.7438000 0.7039484
0.9800360 0.8638129 0.8596072
0.7914496 0.8500772 0.7914645
0.7914497 0.8500774 0.7914636
0.7914514 0.8500815 0.7914444
0.7914667 0.8501187 0.7912705
0.7915742 0.8503900 0.7899520
0.7921394 0.8523644 0.7767088
0.8569827 0.8569829 0.7696496
0.9848236 0.8932612 0.8649390
0.9450393 0.9941681 0.9450350
0.9450393 0.9941681 0.9450349
0.9450395 0.9941684 0.9450335
0.9450406 0.9941711 0.9450209
0.9450486 0.9941902 0.9449290
0.9451064 0.9943300 0.9442420
0.9455060 0.9955196 0.9369197
0.9998679 0.9998681 0.9264242
0.2747135 0.2747143 0.3802329
0.2761618 0.2749101 0.3802965
0.3035364 0.2820615 0.3847581
0.4107247 0.3272703 0.4107228
0.5520629 0.4231103 0.4594661
0.6925843 0.5524400 0.5598921
0.8303431 0.6960862 0.6970143
0.9778199 0.8619891 0.8620535
0.2757936 0.2770337 0.3806568
0.2749447 0.2749455 0.3805039
0.3034397 0.2826619 0.3856195
0.4110543 0.3275698 0.4110524
0.5521549 0.4231611 0.4594151
0.6926010 0.5524501 0.5598690
0.8303459 0.6960884 0.6970120
0.9778201 0.8619893 0.8620534
0.3020604 0.3205465 0.3963841
0.3017912 0.3197532 0.3966313
0.3003833 0.3003837 0.4100086
0.4177465 0.3336620 0.4177452
0.5540240 0.4241756 0.4582635
0.6929410 0.5526543 0.5593923
0.8304027 0.6961329 0.6969646
0.9778241 0.8619926 0.8620496
0.3883166 0.4383848 0.4383809
0.3882254 0.4382896 0.4382858
0.3863521 0.4363349 0.4363315
0.4285714 0.4285714 0.4285714
0.5706193 0.4312947 0.4312942
0.6959852 0.5544343 0.5544267
0.8309134 0.6965330 0.6965247
0.9778607 0.8620233 0.8620158
0.5124209 0.5749620 0.5244989
0.5124076 0.5749555 0.5244403
0.5121350 0.5748245 0.5232226
0.5094570 0.5736634 0.5094513
0.5737421 0.5737423 0.4790489
0.7023937 0.5997956 0.5584079
0.8345427 0.6993207 0.6926081
0.9781263 0.8622455 0.8617646
0.6453949 0.7088581 0.6472351
0.6453952 0.7088594 0.6472266
0.6453995 0.7088863 0.6470537
0.6454358 0.7091307 0.6454285
0.6454707 0.7109842 0.6287921
0.7141202 0.7141205 0.6195375
0.8403307 0.7435295 0.7040354
0.9800327 0.8638211 0.8596872
0.7914717 0.8500755 0.7916745
0.7914718 0.8500757 0.7916736
0.7914735 0.8500798 0.7916545
0.7914888 0.8501171 0.7914818
0.7915967 0.8503882 0.7901726
0.7921657 0.8523621 0.7770305
0.8569839 0.8569841 0.7696508
0.9848416 0.8932344 0.8649468
0.9450409 0.9941680 0.9450502
0.9450409 0.9941680 0.9450502
0.9450411 0.9941683 0.9450488
0.9450422 0.9941709 0.9450362
0.9450502 0.9941901 0.9449444
0.9451080 0.9943299 0.9442578
0.9455078 0.9955194 0.9369401
0.9998680 0.9998682 0.9264243
0.3930333 0.3930342 0.5130150
0.3932134 0.3930147 0.5130009
0.3977177 0.3936079 0.5130562
0.4341253 0.4038576 0.5190705
0.5473637 0.4553759 0.5473617
0.6907571 0.5592608 0.5981079
0.8300079 0.6968429 0.7034718
0.9777958 0.8620476 0.8625789
0.3931274 0.3933277 0.5129936
0.3929563 0.3929573 0.5129321
0.3975087 0.3935819 0.5130564
0.4341455 0.4039700 0.5192132
0.5474251 0.4554352 0.5474231
0.6907730 0.5592718 0.5981047
0.8300106 0.6968451 0.7034701
0.9777960 0.8620478 0.8625788
0.3967338 0.4007240 0.5144368
0.3966315 0.4004492 0.5144423
0.3947558 0.3947567 0.5148714
0.4347392 0.4065120 0.5223950
0.5486740 0.4566409 0.5486720
0.6910963 0.5594949 0.5980365
0.8300672 0.6968900 0.7034345
0.9778000 0.8620512 0.8625751
0.4323724 0.4572381 0.5344746
0.4323513 0.4571543 0.5345224
0.4319668 0.4554269 0.5355874
0.4359924 0.4359927 0.5587452
0.5596387 0.4672534 0.5596375
0.6939919 0.5614594 0.5972150
0.8305765 0.6972937 0.7031035
0.9778366 0.8620818 0.8625420
0.5233100 0.5768143 0.5768102
0.5233030 0.5768072 0.5768032
0.5231605 0.5766634 0.5766594
0.5218726 0.5753633 0.5753599
0.5714286 0.5714286 0.5714286
0.7138451 0.5726862 0.5726860
0.8341953 0.7001088 0.7001013
0.9781022 0.8623042 0.8622968
0.6468138 0.7087742 0.6592409
0.6468142 0.7087755 0.6592352
0.6468218 0.7088019 0.6591178
0.6468877 0.7090411 0.6580191
0.6471905 0.7108503 0.6471847
0.7141992 0.7141994 0.6196185
0.8420197 0.7414205 0.7046965
0.9800081 0.8638811 0.8602665
0.7916320 0.8500634 0.7931810
0.7916321 0.8500636 0.7931801
0.7916338 0.8500677 0.7931620
0.7916495 0.8501049 0.7929978
0.7917606 0.8503756 0.7917537
0.7923567 0.8523455 0.7793217
0.8569924 0.8569926 0.7696600
0.9849727 0.8930376 0.8650037
0.9450526 0.9941671 0.9451614
0.9450526 0.9941672 0.9451613
0.9450527 0.9941674 0.9451600
0.9450538 0.9941701 0.9451474
0.9450619 0.9941892 0.9450560
0.9451198 0.9943290 0.9443724
0.9455210 0.9955184 0.9370889
0.9998686 0.9998688 0.9264250
0.5212252 0.5212263 0.6463086
0.5212122 0.5211838 0.6462980
0.5217945 0.5211683 0.6462017
0.5272819 0.5215367 0.6458482
0.5651666 0.5323337 0.6517000
0.6827528 0.5894924 0.6827508
0.8276779 0.7018350 0.7363587
0.9776210 0.8624706 0.8662568
0.5212241 0.5212546 0.6462905
0.5211948 0.5211958 0.6462780
0.5217388 0.5211419 0.6461791
0.5272475 0.5215285 0.6458438
0.5651749 0.5323552 0.6517246
0.6827646 0.5895043 0.6827625
0.8276807 0.7018373 0.7363592
0.9776212 0.8624707 0.8662567
0.5212917 0.5219167 0.6460151
0.5212658 0.5218619 0.6460059
0.5207489 0.5207499 0.6458298
0.5266085 0.5214246 0.6458177
0.5653498 0.5328016 0.6522335
0.6830034 0.5897468 0.6830014
0.8277362 0.7018846 0.7363687
0.9776252 0.8624741 0.8662536
0.5256980 0.5312135 0.6474424
0.5256870 0.5311784 0.6474469
0.5254676 0.5304642 0.6475448
0.5239747 0.5239757 0.6490697
0.5673584 0.5373849 0.6573898
0.6851463 0.5919232 0.6851443
0.8282357 0.7023095 0.7364501
0.9776617 0.8625049 0.8662259
0.5648077 0.5912587 0.6689243
0.5648090 0.5912513 0.6689348
0.5648352 0.5911014 0.6691521
0.5651706 0.5897351 0.6712825
0.5767317 0.5767320 0.7013520
0.6997718 0.6068206 0.6997706
0.8317827 0.7052879 0.7367938
0.9779269 0.8627286 0.8660205
0.6554106 0.7083239 0.7083200
0.6554118 0.7083251 0.7083211
0.6554352 0.7083481 0.7083441
0.6556471 0.7085563 0.7085524
0.6572271 0.7101086 0.7101053
0.7142857 0.7142857 0.7142857
0.8539285 0.7217272 0.7217258
0.9798295 0.8643144 0.8643074
0.7927720 0.8499775 0.8030604
0.7927721 0.8499777 0.8030598
0.7927741 0.8499818 0.8030473
0.7927927 0.8500185 0.8029341
0.7929251 0.8502859 0.8020777
0.7937087 0.8522281 0.7937031
0.8570546 0.8570547 0.7697267
0.9859495 0.8915319 0.8654301
0.9451376 0.9941609 0.9459641
0.9451376 0.9941609 0.9459641
0.9451377 0.9941612 0.9459627
0.9451389 0.9941638 0.9459506
0.9451471 0.9941830 0.9458621
0.9452060 0.9943226 0.9452001
0.9456170 0.9955105 0.9381600
0.9998730 0.9998732 0.9264299
0.6495563 0.6495573 0.7715053
0.6495523 0.6495498 0.7715035
0.6495650 0.6494904 0.7714665
0.6499634 0.6492419 0.7711482
0.6533975 0.6481843 0.7695461
0.6844953 0.6549459 0.7718169
0.8136898 0.7253462 0.8136880
0.9761802 0.8658200 0.8898628
0.6495513 0.6495559 0.7714986
0.6495473 0.6495484 0.7714968
0.6495541 0.6494830 0.7714600
0.6499532 0.6492352 0.7711422
0.6533912 0.6481812 0.7695436
0.6844976 0.6549500 0.7718212
0.8136923 0.7253487 0.8136904
0.9761804 0.8658201 0.8898628
0.6494519 0.6495285 0.7713654
0.6494481 0.6495211 0.7713636
0.6493703 0.6493713 0.7713289
0.6497477 0.6491008 0.7710239
0.6532652 0.6481195 0.7694940
0.6845462 0.6550343 0.7719085
0.8137419 0.7254013 0.8137400
0.9761844 0.8658237 0.8898628
0.6487602 0.6494796 0.7703580
0.6487571 0.6494731 0.7703570
0.6486945 0.6493401 0.7703362
0.6481546 0.6481556 0.7701755
0.6522770 0.6477175 0.7691929
0.6850056 0.6558183 0.7727186
0.8141878 0.7258737 0.8141859
0.9762204 0.8658557 0.8898625
0.6497514 0.6547689 0.7688144
0.6497512 0.6547657 0.7688159
0.6497466 0.6547014 0.7688477
0.6497187 0.6541273 0.7691504
0.6502747 0.6502757 0.7721866
0.6891488 0.6624402 0.7794834
0.8173447 0.7292201 0.8173429
0.9764820 0.8660880 0.8898587
0.6852243 0.7091815 0.7876197
0.6852261 0.7091821 0.7876225
0.6852629 0.7091954 0.7876803
0.6855968 0.7093157 0.7882049
0.6881426 0.7102040 0.7921863
0.7159729 0.7159733 0.8336639
0.8365075 0.7496027 0.8365064
0.9783585 0.8677397 0.8897268
0.8008145 0.8494107 0.8494071
0.8008147 0.8494109 0.8494073
0.8008186 0.8494146 0.8494110
0.8008537 0.8494483 0.8494447
0.8011091 0.8496931 0.8496896
0.8029417 0.8514494 0.8514463
0.8571429 0.8571429 0.8571429
0.9925287 0.8791387 0.8791355
0.9458494 0.9941086 0.9522854
0.9458494 0.9941086 0.9522853
0.9458495 0.9941089 0.9522843
0.9458508 0.9941115 0.9522751
0.9458602 0.9941305 0.9522077
0.9459273 0.9942689 0.9517045
0.9464189 0.9954452 0.9464137
0.9999103 0.9999105 0.9264716
0.7132885 0.7132896 0.8311826
0.7132876 0.7132883 0.8311818
0.7132673 0.7132620 0.8311663
0.7130973 0.7130375 0.8309747
0.7119077 0.7114521 0.8294589
0.7226198 0.7193775 0.8364266
0.7967177 0.7752414 0.8846742
0.9638352 0.8879666 0.9638337
0.7132842 0.7132855 0.8311784
0.7132832 0.7132842 0.8311776
0.7132630 0.7132580 0.8311621
0.7130928 0.7130333 0.8309709
0.7119034 0.7114481 0.8294552
0.7226239 0.7193818 0.8364307
0.7967193 0.7752432 0.8846759
0.9638354 0.8879668 0.9638338
0.7131951 0.7132025 0.8310929
0.7131942 0.7132012 0.8310921
0.7131740 0.7131750 0.8310767
0.7130025 0.7129490 0.8308937
0.7118156 0.7113662 0.8293802
0.7227059 0.7194696 0.8365124
0.7967514 0.7752792 0.8847092
0.9638390 0.8879707 0.9638374
0.7123960 0.7124578 0.8303250
0.7123950 0.7124566 0.8303243
0.7123754 0.7124309 0.8303093
0.7121992 0.7122003 0.8301751
0.7110297 0.7106343 0.8287096
0.7234415 0.7202569 0.8372454
0.7970404 0.7756036 0.8850088
0.9638711 0.8880063 0.9638696
0.7127208 0.7131764 0.8304164
0.7127223 0.7131776 0.8304179
0.7127529 0.7132022 0.8304494
0.7130287 0.7134243 0.8307331
0.7150160 0.7150171 0.8327795
0.7285473 0.7257406 0.8423471
0.7991013 0.7779225 0.8871503
0.9641049 0.8882648 0.9641033
0.7459379 0.7490594 0.8594987
0.7459388 0.7490601 0.8594997
0.7459583 0.7490743 0.8595205
0.7461340 0.7492021 0.8597079
0.7474070 0.7501240 0.8610673
0.7563537 0.7563546 0.8706837
0.8120967 0.7928075 0.9008904
0.9657782 0.8901165 0.9657766
0.8337436 0.8512562 0.9287616
0.8337439 0.8512563 0.9287619
0.8337491 0.8512591 0.9287686
0.8337959 0.8512840 0.9288283
0.8341373 0.8514646 0.9292643
0.8366400 0.8527454 0.9324740
0.8604954 0.8604959 0.9637286
0.9781720 0.9038573 0.9781708
0.9529791 0.9936169 0.9936139
0.9529791 0.9936169 0.9936139
0.9529794 0.9936172 0.9936142
0.9529820 0.9936196 0.9936166
0.9530005 0.9936369 0.9936339
0.9531352 0.9937632 0.9937602
0.9542708 0.9948275 0.9948248
1.0000000 1.0000000 1.0000000
