LUTs/luminance_compensation_p3.cube
TITLE "Pre-formation 2012 Luminance Correction for P3 Target"
# Lower Side of Guard Rail Formation for P3 medium.
# The Guard Rail is designed to leaves valid value as-is, and only touch out of domain values Modified from python script shared by Sakari Kapanen
# This LUT assumes E Gamut encoded in ST2084 (100) curve and then power 0.5
# LUT resolution 50
LUT_3D_SIZE 8
0.0000000 0.0000000 0.0000000
0.1391005 0.0720005 0.0720005
0.2788679 0.1616944 0.1616944
0.4192033 0.2679903 0.2679903
0.5599276 0.3895035 0.3895035
0.7008190 0.5252990 0.5252990
0.8409452 0.6738540 0.6738540
0.9866028 0.8421490 0.8421490
0.1007457 0.1453484 0.1007457
0.1455944 0.1455944 0.0929506
0.2798502 0.1802631 0.1645641
0.4193427 0.2711611 0.2684267
0.5599486 0.3900205 0.3895744
0.7008220 0.5253761 0.5253098
0.8409456 0.6738633 0.6738554
0.9866029 0.8421497 0.8421491
0.2144868 0.2885358 0.2144868
0.2127483 0.2878807 0.2047589
0.2893989 0.2893989 0.2009854
0.4217120 0.3155946 0.2765504
0.5603645 0.3998298 0.3909968
0.7008835 0.5269290 0.5255278
0.8409547 0.6740527 0.6738840
0.9866035 0.8421643 0.8421513
0.3385481 0.4304614 0.3385481
0.3383518 0.4304120 0.3374078
0.3338858 0.4294579 0.3043962
0.4321315 0.4321315 0.3214814
0.5633618 0.4557276 0.4024162
0.7014177 0.5396868 0.5274576
0.8410364 0.6757421 0.6741419
0.9866093 0.8422962 0.8421712
0.4710539 0.5713546 0.4710539
0.4710306 0.5713539 0.4708909
0.4705495 0.5713408 0.4674364
0.4690399 0.5713419 0.4227323
0.5740235 0.5740235 0.4525287
0.7044894 0.5971537 0.5398392
0.8416093 0.6870170 0.6759825
0.9866516 0.8432493 0.8423163
0.6101358 0.7106410 0.6101358
0.6101345 0.7106428 0.6101149
0.6101087 0.7106808 0.6096872
0.6098627 0.7110258 0.6055881
0.6114468 0.7129130 0.5620979
0.7139600 0.7139600 0.5916755
0.8449130 0.7393406 0.6877487
0.9869528 0.8498058 0.8433599
0.7585806 0.8518326 0.7585806
0.7585805 0.8518328 0.7585783
0.7585788 0.8518381 0.7585312
0.7585633 0.8518854 0.7581024
0.7584393 0.8522307 0.7547996
0.7568524 0.8547829 0.7142196
0.8567948 0.8567948 0.7430761
0.9891032 0.8884003 0.8514024
0.9168955 0.9956186 0.9168955
0.9168955 0.9956186 0.9168953
0.9168954 0.9956190 0.9168919
0.9168942 0.9956223 0.9168605
0.9168859 0.9956467 0.9166306
0.9168217 0.9958243 0.9148948
0.9159854 0.9973519 0.8940080
0.9997131 0.9997131 0.9034600
0.0779235 0.0779235 0.1246826
0.1380602 0.0942263 0.1380602
0.2785358 0.1645305 0.1798955
0.4192460 0.2677496 0.2705121
0.5599980 0.3890662 0.3895162
0.7008308 0.5252369 0.5253034
0.8409470 0.6738471 0.6738550
0.9866030 0.8421484 0.8421491
0.1127061 0.1476574 0.1476574
0.1428571 0.1428571 0.1428571
0.2826229 0.1643349 0.1643349
0.4197544 0.2684377 0.2684377
0.5600188 0.3895870 0.3895870
0.7008338 0.5253141 0.5253141
0.8409474 0.6738565 0.6738565
0.9866030 0.8421492 0.8421492
0.2156937 0.2886676 0.2220423
0.2140422 0.2880047 0.2140422
0.2884700 0.2884700 0.2002418
0.4219820 0.3144520 0.2765143
0.5604312 0.3994628 0.3910078
0.7008952 0.5268685 0.5255320
0.8409565 0.6740459 0.6738851
0.9866036 0.8421638 0.8421514
0.3387092 0.4304735 0.3396304
0.3385142 0.4304241 0.3385142
0.3340778 0.4294672 0.3064293
0.4320386 0.4320386 0.3213992
0.5634042 0.4555931 0.4024174
0.7014288 0.5396381 0.5274615
0.8410382 0.6757355 0.6741430
0.9866095 0.8422957 0.8421713
0.4710773 0.5713555 0.4712165
0.4710541 0.5713548 0.4710541
0.4705735 0.5713417 0.4676104
0.4688836 0.5713409 0.4227084
0.5740145 0.5740145 0.4525201
0.7044968 0.5971370 0.5398413
0.8416110 0.6870116 0.6759835
0.9866518 0.8432488 0.8423163
0.6101388 0.7106408 0.6101584
0.6101375 0.7106427 0.6101375
0.6101117 0.7106806 0.6097100
0.6098658 0.7110256 0.6056129
0.6114262 0.7129138 0.5620955
0.7139602 0.7139602 0.5916757
0.8449142 0.7393388 0.6877494
0.9869529 0.8498054 0.8433600
0.7585810 0.8518325 0.7585832
0.7585809 0.8518328 0.7585809
0.7585792 0.8518380 0.7585337
0.7585636 0.8518854 0.7581050
0.7584397 0.8522307 0.7548024
0.7568528 0.8547829 0.7142258
0.8567948 0.8567948 0.7430761
0.9891033 0.8884001 0.8514025
0.9168955 0.9956186 0.9168957
0.9168955 0.9956186 0.9168955
0.9168954 0.9956190 0.9168921
0.9168943 0.9956223 0.9168607
0.9168860 0.9956467 0.9166308
0.9168218 0.9958243 0.9148950
0.9159854 0.9973519 0.8940083
0.9997131 0.9997131 0.9034600
0.1711077 0.1711077 0.2529934
0.1816157 0.1734260 0.2551157
0.2760162 0.2020977 0.2760162
0.4180653 0.2769354 0.3140596
0.5598302 0.3902895 0.3991466
0.7009484 0.5246285 0.5260500
0.8409838 0.6737079 0.6738772
0.9866056 0.8421377 0.8421508
0.1782779 0.1862576 0.2591866
0.1783721 0.1783721 0.2623516
0.2779867 0.2037244 0.2779867
0.4186339 0.2769977 0.3131465
0.5599318 0.3902973 0.3987801
0.7009652 0.5246323 0.5259883
0.8409842 0.6737173 0.6738786
0.9866056 0.8421385 0.8421509
0.2347007 0.2915999 0.2915999
0.2340306 0.2908396 0.2908396
0.2857143 0.2857143 0.2857143
0.4285714 0.2857143 0.2857143
0.5618573 0.3912694 0.3912694
0.7011360 0.5256201 0.5256201
0.8409933 0.6739072 0.6739072
0.9866063 0.8421531 0.8421531
0.3418773 0.4307265 0.3583942
0.3417048 0.4306749 0.3576348
0.3378243 0.4296649 0.3378243
0.4301164 0.4301164 0.3196980
0.5643050 0.4527357 0.4024600
0.7016560 0.5386338 0.5275419
0.8410747 0.6756010 0.6741649
0.9866121 0.8422850 0.8421730
0.4715519 0.5713744 0.4744459
0.4715291 0.5713737 0.4742931
0.4710586 0.5713595 0.4710586
0.4659688 0.5713269 0.4230183
0.5738319 0.5738319 0.4523447
0.7046492 0.5967949 0.5398834
0.8416457 0.6869024 0.6760040
0.9866544 0.8432383 0.8423180
0.6101999 0.7106375 0.6106172
0.6101987 0.7106394 0.6105965
0.6101731 0.7106773 0.6101731
0.6099289 0.7110221 0.6061163
0.6110058 0.7129316 0.5620463
0.7139635 0.7139635 0.5916791
0.8449385 0.7393021 0.6877624
0.9869555 0.8497962 0.8433616
0.7585879 0.8518322 0.7586355
0.7585878 0.8518324 0.7586332
0.7585861 0.8518377 0.7585861
0.7585706 0.8518850 0.7581579
0.7584468 0.8522303 0.7548594
0.7568615 0.8547823 0.7143521
0.8567952 0.8567952 0.7430766
0.9891052 0.8883964 0.8514036
0.9168960 0.9956186 0.9168996
0.9168960 0.9956186 0.9168994
0.9168959 0.9956190 0.9168959
0.9168948 0.9956223 0.9168645
0.9168865 0.9956466 0.9166347
0.9168223 0.9958243 0.9148991
0.9159860 0.9973518 0.8940151
0.9997132 0.9997132 0.9034600
0.2779887 0.2779887 0.3840717
0.2795766 0.2783135 0.3843608
0.3072650 0.2850853 0.3899502
0.4141093 0.3211883 0.4141093
0.5580234 0.4026294 0.4527667
0.7006049 0.5266520 0.5388757
0.8411026 0.6732706 0.6748943
0.9866291 0.8420409 0.8421662
0.2791184 0.2803764 0.3849926
0.2790150 0.2790150 0.3852707
0.3072234 0.2857802 0.3908549
0.4144222 0.3214693 0.4144222
0.5581168 0.4026573 0.4526783
0.7006215 0.5266564 0.5388284
0.8411052 0.6732718 0.6748878
0.9866292 0.8420416 0.8421663
0.2981156 0.3189063 0.3994326
0.2981404 0.3182757 0.3997691
0.3023157 0.3023157 0.4122322
0.4207010 0.3271169 0.4207010
0.5600174 0.4031928 0.4507102
0.7009595 0.5267447 0.5378489
0.8411569 0.6732973 0.6747547
0.9866298 0.8420562 0.8421685
0.3636825 0.4333392 0.4333392
0.3636220 0.4332746 0.4332746
0.3623838 0.4319523 0.4319523
0.4285714 0.4285714 0.4285714
0.5714286 0.4285714 0.4285714
0.7038161 0.5283372 0.5283372
0.8414059 0.6743641 0.6743641
0.9866356 0.8421884 0.8421884
0.4756405 0.5715541 0.4981536
0.4756217 0.5715529 0.4980592
0.4752333 0.5715301 0.4960810
0.4710995 0.5714016 0.4710995
0.5721424 0.5721424 0.4507233
0.7060846 0.5935074 0.5402954
0.8419599 0.6859000 0.6761902
0.9866778 0.8431436 0.8423334
0.6107478 0.7106080 0.6146193
0.6107466 0.7106099 0.6146003
0.6107227 0.7106476 0.6142113
0.6104941 0.7109904 0.6104941
0.6074243 0.7130808 0.5624982
0.7139938 0.7139938 0.5917102
0.8451590 0.7389677 0.6878806
0.9869781 0.8497137 0.8433763
0.7586504 0.8518287 0.7591058
0.7586503 0.8518290 0.7591035
0.7586487 0.8518342 0.7590569
0.7586334 0.8518815 0.7586334
0.7585111 0.8522266 0.7553714
0.7569404 0.8547770 0.7154810
0.8567990 0.8567990 0.7430807
0.9891226 0.8883627 0.8514140
0.9169007 0.9956183 0.9169344
0.9169007 0.9956183 0.9169342
0.9169005 0.9956187 0.9169308
0.9168994 0.9956221 0.9168994
0.9168911 0.9956464 0.9166698
0.9168270 0.9958241 0.9149358
0.9159914 0.9973515 0.8940762
0.9997134 0.9997134 0.9034603
0.3965059 0.3965059 0.5167621
0.3967378 0.3965373 0.5168062
0.4018331 0.3976891 0.5177063
0.4389686 0.4076189 0.5253846
0.5520761 0.4494957 0.5520761
0.6983248 0.5392667 0.5931416
0.8407190 0.6749085 0.6859607
0.9867511 0.8415401 0.8424881
0.3966898 0.3968900 0.5169020
0.3966790 0.3966790 0.5169483
0.4017706 0.3978112 0.5178540
0.4389981 0.4077469 0.5255348
0.5521335 0.4495509 0.5521335
0.6983404 0.5392740 0.5931327
0.8407216 0.6749098 0.6859558
0.9867513 0.8415402 0.8424876
0.4004292 0.4045228 0.5197556
0.4004315 0.4043447 0.5198139
0.4006233 0.4006233 0.5211866
0.4396070 0.4104363 0.5286856
0.5532998 0.4506719 0.5532998
0.6986567 0.5394214 0.5929485
0.8407730 0.6749364 0.6858543
0.9867549 0.8415422 0.8424772
0.4267170 0.4553574 0.5382652
0.4267347 0.4552921 0.5383245
0.4271446 0.4539399 0.5396031
0.4373405 0.4373405 0.5601681
0.5634170 0.4604209 0.5634170
0.7014917 0.5406787 0.5909912
0.8412363 0.6751742 0.6849172
0.9867881 0.8415599 0.8423832
0.4980324 0.5732582 0.5732582
0.4980291 0.5732549 0.5732549
0.4979633 0.5731879 0.5731879
0.4973697 0.5725837 0.5725837
0.5714286 0.5714286 0.5714286
0.7142857 0.5714286 0.5714286
0.8443308 0.6776064 0.6776064
0.9868492 0.8424454 0.8424454
0.6145339 0.7104053 0.6380213
0.6145333 0.7104070 0.6380104
0.6145203 0.7104433 0.6377875
0.6143935 0.7107723 0.6356816
0.6124742 0.7129203 0.6124742
0.7142174 0.7142174 0.5919400
0.8468127 0.7363524 0.6887724
0.9871439 0.8491056 0.8434836
0.7591030 0.8518041 0.7624253
0.7591030 0.8518043 0.7624231
0.7591014 0.8518095 0.7623801
0.7590876 0.8518566 0.7619882
0.7589766 0.8522004 0.7589766
0.7575101 0.8547392 0.7231601
0.8568262 0.8568262 0.7431104
0.9892497 0.8881153 0.8514901
0.9169343 0.9956166 0.9171876
0.9169343 0.9956166 0.9171874
0.9169342 0.9956170 0.9171839
0.9169330 0.9956203 0.9171528
0.9169248 0.9956446 0.9169248
0.9168612 0.9958222 0.9152030
0.9160309 0.9973491 0.8945197
0.9997153 0.9997153 0.9034625
0.5241559 0.5241559 0.6492582
0.5241691 0.5241395 0.6492666
0.5249464 0.5243184 0.6493994
0.5317381 0.5259535 0.6506206
0.5715175 0.5375718 0.6592932
0.6892601 0.5852481 0.6892601
0.8381007 0.6851927 0.7340811
0.9865518 0.8424700 0.8489640
0.5241844 0.5242139 0.6492789
0.5241858 0.5241858 0.6492882
0.5249386 0.5243397 0.6494231
0.5317346 0.5259764 0.6506458
0.5715279 0.5375964 0.6593197
0.6892708 0.5852590 0.6892708
0.8381031 0.6851943 0.7340806
0.9865520 0.8424701 0.8489636
0.5247674 0.5253940 0.6497023
0.5247693 0.5253668 0.6497120
0.5248112 0.5248112 0.6499156
0.5316702 0.5264526 0.6511686
0.5717423 0.5381010 0.6598606
0.6894882 0.5854801 0.6894882
0.8381527 0.6852273 0.7340695
0.9865557 0.8424721 0.8489548
0.5301032 0.5357850 0.6536145
0.5301080 0.5357643 0.6536268
0.5302080 0.5353416 0.6538811
0.5314209 0.5314209 0.6565354
0.5737026 0.5428074 0.6648971
0.6914338 0.5874605 0.6914338
0.8385996 0.6855232 0.7339637
0.9865887 0.8424903 0.8488760
0.5601986 0.5908162 0.6742385
0.5602050 0.5908110 0.6742502
0.5603345 0.5907040 0.6744897
0.5615967 0.5897083 0.6767737
0.5781539 0.5781539 0.7027498
0.7046136 0.6009142 0.7046136
0.8417901 0.6875680 0.7328834
0.9868289 0.8426218 0.8482927
0.6346179 0.7094628 0.7094628
0.6346193 0.7094642 0.7094642
0.6346480 0.7094924 0.7094924
0.6349083 0.7097469 0.7097469
0.6368249 0.7116213 0.7116213
0.7142857 0.7142857 0.7142857
0.8571429 0.7142857 0.7142857
0.9883794 0.8442877 0.8442877
0.7622517 0.8516333 0.7822120
0.7622517 0.8516335 0.7822107
0.7622513 0.8516386 0.7821851
0.7622473 0.8516844 0.7819520
0.7622106 0.8520185 0.7801767
0.7614278 0.8544761 0.7614278
0.8570243 0.8570243 0.7433267
0.9901943 0.8862164 0.8520576
0.9171785 0.9956038 0.9189965
0.9171785 0.9956038 0.9189963
0.9171783 0.9956042 0.9189930
0.9171773 0.9956075 0.9189634
0.9171696 0.9956318 0.9187465
0.9171097 0.9958090 0.9171097
0.9163172 0.9973317 0.8976468
0.9997293 0.9997293 0.9034786
0.6497219 0.6497219 0.7716687
0.6497235 0.6497199 0.7716711
0.6498035 0.6497279 0.7716946
0.6506531 0.6499301 0.7718387
0.6566906 0.6514544 0.7729377
0.6934300 0.6630827 0.7815009
0.8242631 0.7260861 0.8242631
0.9849308 0.8495548 0.8851514
0.6497254 0.6497290 0.7716712
0.6497270 0.6497270 0.7716736
0.6498040 0.6497319 0.7716986
0.6506536 0.6499342 0.7718428
0.6566919 0.6514588 0.7729422
0.6934331 0.6630876 0.7815058
0.8242650 0.7260882 0.8242650
0.9849310 0.8495549 0.8851513
0.6497974 0.6498730 0.7717211
0.6497990 0.6498710 0.7717235
0.6498314 0.6498314 0.7717726
0.6506658 0.6500175 0.7719271
0.6567170 0.6515490 0.7730329
0.6934962 0.6631888 0.7816057
0.8243048 0.7261306 0.8243048
0.9849345 0.8495573 0.8851492
0.6504573 0.6511782 0.7721817
0.6504590 0.6511764 0.7721842
0.6504935 0.6511400 0.7722351
0.6508149 0.6508149 0.7727051
0.6569616 0.6523862 0.7738729
0.6940682 0.6641057 0.7825115
0.8246625 0.7265129 0.8246625
0.9849667 0.8495790 0.8851305
0.6555679 0.6607100 0.7758390
0.6555701 0.6607091 0.7758420
0.6556146 0.6606907 0.7759016
0.6560231 0.6605261 0.7764469
0.6593674 0.6593674 0.7807982
0.6982622 0.6709185 0.7892299
0.8272090 0.7292353 0.8272090
0.9852008 0.8497360 0.8849909
0.6861586 0.7135289 0.7969400
0.6861611 0.7135299 0.7969431
0.6862127 0.7135506 0.7970046
0.6866784 0.7137361 0.7975607
0.6901071 0.7150173 0.8016647
0.7190238 0.7190238 0.8364863
0.8431465 0.7463271 0.8431465
0.9868859 0.8508395 0.8838271
0.7816772 0.8507252 0.8507252
0.7816774 0.8507254 0.8507254
0.7816818 0.8507296 0.8507296
0.7817215 0.8507671 0.8507671
0.7820103 0.8510397 0.8510397
0.7840786 0.8529915 0.8529915
0.8571429 0.8571429 0.8571429
0.9997831 0.8580650 0.8580650
0.9191900 0.9954991 0.9322067
0.9191900 0.9954991 0.9322066
0.9191899 0.9954995 0.9322043
0.9191894 0.9955027 0.9321844
0.9191857 0.9955265 0.9320383
0.9191556 0.9957001 0.9309416
0.9186622 0.9971887 0.9186622
0.9998484 0.9998484 0.9036159
0.7785031 0.7785031 0.8907632
0.7785037 0.7785034 0.8907639
0.7785171 0.7785110 0.8907774
0.7786458 0.7785872 0.8908582
0.7795970 0.7791573 0.8913460
0.7862713 0.7831377 0.8947424
0.8297182 0.8083156 0.9157659
0.9727015 0.8886160 0.9727015
0.7785044 0.7785047 0.8907644
0.7785051 0.7785051 0.8907650
0.7785185 0.7785127 0.8907785
0.7786471 0.7785888 0.8908596
0.7795983 0.7791588 0.8913474
0.7862726 0.7831392 0.8947438
0.8297189 0.8083165 0.9157667
0.9727017 0.8886161 0.9727017
0.7785322 0.7785383 0.8907880
0.7785329 0.7785387 0.8907887
0.7785463 0.7785463 0.8908022
0.7786737 0.7786212 0.8908893
0.7796246 0.7791909 0.8913768
0.7862970 0.7831692 0.8947712
0.8297343 0.8083357 0.9157842
0.9727045 0.8886193 0.9727045
0.7787823 0.7788409 0.8910010
0.7787829 0.7788412 0.8910017
0.7787963 0.7788488 0.8910152
0.7789167 0.7789167 0.8911366
0.7798615 0.7794799 0.8916412
0.7865175 0.7834393 0.8950182
0.8298730 0.8085084 0.9159420
0.9727302 0.8886481 0.9727302
0.7805696 0.7810081 0.8925214
0.7805702 0.7810084 0.8925221
0.7805832 0.7810157 0.8925352
0.7807007 0.7810812 0.8926538
0.7815543 0.7815543 0.8935160
0.7880921 0.7853764 0.8967897
0.8308701 0.8097545 0.9170800
0.9729167 0.8888572 0.9729167
0.7920216 0.7951007 0.9021721
0.7920222 0.7951009 0.9021726
0.7920332 0.7951067 0.9021839
0.7921329 0.7951585 0.9022857
0.7928580 0.7955328 0.9030267
0.7980867 0.7980867 0.9083799
0.8375001 0.8182272 0.9248168
0.9742570 0.8903597 0.9742570
0.8415040 0.8608142 0.9413280
0.8415042 0.8608143 0.9413283
0.8415092 0.8608163 0.9413338
0.8415540 0.8608343 0.9413831
0.8418807 0.8609649 0.9417429
0.8442737 0.8618793 0.9443820
0.8663057 0.8663057 0.9688285
0.9844291 0.9017837 0.9844291
0.9367200 0.9947036 0.9947036
0.9367201 0.9947036 0.9947036
0.9367204 0.9947039 0.9947039
0.9367233 0.9947066 0.9947066
0.9367444 0.9947259 0.9947259
0.9368982 0.9948664 0.9948664
0.9381923 0.9960492 0.9960492
1.0000000 1.0000000 1.0000000
