LUTs/luminance_correction_bt2020.cube
TITLE "Pre-formation 2012 Luminance Correction for BT.2020 Target"
# Use CIE 2012 Luminance to Compensate for Some Out-of-Domain Values
# This LUT assumes input and output to be E Gamut encoded in Log2 (-10 stop to +15 stop)
# LUT resolution 33
LUT_3D_SIZE 33
-0.0000000 0.0000000 -0.0000000
0.0312500 0.0000000 -0.0000000
0.0625000 0.0000000 -0.0000000
0.0937500 0.0000000 -0.0000000
0.1250000 0.0000000 -0.0000000
0.1542122 0.0144052 0.0144034
0.1827692 0.0429647 0.0429606
0.2123925 0.0725892 0.0725840
0.2426744 0.1028719 0.1028660
0.2733536 0.1335515 0.1335452
0.3042688 0.1644670 0.1644604
0.3353231 0.1955214 0.1955148
0.3664589 0.2266573 0.2266506
0.3976424 0.2578409 0.2578341
0.4288536 0.2890521 0.2890453
0.4600811 0.3202796 0.3202728
0.4913179 0.3515165 0.3515096
0.5225603 0.3827588 0.3827520
0.5538059 0.4140044 0.4139975
0.5850533 0.4452518 0.4452450
0.6163018 0.4765003 0.4764934
0.6475509 0.5077494 0.5077426
0.6788004 0.5389989 0.5389921
0.7100501 0.5702486 0.5702418
0.7412999 0.6014984 0.6014916
0.7725498 0.6327483 0.6327415
0.8037998 0.6639983 0.6639914
0.8350497 0.6952483 0.6952414
0.8662997 0.7264982 0.7264914
0.8975497 0.7577482 0.7577414
0.9287997 0.7889982 0.7889914
0.9600497 0.8202482 0.8202414
0.9912997 0.8514982 0.8514914
-0.0000000 0.0312500 0.0000000
0.0312500 0.0312500 0.0000000
0.0625000 0.0312500 0.0000000
0.0937500 0.0312500 -0.0000000
0.1250000 0.0312500 -0.0000000
0.1542032 0.0405562 0.0171156
0.1830155 0.0594366 0.0447632
0.2126297 0.0826701 0.0737179
0.2428462 0.1089231 0.1035566
0.2734654 0.1371392 0.1339579
0.3043380 0.1665780 0.1647044
0.3353648 0.1967579 0.1956580
0.3664836 0.2273796 0.2267344
0.3976569 0.2582620 0.2578830
0.4288622 0.2892975 0.2890738
0.4600861 0.3204225 0.3202894
0.4913208 0.3515997 0.3515193
0.5225620 0.3828072 0.3827576
0.5538068 0.4140326 0.4140008
0.5850538 0.4452682 0.4452469
0.6163021 0.4765098 0.4764946
0.6475511 0.5077550 0.5077432
0.6788005 0.5390021 0.5389924
0.7100501 0.5702505 0.5702420
0.7412999 0.6014995 0.6014917
0.7725498 0.6327490 0.6327416
0.8037998 0.6639987 0.6639915
0.8350497 0.6952485 0.6952414
0.8662997 0.7264984 0.7264914
0.8975497 0.7577483 0.7577414
0.9287997 0.7889983 0.7889914
0.9600497 0.8202482 0.8202414
0.9912997 0.8514982 0.8514914
-0.0000000 0.0625000 0.0000000
0.0312500 0.0625000 0.0000000
0.0625000 0.0625000 0.0000000
0.0937500 0.0625000 0.0000000
0.1250000 0.0625000 0.0000000
0.1542951 0.0684333 0.0215504
0.1834141 0.0799977 0.0477241
0.2130133 0.0967742 0.0756046
0.2431297 0.1180730 0.1047188
0.2736528 0.1428437 0.1346581
0.3044551 0.1700412 0.1651203
0.3354357 0.1988252 0.1959030
0.3665259 0.2286009 0.2268780
0.3976819 0.2589791 0.2579669
0.4288768 0.2897169 0.2891228
0.4600946 0.3206673 0.3203179
0.4913258 0.3517423 0.3515359
0.5225649 0.3828904 0.3827673
0.5538085 0.4140810 0.4140064
0.5850548 0.4452964 0.4452501
0.6163027 0.4765262 0.4764965
0.6475514 0.5077645 0.5077443
0.6788007 0.5390077 0.5389931
0.7100503 0.5702537 0.5702424
0.7413000 0.6015014 0.6014919
0.7725499 0.6327501 0.6327417
0.8037998 0.6639993 0.6639915
0.8350497 0.6952488 0.6952415
0.8662997 0.7264986 0.7264914
0.8975497 0.7577484 0.7577414
0.9287997 0.7889983 0.7889914
0.9600497 0.8202483 0.8202414
0.9912997 0.8514982 0.8514914
-0.0000000 0.0937500 0.0000000
0.0312500 0.0937500 0.0000000
0.0625000 0.0937500 0.0000000
0.0937500 0.0937500 0.0000000
0.1247956 0.0943005 0.0074335
0.1546459 0.0974245 0.0285396
0.1840454 0.1040493 0.0524602
0.2136140 0.1151659 0.0786831
0.2435859 0.1311179 0.1066487
0.2739618 0.1515344 0.1358356
0.3046513 0.1755633 0.1658258
0.3355559 0.2022202 0.1963208
0.3665979 0.2306437 0.2271236
0.3977245 0.2601918 0.2581107
0.4289018 0.2904310 0.2892067
0.4601093 0.3210857 0.3203668
0.4913344 0.3519868 0.3515644
0.5225699 0.3830329 0.3827839
0.5538114 0.4141640 0.4140161
0.5850565 0.4453447 0.4452558
0.6163037 0.4765544 0.4764997
0.6475520 0.5077809 0.5077462
0.6788010 0.5390172 0.5389942
0.7100505 0.5702593 0.5702430
0.7413001 0.6015047 0.6014923
0.7725499 0.6327520 0.6327419
0.8037998 0.6640004 0.6639917
0.8350498 0.6952495 0.6952415
0.8662997 0.7264989 0.7264915
0.8975497 0.7577486 0.7577414
0.9287997 0.7889985 0.7889914
0.9600497 0.8202484 0.8202414
0.9912997 0.8514983 0.8514914
-0.0000000 0.1250000 0.0000000
0.0312500 0.1250000 0.0000000
0.0625000 0.1250000 0.0000000
0.0946259 0.1250624 0.0082573
0.1255667 0.1255668 0.0217294
0.1555279 0.1271386 0.0389737
0.1850272 0.1307435 0.0597519
0.2145174 0.1375294 0.0835643
0.2442940 0.1484769 0.1097880
0.2744579 0.1640423 0.1377889
0.3049745 0.1840098 0.1670119
0.3357571 0.2076420 0.1970293
0.3667198 0.2340004 0.2275424
0.3977971 0.2622206 0.2583567
0.4289446 0.2916388 0.2893507
0.4601344 0.3217980 0.3204509
0.4913491 0.3524046 0.3516134
0.5225785 0.3832772 0.3828124
0.5538164 0.4143065 0.4140327
0.5850594 0.4454278 0.4452654
0.6163054 0.4766028 0.4765054
0.6475530 0.5078091 0.5077495
0.6788016 0.5390336 0.5389961
0.7100508 0.5702688 0.5702441
0.7413003 0.6015102 0.6014930
0.7725500 0.6327552 0.6327423
0.8037999 0.6640023 0.6639919
0.8350498 0.6952506 0.6952417
0.8662997 0.7264996 0.7264915
0.8975497 0.7577490 0.7577415
0.9287997 0.7889987 0.7889914
0.9600497 0.8202485 0.8202414
0.9912997 0.8514984 0.8514914
0.0181350 0.1560544 0.0181332
0.0434901 0.1560600 0.0206678
0.0707705 0.1560909 0.0247535
0.0991963 0.1561995 0.0311024
0.1281800 0.1565188 0.0404835
0.1573466 0.1573467 0.0535093
0.1865445 0.1592494 0.0704172
0.2158249 0.1631066 0.0910050
0.2453436 0.1699901 0.1147450
0.2752254 0.1808620 0.1409612
0.3054932 0.1962281 0.1689782
0.3360885 0.2159535 0.1982202
0.3669239 0.2393657 0.2282527
0.3979199 0.2655555 0.2587761
0.4290176 0.2936596 0.2895969
0.4601773 0.3230029 0.3205949
0.4913742 0.3531159 0.3516974
0.5225932 0.3836946 0.3828614
0.5538250 0.4145507 0.4140613
0.5850644 0.4455703 0.4452820
0.6163083 0.4766858 0.4765150
0.6475547 0.5078574 0.5077551
0.6788026 0.5390618 0.5389994
0.7100514 0.5702852 0.5702460
0.7413007 0.6015197 0.6014941
0.7725502 0.6327607 0.6327429
0.8038000 0.6640055 0.6639923
0.8350499 0.6952524 0.6952419
0.8662998 0.7265007 0.7264917
0.8975497 0.7577496 0.7577415
0.9287997 0.7889990 0.7889915
0.9600497 0.8202487 0.8202414
0.9912997 0.8514985 0.8514914
0.0491674 0.1870848 0.0491638
0.0648712 0.1871076 0.0506318
0.0845842 0.1871527 0.0530629
0.1077099 0.1872468 0.0569958
0.1333625 0.1874515 0.0631391
0.1606575 0.1879060 0.0722779
0.1889027 0.1889028 0.0850654
0.2176788 0.1909818 0.1017870
0.2468283 0.1949773 0.1222644
0.2763562 0.2019180 0.1459596
0.3062942 0.2127524 0.1721689
0.3366200 0.2280104 0.2001939
0.3672600 0.2476008 0.2294464
0.3981257 0.2708886 0.2594873
0.4291410 0.2969818 0.2900167
0.4602505 0.3250191 0.3208412
0.4914172 0.3543192 0.3518415
0.5226183 0.3844054 0.3829455
0.5538397 0.4149679 0.4141102
0.5850730 0.4458143 0.4453106
0.6163133 0.4768282 0.4765316
0.6475576 0.5079405 0.5077648
0.6788043 0.5391101 0.5390050
0.7100523 0.5703134 0.5702493
0.7413012 0.6015361 0.6014960
0.7725506 0.6327703 0.6327440
0.8038002 0.6640110 0.6639929
0.8350500 0.6952557 0.6952423
0.8662998 0.7265026 0.7264919
0.8975498 0.7577507 0.7577417
0.9287997 0.7889997 0.7889915
0.9600497 0.8202491 0.8202415
0.9912997 0.8514987 0.8514914
0.0802904 0.2182067 0.0802858
0.0898054 0.2182264 0.0811377
0.1031647 0.2182620 0.0825708
0.1206310 0.2183284 0.0849469
0.1418890 0.2184565 0.0887984
0.1661776 0.2187130 0.0948309
0.1925884 0.2192410 0.1038374
0.2203301 0.2203302 0.1164927
0.2488678 0.2225067 0.1331088
0.2779401 0.2265799 0.1535223
0.3074711 0.2335539 0.1771906
0.3374402 0.2443685 0.2033952
0.3677989 0.2595661 0.2314243
0.3984645 0.2790799 0.2606827
0.4293478 0.3022964 0.2907285
0.4603742 0.3283341 0.3212612
0.4914905 0.3563327 0.3520879
0.5226614 0.3856077 0.3830895
0.5538649 0.4156783 0.4141943
0.5850877 0.4462315 0.4453596
0.6163218 0.4770723 0.4765602
0.6475626 0.5080829 0.5077814
0.6788072 0.5391932 0.5390147
0.7100540 0.5703617 0.5702549
0.7413022 0.6015643 0.6014992
0.7725512 0.6327867 0.6327459
0.8038005 0.6640206 0.6639940
0.8350502 0.6952612 0.6952429
0.8663000 0.7265058 0.7264923
0.8975498 0.7577526 0.7577419
0.9287998 0.7890008 0.7889917
0.9600497 0.8202497 0.8202415
0.9912997 0.8514991 0.8514915
0.1114664 0.2493820 0.1114612
0.1171443 0.2493956 0.1119562
0.1257487 0.2494196 0.1127963
0.1380425 0.2494624 0.1142101
0.1544263 0.2495405 0.1165559
0.1747345 0.2496875 0.1203621
0.1982985 0.2499730 0.1263329
0.2242242 0.2505420 0.1352652
0.2516830 0.2516831 0.1478457
0.2800844 0.2539147 0.1644014
0.3091115 0.2580323 0.1847777
0.3386435 0.2650257 0.2084300
0.3686302 0.2758294 0.2346316
0.3990078 0.2909926 0.2626630
0.4296882 0.3104626 0.2919247
0.4605815 0.3336379 0.3219733
0.4916145 0.3596434 0.3525080
0.5227347 0.3876196 0.3833360
0.5539080 0.4168801 0.4143384
0.5851129 0.4469417 0.4454436
0.6163365 0.4774893 0.4766092
0.6475712 0.5083269 0.5078100
0.6788122 0.5393356 0.5390313
0.7100570 0.5704447 0.5702646
0.7413039 0.6016126 0.6015049
0.7725521 0.6328148 0.6327492
0.8038011 0.6640370 0.6639959
0.8350505 0.6952708 0.6952440
0.8663002 0.7265113 0.7264929
0.8975500 0.7577558 0.7577423
0.9287998 0.7890027 0.7889919
0.9600498 0.8202508 0.8202417
0.9912997 0.8514997 0.8514915
0.1426732 0.2805885 0.1426677
0.1460280 0.2805971 0.1429555
0.1513694 0.2806122 0.1434465
0.1595202 0.2806386 0.1442800
0.1712696 0.2806854 0.1456829
0.1870842 0.2807703 0.1480116
0.2068793 0.2809280 0.1517922
0.2300426 0.2812299 0.1577279
0.2556953 0.2818222 0.1666179
0.2829928 0.2829930 0.1791555
0.3113156 0.2852561 0.1956763
0.3403163 0.2893991 0.2160311
0.3698487 0.2964038 0.2396741
0.3998454 0.3072014 0.2658738
0.4302339 0.3223449 0.2939065
0.4609228 0.3417895 0.3231701
0.4918221 0.3649410 0.3532203
0.5228588 0.3909279 0.3837561
0.5539813 0.4188911 0.4145849
0.5851560 0.4481431 0.4455877
0.6163617 0.4781995 0.4766933
0.6475859 0.5087439 0.5078590
0.6788208 0.5395796 0.5390598
0.7100619 0.5705872 0.5702812
0.7413068 0.6016957 0.6015145
0.7725538 0.6328632 0.6327548
0.8038021 0.6640651 0.6639992
0.8350511 0.6952872 0.6952459
0.8663005 0.7265209 0.7264940
0.8975501 0.7577614 0.7577429
0.9287999 0.7890059 0.7889923
0.9600498 0.8202527 0.8202419
0.9912998 0.8515008 0.8514917
0.1738981 0.3118132 0.1738924
0.1758681 0.3118185 0.1740597
0.1791026 0.3118276 0.1743462
0.1842658 0.3118434 0.1748349
0.1921742 0.3118712 0.1756646
0.2036288 0.3119204 0.1770613
0.2191304 0.3120091 0.1793802
0.2386391 0.3121729 0.1831461
0.2615759 0.3124842 0.1890617
0.2870728 0.3130900 0.1979274
0.3142776 0.3142777 0.2104403
0.3425549 0.3165590 0.2269410
0.3715402 0.3207168 0.2472832
0.4010727 0.3277281 0.2709207
0.4310752 0.3385222 0.2971193
0.4614700 0.3536542 0.3251527
0.4921639 0.3730842 0.3544174
0.5230666 0.3962219 0.3844686
0.5541055 0.4221980 0.4150051
0.5852294 0.4501536 0.4458342
0.6164048 0.4794007 0.4768373
0.6476111 0.5094540 0.5079430
0.6788355 0.5399966 0.5391088
0.7100705 0.5708311 0.5703097
0.7413118 0.6018381 0.6015312
0.7725567 0.6329462 0.6327645
0.8038038 0.6641135 0.6640048
0.8350521 0.6953153 0.6952492
0.8663011 0.7265373 0.7264959
0.8975505 0.7577709 0.7577440
0.9288001 0.7890114 0.7889929
0.9600499 0.8202559 0.8202423
0.9912998 0.8515027 0.8514919
0.2051335 0.3430484 0.2051276
0.2062860 0.3430516 0.2052250
0.2082138 0.3430570 0.2053919
0.2113822 0.3430664 0.2056776
0.2164472 0.3430827 0.2061650
0.2242212 0.3431113 0.2069925
0.2355109 0.3431618 0.2083856
0.2508362 0.3432527 0.2106988
0.2701822 0.3434201 0.2144563
0.2929895 0.3437369 0.2203603
0.3183966 0.3443504 0.2292120
0.3455478 0.3455480 0.2417105
0.3737987 0.3478398 0.2581995
0.4027751 0.3520061 0.2785344
0.4323077 0.3590212 0.3021687
0.4623135 0.3698133 0.3283667
0.4927119 0.3849387 0.3564005
0.5234087 0.4043601 0.3856659
0.5543134 0.4274898 0.4157176
0.5853536 0.4534597 0.4462544
0.6164782 0.4814108 0.4770838
0.6476542 0.5106551 0.5080871
0.6788607 0.5407066 0.5391929
0.7100852 0.5712481 0.5703587
0.7413204 0.6020820 0.6015597
0.7725617 0.6330886 0.6327811
0.8038067 0.6641965 0.6640145
0.8350538 0.6953637 0.6952548
0.8663020 0.7265654 0.7264992
0.8975511 0.7577873 0.7577459
0.9288005 0.7890210 0.7889940
0.9600501 0.8202615 0.8202429
0.9912999 0.8515059 0.8514922
0.2363750 0.3742899 0.2363691
0.2370477 0.3742917 0.2364257
0.2381856 0.3742949 0.2365229
0.2400898 0.3743005 0.2366896
0.2432209 0.3743100 0.2369748
0.2482305 0.3743266 0.2374614
0.2559283 0.3743556 0.2382877
0.2671244 0.3744069 0.2396787
0.2823489 0.3744991 0.2419886
0.3016015 0.3746686 0.2457412
0.3243342 0.3749885 0.2516385
0.3496894 0.3756065 0.2604820
0.3768096 0.3768097 0.2729723
0.4050452 0.3791076 0.2894545
0.4340163 0.3832789 0.3097852
0.4635489 0.3902962 0.3334176
0.4935567 0.4010871 0.3596152
0.5239572 0.4162088 0.3876493
0.5546557 0.4356252 0.4169150
0.5855615 0.4587503 0.4469670
0.6166024 0.4847165 0.4775041
0.6477276 0.5126651 0.5083336
0.6789038 0.5419076 0.5393370
0.7101105 0.5719581 0.5704428
0.7413351 0.6024990 0.6016087
0.7725703 0.6333326 0.6328097
0.8038117 0.6643389 0.6640311
0.8350567 0.6954467 0.6952645
0.8663037 0.7266138 0.7265048
0.8975520 0.7578155 0.7577492
0.9288010 0.7890374 0.7889959
0.9600505 0.8202710 0.8202440
0.9913001 0.8515115 0.8514929
0.2676200 0.4055349 0.2676141
0.2680122 0.4055360 0.2676470
0.2686799 0.4055378 0.2677036
0.2698096 0.4055411 0.2678007
0.2717002 0.4055467 0.2679672
0.2748101 0.4055563 0.2682522
0.2797880 0.4055731 0.2687384
0.2874422 0.4056023 0.2695639
0.2985844 0.4056541 0.2709538
0.3137509 0.4057470 0.2732618
0.3329497 0.4059177 0.2770115
0.3556391 0.4062394 0.2829049
0.3809643 0.4068600 0.2917437
0.4080664 0.4080666 0.3042291
0.4362931 0.4103680 0.3207074
0.4652612 0.4145421 0.3410356
0.4947938 0.4215608 0.3646669
0.5248027 0.4323510 0.3908643
0.5552045 0.4474704 0.4188985
0.5859040 0.4668840 0.4481644
0.6168105 0.4900063 0.4782167
0.6478518 0.5159704 0.5087539
0.6789772 0.5439175 0.5395835
0.7101536 0.5731591 0.5705869
0.7413603 0.6032090 0.6016928
0.7725850 0.6337496 0.6328587
0.8038203 0.6645829 0.6640597
0.8350617 0.6955891 0.6952811
0.8663067 0.7266968 0.7265145
0.8975537 0.7578638 0.7577548
0.9288020 0.7890655 0.7889992
0.9600510 0.8202874 0.8202459
0.9913005 0.8515210 0.8514940
0.2988671 0.4367820 0.2988612
0.2990956 0.4367826 0.2988803
0.2994860 0.4367837 0.2989133
0.3001509 0.4367856 0.2989698
0.3012758 0.4367888 0.2990669
0.3031587 0.4367945 0.2992333
0.3062563 0.4368042 0.2995181
0.3112159 0.4368210 0.3000041
0.3188450 0.4368504 0.3008292
0.3299561 0.4369024 0.3022183
0.3450891 0.4369958 0.3045252
0.3642567 0.4371672 0.3082733
0.3869210 0.4374899 0.3141644
0.4122288 0.4381120 0.3230005
0.4393204 0.4393206 0.3354831
0.4675419 0.4416241 0.3519590
0.4965082 0.4457998 0.3722858
0.5260409 0.4528193 0.3959165
0.5560504 0.4636091 0.4221138
0.5864529 0.4787272 0.4501481
0.6171530 0.4981391 0.4794141
0.6480598 0.5212599 0.5094665
0.6791014 0.5472227 0.5400037
0.7102270 0.5751690 0.5708334
0.7414034 0.6044100 0.6018369
0.7726102 0.6344595 0.6329427
0.8038350 0.6649999 0.6641087
0.8350702 0.6958331 0.6953096
0.8663116 0.7268392 0.7265311
0.8975566 0.7579469 0.7577645
0.9288037 0.7891139 0.7890048
0.9600520 0.8203155 0.8202492
0.9913010 0.8515374 0.8514959
0.3301155 0.4680303 0.3301095
0.3302485 0.4680306 0.3301206
0.3304763 0.4680313 0.3301398
0.3308658 0.4680324 0.3301727
0.3315290 0.4680343 0.3302293
0.3326511 0.4680375 0.3303263
0.3345295 0.4680432 0.3304927
0.3376201 0.4680529 0.3307774
0.3425691 0.4680698 0.3312632
0.3501836 0.4680993 0.3320880
0.3612768 0.4681515 0.3334768
0.3763904 0.4682451 0.3357830
0.3955398 0.4684169 0.3395302
0.4181896 0.4687403 0.3454200
0.4434872 0.4693632 0.3542545
0.4705727 0.4705729 0.3667354
0.4987912 0.4728776 0.3832100
0.5277565 0.4770543 0.4035360
0.5572891 0.4840742 0.4271663
0.5872991 0.4948638 0.4533635
0.6177020 0.5099812 0.4813978
0.6484024 0.5293921 0.5106640
0.6793095 0.5525119 0.5407164
0.7103512 0.5784740 0.5712537
0.7414768 0.6064198 0.6020834
0.7726533 0.6356605 0.6330868
0.8038602 0.6657098 0.6641927
0.8350850 0.6962500 0.6953586
0.8663202 0.7270832 0.7265596
0.8975616 0.7580893 0.7577811
0.9288066 0.7891969 0.7890145
0.9600537 0.8203639 0.8202548
0.9913020 0.8515655 0.8514992
0.3613645 0.4992793 0.3613585
0.3614419 0.4992795 0.3613650
0.3615747 0.4992799 0.3613761
0.3618022 0.4992805 0.3613953
0.3621911 0.4992816 0.3614282
0.3628534 0.4992835 0.3614848
0.3639739 0.4992868 0.3615818
0.3658497 0.4992924 0.3617481
0.3689362 0.4993022 0.3620328
0.3738791 0.4993191 0.3625185
0.3814851 0.4993487 0.3633432
0.3925679 0.4994009 0.3647317
0.4076701 0.4994947 0.3670376
0.4268090 0.4996667 0.3707842
0.4494504 0.4999904 0.3766732
0.4747421 0.5006139 0.3855067
0.5018241 0.5018242 0.3979868
0.5300408 0.5041296 0.4144606
0.5590055 0.5083069 0.4347861
0.5885381 0.5153270 0.4584162
0.6185483 0.5261165 0.4846133
0.6489514 0.5412334 0.5126477
0.6796520 0.5606438 0.5419139
0.7105593 0.5837631 0.5719663
0.7416011 0.6097248 0.6025036
0.7727268 0.6376703 0.6333333
0.8039033 0.6669108 0.6643368
0.8351102 0.6969600 0.6954427
0.8663349 0.7275001 0.7266086
0.8975702 0.7583332 0.7578096
0.9288116 0.7893393 0.7890311
0.9600566 0.8204469 0.8202645
0.9913037 0.8516139 0.8515048
0.3926139 0.5305287 0.3926079
0.3926590 0.5305288 0.3926117
0.3927363 0.5305291 0.3926182
0.3928690 0.5305294 0.3926293
0.3930963 0.5305301 0.3926485
0.3934849 0.5305312 0.3926814
0.3941466 0.5305331 0.3927379
0.3952662 0.5305364 0.3928350
0.3971405 0.5305420 0.3930013
0.4002246 0.5305518 0.3932859
0.4051639 0.5305687 0.3937716
0.4127651 0.5305983 0.3945962
0.4238417 0.5306506 0.3959846
0.4389374 0.5307445 0.3982902
0.4580702 0.5309166 0.4020365
0.4807066 0.5312406 0.4079251
0.5059949 0.5318644 0.4167581
0.5330749 0.5330750 0.4292375
0.5612906 0.5353808 0.4457109
0.5902549 0.5395585 0.4660361
0.6197876 0.5465787 0.4896661
0.6497978 0.5573681 0.5158632
0.6802011 0.5724848 0.5438976
0.7109018 0.5918949 0.5731638
0.7418091 0.6150138 0.6032162
0.7728510 0.6409753 0.6337536
0.8039767 0.6689206 0.6645833
0.8351533 0.6981610 0.6955868
0.8663602 0.7282101 0.7266927
0.8975849 0.7587502 0.7578586
0.9288202 0.7895833 0.7890596
0.9600616 0.8205893 0.8202811
0.9913066 0.8516969 0.8515145
0.4238636 0.5617784 0.4238576
0.4238898 0.5617785 0.4238598
0.4239348 0.5617786 0.4238636
0.4240122 0.5617788 0.4238701
0.4241448 0.5617792 0.4238812
0.4243720 0.5617798 0.4239004
0.4247604 0.5617809 0.4239333
0.4254217 0.5617828 0.4239898
0.4265408 0.5617861 0.4240868
0.4284142 0.5617918 0.4242531
0.4314969 0.5618015 0.4245377
0.4364342 0.5618185 0.4250234
0.4440325 0.5618481 0.4258479
0.4551056 0.5619004 0.4272362
0.4701975 0.5619943 0.4295418
0.4893267 0.5621665 0.4332879
0.5119603 0.5624906 0.4391762
0.5372466 0.5631146 0.4480089
0.5643253 0.5643255 0.4604880
0.5925405 0.5666315 0.4769611
0.6215046 0.5708094 0.4972861
0.6510372 0.5778297 0.5209161
0.6810476 0.5886190 0.5471132
0.7114509 0.6037356 0.5751476
0.7421517 0.6231454 0.6044138
0.7730591 0.6462642 0.6344662
0.8041009 0.6722255 0.6650036
0.8352267 0.7001707 0.6958333
0.8664033 0.7294111 0.7268368
0.8976101 0.7594602 0.7579427
0.9288349 0.7900002 0.7891086
0.9600702 0.8208333 0.8203096
0.9913116 0.8518393 0.8515311
0.4551134 0.5930282 0.4551074
0.4551287 0.5930282 0.4551087
0.4551549 0.5930283 0.4551109
0.4551999 0.5930284 0.4551146
0.4552772 0.5930286 0.4551211
0.4554098 0.5930290 0.4551323
0.4556369 0.5930297 0.4551515
0.4560252 0.5930308 0.4551844
0.4566864 0.5930327 0.4552409
0.4578051 0.5930360 0.4553379
0.4596780 0.5930416 0.4555042
0.4627599 0.5930514 0.4557888
0.4676960 0.5930683 0.4562744
0.4752926 0.5930980 0.4570989
0.4863637 0.5931503 0.4584872
0.5014534 0.5932442 0.4607927
0.5205805 0.5934165 0.4645387
0.5432124 0.5937407 0.4704268
0.5684975 0.5943647 0.4792593
0.5955756 0.5955757 0.4917383
0.6237904 0.5978819 0.5082112
0.6527544 0.6020599 0.5285362
0.6822870 0.6090802 0.5521661
0.7122974 0.6198696 0.5783631
0.7427008 0.6349860 0.6063975
0.7734016 0.6543958 0.6356637
0.8043090 0.6775145 0.6657162
0.8353509 0.7034757 0.6962536
0.8664767 0.7314208 0.7270833
0.8976532 0.7606611 0.7580868
0.9288601 0.7907102 0.7891927
0.9600849 0.8212503 0.8203586
0.9913202 0.8520833 0.8515596
0.4863633 0.6242781 0.4863573
0.4863722 0.6242781 0.4863580
0.4863874 0.6242781 0.4863593
0.4864136 0.6242782 0.4863615
0.4864586 0.6242783 0.4863653
0.4865359 0.6242786 0.4863718
0.4866685 0.6242789 0.4863829
0.4868956 0.6242796 0.4864021
0.4872838 0.6242807 0.4864350
0.4879449 0.6242826 0.4864915
0.4890634 0.6242859 0.4865885
0.4909360 0.6242915 0.4867548
0.4940174 0.6243013 0.4870394
0.4989528 0.6243183 0.4875250
0.5065485 0.6243479 0.4883495
0.5176184 0.6244003 0.4897378
0.5327068 0.6244942 0.4920432
0.5518327 0.6246665 0.4957891
0.5744636 0.6249907 0.5016772
0.5997481 0.6256148 0.5105096
0.6268257 0.6268259 0.5229884
0.6550403 0.6291321 0.5394613
0.6840043 0.6333102 0.5597862
0.7135369 0.6403306 0.5834160
0.7435473 0.6511199 0.6096131
0.7739508 0.6662363 0.6376475
0.8046516 0.6856460 0.6669137
0.8355590 0.7087646 0.6969662
0.8666009 0.7347258 0.7275036
0.8977267 0.7626709 0.7583333
0.9289032 0.7919112 0.7893368
0.9601101 0.8219602 0.8204427
0.9913349 0.8525003 0.8516086
0.5176132 0.6555280 0.5176072
0.5176184 0.6555280 0.5176077
0.5176273 0.6555280 0.5176084
0.5176425 0.6555281 0.5176097
0.5176687 0.6555282 0.5176119
0.5177137 0.6555283 0.5176156
0.5177910 0.6555285 0.5176221
0.5179235 0.6555289 0.5176333
0.5181506 0.6555295 0.5176524
0.5185388 0.6555306 0.5176854
0.5191998 0.6555325 0.5177419
0.5203183 0.6555358 0.5178389
0.5221907 0.6555415 0.5180052
0.5252718 0.6555512 0.5182897
0.5302068 0.6555682 0.5187754
0.5378019 0.6555979 0.5195999
0.5488711 0.6556502 0.5209881
0.5639588 0.6557442 0.5232935
0.5830840 0.6559165 0.5270394
0.6057144 0.6562407 0.5329274
0.6309984 0.6568649 0.5417597
0.6580758 0.6580760 0.5542385
0.6862903 0.6603823 0.5707113
0.7152542 0.6645603 0.5910362
0.7447868 0.6715808 0.6146660
0.7747973 0.6823701 0.6408631
0.8052007 0.6974864 0.6688975
0.8359016 0.7168961 0.6981637
0.8668090 0.7400147 0.7282162
0.8978509 0.7659758 0.7587536
0.9289767 0.7939209 0.7895833
0.9601532 0.8231612 0.8205868
0.9913601 0.8532102 0.8516927
0.5488632 0.6867780 0.5488572
0.5488662 0.6867780 0.5488574
0.5488714 0.6867780 0.5488579
0.5488802 0.6867780 0.5488586
0.5488955 0.6867781 0.5488599
0.5489217 0.6867781 0.5488621
0.5489667 0.6867783 0.5488659
0.5490440 0.6867785 0.5488724
0.5491765 0.6867789 0.5488835
0.5494036 0.6867795 0.5489027
0.5497917 0.6867806 0.5489356
0.5504527 0.6867825 0.5489921
0.5515711 0.6867858 0.5490891
0.5534434 0.6867914 0.5492554
0.5565244 0.6868012 0.5495400
0.5614592 0.6868182 0.5500256
0.5690539 0.6868478 0.5508501
0.5801227 0.6869002 0.5522383
0.5952099 0.6869942 0.5545437
0.6143348 0.6871665 0.5582895
0.6369648 0.6874907 0.5641775
0.6622486 0.6881149 0.5730098
0.6893259 0.6893260 0.5854886
0.7175403 0.6916324 0.6019614
0.7465042 0.6958104 0.6222862
0.7760368 0.7028309 0.6459160
0.8060472 0.7136202 0.6721131
0.8364507 0.7287365 0.7001475
0.8671516 0.7481462 0.7294137
0.8980590 0.7712647 0.7594662
0.9291009 0.7972259 0.7900036
0.9602266 0.8251709 0.8208333
0.9914032 0.8544112 0.8518368
0.5801132 0.7180279 0.5801072
0.5801149 0.7180280 0.5801073
0.5801179 0.7180280 0.5801076
0.5801231 0.7180280 0.5801080
0.5801320 0.7180280 0.5801087
0.5801472 0.7180280 0.5801100
0.5801734 0.7180281 0.5801122
0.5802184 0.7180282 0.5801160
0.5802957 0.7180285 0.5801225
0.5804282 0.7180288 0.5801336
0.5806553 0.7180295 0.5801528
0.5810434 0.7180306 0.5801857
0.5817044 0.7180325 0.5802422
0.5828227 0.7180358 0.5803392
0.5846950 0.7180414 0.5805055
0.5877759 0.7180512 0.5807901
0.5927105 0.7180682 0.5812757
0.6003051 0.7180978 0.5821002
0.6113736 0.7181502 0.5834884
0.6264606 0.7182442 0.5857938
0.6455852 0.7184165 0.5895396
0.6682150 0.7187407 0.5954276
0.6934987 0.7193649 0.6042599
0.7205759 0.7205761 0.6167386
0.7487903 0.7228824 0.6332114
0.7777541 0.7270605 0.6535362
0.8072868 0.7340809 0.6771660
0.8372972 0.7448702 0.7033631
0.8677007 0.7599866 0.7313975
0.8984016 0.7793962 0.7606637
0.9293090 0.8025148 0.7907162
