LUTs/luminance_compensation_bt2020.cube
TITLE "Pre-formation 2012 Luminance Correction for BT.2020 Target"
# Use CIE 2012 Luminance to Compensate for Some Out-of-Domain Values
# This LUT assumes input and output to be E Gamut encoded in Log2 (-10 stop to +15 stop)
# LUT resolution 50
LUT_3D_SIZE 5
DOMAIN_MIN 0.000000 0.000000 0.000000
DOMAIN_MAX 0.816327 0.816327 0.816327
0.0008550 0.0008550 0.0008550
0.2000734 0.1095561 0.1095526
0.4009783 0.2543154 0.2543090
0.6024357 0.4302840 0.4302759
0.8025685 0.6331952 0.6331867
0.1134736 0.2046704 0.1134705
0.2071494 0.2071495 0.1341668
0.4015831 0.2701240 0.2562408
0.6024772 0.4315599 0.4304200
0.8025713 0.6332692 0.6331957
0.2619937 0.4083396 0.2619881
0.2770940 0.4084136 0.2634146
0.4115915 0.4115917 0.2979746
0.6037414 0.4650463 0.4350158
0.8026666 0.6356960 0.6334975
0.4410524 0.6114172 0.4410453
0.4422543 0.6114205 0.4411465
0.4738564 0.6115360 0.4444381
0.6144053 0.6144054 0.4851507
0.8041706 0.6687716 0.6384818
0.6479172 0.8139687 0.6479098
0.6479854 0.8139688 0.6479154
0.6502189 0.8139721 0.6481029
0.6806937 0.8140347 0.6512840
0.8162563 0.8162564 0.6926045
0.1113965 0.1113970 0.1758400
0.1983499 0.1300463 0.1983491
0.4030308 0.2344760 0.2544109
0.6025853 0.4291644 0.4303120
0.8025808 0.6331376 0.6331940
0.1222714 0.2049824 0.2049817
0.2040816 0.2040816 0.2040816
0.4034015 0.2562532 0.2562488
0.6026259 0.4304637 0.4304557
0.8025837 0.6332117 0.6332031
0.2411234 0.4082319 0.2604536
0.2619465 0.4082834 0.2619425
0.4110019 0.4110021 0.2974642
0.6038647 0.4644259 0.4350388
0.8026788 0.6356408 0.6335048
0.4398421 0.6114288 0.4409579
0.4410665 0.6114320 0.4410594
0.4731396 0.6115448 0.4443585
0.6143847 0.6143849 0.4851306
0.8041810 0.6687416 0.6384877
0.6478516 0.8139709 0.6479066
0.6479197 0.8139710 0.6479123
0.6501556 0.8139743 0.6480998
0.6806558 0.8140368 0.6512812
0.8162563 0.8162565 0.6926045
0.2542722 0.2542730 0.3607300
0.2624151 0.2549798 0.3614256
0.3971595 0.2894732 0.3971582
0.6085918 0.3628693 0.4321437
0.8029945 0.6311690 0.6334413
0.2485782 0.2574282 0.3646635
0.2597050 0.2597057 0.3672261
0.3990425 0.2911007 0.3990415
0.6085954 0.3665424 0.4322664
0.8029973 0.6312456 0.6334503
0.2774873 0.4085624 0.4085614
0.2774072 0.4084662 0.4084655
0.4081633 0.4081633 0.4081633
0.6087450 0.4362568 0.4362536
0.8030885 0.6337573 0.6337490
0.3727548 0.6119105 0.4378320
0.3760746 0.6119107 0.4379427
0.4415312 0.6119242 0.4415282
0.6136925 0.6136926 0.4844542
0.8045291 0.6677240 0.6386861
0.6456160 0.8140445 0.6478017
0.6456867 0.8140446 0.6478073
0.6480029 0.8140476 0.6479956
0.6793759 0.8141045 0.6511894
0.8162576 0.8162577 0.6926058
0.4237414 0.4237424 0.5510770
0.4241470 0.4235865 0.5509024
0.4425015 0.4254192 0.5525265
0.5961885 0.4722507 0.5961872
0.8111053 0.5680970 0.6384360
0.4227034 0.4232712 0.5505873
0.4231841 0.4231851 0.5504864
0.4424098 0.4257416 0.5528767
0.5963483 0.4724057 0.5963469
0.8111056 0.5683096 0.6384430
0.4182484 0.4404435 0.5637062
0.4185671 0.4402377 0.5640404
0.4425535 0.4425542 0.5708990
0.6015456 0.4774568 0.6015446
0.8111142 0.5750597 0.6386766
0.4601695 0.6113060 0.6113049
0.4601819 0.6113188 0.6113177
0.4605920 0.6117435 0.6117429
0.6122449 0.6122449 0.6122449
0.8112852 0.6426409 0.6426373
0.5800302 0.8154179 0.6457850
0.5802211 0.8154178 0.6457912
0.5863096 0.8154146 0.6459945
0.6494350 0.8153668 0.6494317
0.8162792 0.8162793 0.6926291
0.6126388 0.6126399 0.7412910
0.6126431 0.6126118 0.7412636
0.6128761 0.6117769 0.7404448
0.6282050 0.6107598 0.7391803
0.7917563 0.6712888 0.7917551
0.6125275 0.6125608 0.7412156
0.6125322 0.6125333 0.7411886
0.6127809 0.6117134 0.7403842
0.6282034 0.6107819 0.7392020
0.7917712 0.6713046 0.7917699
0.6094556 0.6105782 0.7393264
0.6094739 0.6105635 0.7393118
0.6101350 0.6101360 0.7388841
0.6282287 0.6116064 0.7400104
0.7922643 0.6718291 0.7922631
0.6083976 0.6311600 0.7549320
0.6084266 0.6311589 0.7549594
0.6094059 0.6311219 0.7558829
0.6366170 0.6366178 0.7642055
0.8002888 0.6803801 0.8002878
0.6671205 0.8133257 0.8133248
0.6671229 0.8133279 0.8133270
0.6672034 0.8134022 0.8134013
0.6685893 0.8146813 0.8146807
0.8163265 0.8163265 0.8163265
