LUTs/luminance_compensation_p3.cube
TITLE "Pre-formation 2012 Luminance Correction for P3 Target"
# Lower Side of Guard Rail Formation for P3 medium.
# The Guard Rail is designed to leaves valid value as-is, and only touch out of domain values Modified from python script shared by Sakari Kapanen
# This LUT assumes E Gamut encoded in ST2084 (100) curve and then power 0.5
# LUT resolution 50
LUT_3D_SIZE 5
DOMAIN_MIN 0.000000 0.000000 0.000000
DOMAIN_MAX 0.816327 0.816327 0.816327
0.0000000 0.0000000 0.0000000
0.1989185 0.1082815 0.1082815
0.3991275 0.2518485 0.2518485
0.6001782 0.4268826 0.4268826
0.7995298 0.6285703 0.6285703
0.1480606 0.2069002 0.1480606
0.2073836 0.2073836 0.1375522
0.3999031 0.2682725 0.2543035
0.6002321 0.4282189 0.4270674
0.7995336 0.6286484 0.6285821
0.3202731 0.4102513 0.3202731
0.3190761 0.4099336 0.3131427
0.4117954 0.4117954 0.3035870
0.6018418 0.4630061 0.4328951
0.7996608 0.6312078 0.6289740
0.5102695 0.6114161 0.5102695
0.5102158 0.6114202 0.5098575
0.5082789 0.6115747 0.4933778
0.6144172 0.6144172 0.4917222
0.8016251 0.6658058 0.6353611
0.7147180 0.8108157 0.7147180
0.7147173 0.8108179 0.7146983
0.7146933 0.8108918 0.7140360
0.7141350 0.8121850 0.6999675
0.8159652 0.8159652 0.6988681
0.1160267 0.1160267 0.1792580
0.1971592 0.1389138 0.1971592
0.3988715 0.2539609 0.2677950
0.6002947 0.4261930 0.4273610
0.7995453 0.6285130 0.6285794
0.1639949 0.2096702 0.2096702
0.2040816 0.2040816 0.2040816
0.4022546 0.2543428 0.2543428
0.6004198 0.4271104 0.4271104
0.7995492 0.6285912 0.6285912
0.3212065 0.4103271 0.3263238
0.3200520 0.4100054 0.3200520
0.4112272 0.4112272 0.3030903
0.6019948 0.4623976 0.4329219
0.7996762 0.6311532 0.6289829
0.5103286 0.6114177 0.5106839
0.5102751 0.6114218 0.5102751
0.5083439 0.6115757 0.4939411
0.6143984 0.6143984 0.4917038
0.8016379 0.6657773 0.6353682
0.7147209 0.8108155 0.7147399
0.7147202 0.8108177 0.7147202
0.7146962 0.8108917 0.7140582
0.7141382 0.8121848 0.6999973
0.8159654 0.8159654 0.6988683
0.2619619 0.2619619 0.3652189
0.2708448 0.2639249 0.3668941
0.3943807 0.3035714 0.3943807
0.5993453 0.4325208 0.4618423
0.7996690 0.6280817 0.6303462
0.2682424 0.2750237 0.3703371
0.2683822 0.2683822 0.3728011
0.3961532 0.3051463 0.3961532
0.5996073 0.4325757 0.4613048
0.7996908 0.6280922 0.6302923
0.3448961 0.4132049 0.4132049
0.3445168 0.4127968 0.4127968
0.4081633 0.4081633 0.4081633
0.6081159 0.4343889 0.4343889
0.8001920 0.6292853 0.6292853
0.5122598 0.6114722 0.5232105
0.5122112 0.6114758 0.5228908
0.5104620 0.6116111 0.5104620
0.6137663 0.6137663 0.4910843
0.8020671 0.6648115 0.6356070
0.7148173 0.8108102 0.7154637
0.7148166 0.8108124 0.7154444
0.7147930 0.8108863 0.7147930
0.7142444 0.8121783 0.7009828
0.8159712 0.8159712 0.6988746
0.4321982 0.4321982 0.5547586
0.4328385 0.4323208 0.5548727
0.4529297 0.4372661 0.5586839
0.5913988 0.4876116 0.5913988
0.7982709 0.6337362 0.6634433
0.4326807 0.4331975 0.5551203
0.4326699 0.4326699 0.5552555
0.4529138 0.4376264 0.5591012
0.5915562 0.4877655 0.5915562
0.7982923 0.6337483 0.6634220
0.4477576 0.4627261 0.5662682
0.4478200 0.4624441 0.5664597
0.4518034 0.4518034 0.5752986
0.5967132 0.4928130 0.5967132
0.7990045 0.6341469 0.6626906
0.5372146 0.6128891 0.6128891
0.5372119 0.6128863 0.6128863
0.5371221 0.6127960 0.6127960
0.6122449 0.6122449 0.6122449
0.8104477 0.6403966 0.6403966
0.7164578 0.8107196 0.7268610
0.7164574 0.8107218 0.7268462
0.7164419 0.8107947 0.7263486
0.7160481 0.8120677 0.7160481
0.8160728 0.8160728 0.6989836
0.6171511 0.6171511 0.7405677
0.6171693 0.6171398 0.7405808
0.6184403 0.6174330 0.7407895
0.6386619 0.6228059 0.7446957
0.7822705 0.6815429 0.7822705
0.6171794 0.6172089 0.7405872
0.6171885 0.6171885 0.7406036
0.6184405 0.6174622 0.7408198
0.6386748 0.6228403 0.7447307
0.7822873 0.6815605 0.7822873
0.6181379 0.6191415 0.7412554
0.6181480 0.6191228 0.7412727
0.6185026 0.6185026 0.7418668
0.6391189 0.6240065 0.7459173
0.7828435 0.6821462 0.7828435
0.6348723 0.6499222 0.7531087
0.6348878 0.6499184 0.7531301
0.6354145 0.6497927 0.7538526
0.6469911 0.6469911 0.7690774
0.7918266 0.6916221 0.7918266
0.7383979 0.8096670 0.8096670
0.7383997 0.8096687 0.8096687
0.7384612 0.8097273 0.8097273
0.7395217 0.8107383 0.8107383
0.8163265 0.8163265 0.8163265
